; generated by Slic3r 1.2.9 on 2016-07-07 at 10:22:35

; external perimeters extrusion width = 0.50mm
; perimeters extrusion width = 0.50mm
; infill extrusion width = 0.60mm
; solid infill extrusion width = 0.50mm
; top infill extrusion width = 0.50mm

M107
M104 S200 ; set temperature
G28 ; home all axes

M109 S200 ; wait for temperature to be reached
G21 ; set units to millimeters
G90 ; use absolute coordinates
M82 ; use absolute distances for extrusion
G92 E0
G1 E-8.00000 F9000.00000
G92 E0
G1 Z0.200 F2220.000
G1 X12.031 Y13.359 F2220.000
G1 E8.00000 F9000.00000
G1 X12.448 Y13.008 E8.02275 F864.000
G1 X12.709 Y12.815 E8.03628
G1 X13.466 Y12.285 E8.07481
G1 X14.028 Y11.948 E8.10213
G1 X14.649 Y11.632 E8.13115
G1 X15.151 Y11.404 E8.15417
G1 X16.445 Y10.931 E8.21158
G1 X16.986 Y10.778 E8.23504
G1 X18.375 Y10.475 E8.29430
G1 X18.805 Y10.403 E8.31248
G1 X20.207 Y10.244 E8.37131
G1 X21.128 Y10.198 E8.40973
G1 X22.644 Y10.160 E8.47296
G1 X24.755 Y10.260 E8.56107 F864.000
G1 X26.217 Y10.424 E8.62239
G1 X26.668 Y10.499 E8.64146
G1 X28.073 Y10.810 E8.70146
G1 X28.834 Y11.042 E8.73462
G1 X29.373 Y11.226 E8.75835
G1 X29.857 Y11.423 E8.78013
G1 X30.838 Y11.909 E8.82578
G1 X31.475 Y12.297 E8.85689
G1 X32.028 Y12.697 E8.88534
G1 X32.506 Y13.080 E8.91087
G1 X33.187 Y13.723 E8.94992
G1 X33.458 Y14.009 E8.96634
G1 X33.710 Y14.318 E8.98297
G1 X34.028 Y14.743 E9.00510
G1 X34.289 Y15.132 E9.02464
G1 X34.555 Y15.599 E9.04701
G1 X34.837 Y16.161 E9.07324
G1 X35.176 Y17.073 E9.11379
G1 X35.381 Y17.871 E9.14815
G1 X35.479 Y18.372 E9.16943
G1 X36.748 Y27.499 E9.55360
G1 X36.791 Y28.254 E9.58512
G1 X36.760 Y29.154 E9.62268
G1 X36.715 Y29.639 E9.64297
G1 X36.504 Y30.782 E9.69141
G1 X36.283 Y31.517 E9.72342
G1 X35.931 Y32.416 E9.76369
G1 X35.746 Y32.831 E9.78263
G1 X35.122 Y33.924 E9.83509
G1 X34.753 Y34.457 E9.86211
G1 X34.383 Y34.923 E9.88692
G1 X33.767 Y35.598 E9.92502
G1 X33.151 Y36.184 E9.96044
G1 X32.571 Y36.648 E9.99142
G1 X31.550 Y37.339 E10.04281
G1 X31.047 Y37.626 E10.06694
G1 X30.148 Y38.066 E10.10867
G1 X29.744 Y38.239 E10.12699
G1 X29.037 Y38.493 E10.15832
G1 X27.541 Y38.911 E10.22306
G1 X26.282 Y39.140 E10.27643
G1 X25.518 Y39.232 E10.30849
G1 X23.822 Y39.362 E10.37943
G1 X21.686 Y39.361 E10.46849
G1 X19.956 Y39.258 E10.54072
G1 X19.608 Y39.222 E10.55529
G1 X18.028 Y38.986 E10.62191
G1 X17.530 Y38.883 E10.64313
G1 X16.416 Y38.584 E10.69121
G1 X15.701 Y38.338 E10.72272
G1 X15.371 Y38.203 E10.73759
G1 X14.274 Y37.695 E10.78798
G1 X13.890 Y37.493 E10.80606
G1 X13.051 Y36.968 E10.84732
G1 X12.700 Y36.722 E10.86519
G1 X12.333 Y36.431 E10.88472
G1 X11.676 Y35.872 E10.92069
G1 X11.309 Y35.524 E10.94177
G1 X10.843 Y35.002 E10.97095
G1 X10.183 Y34.158 E11.01558
G1 X9.913 Y33.775 E11.03514
G1 X9.407 Y32.931 E11.07617
G1 X9.204 Y32.545 E11.09433
G1 X8.617 Y31.208 E11.15523
G1 X8.363 Y30.442 E11.18885
G1 X8.083 Y29.261 E11.23946
G1 X8.001 Y28.770 E11.26021
G1 X7.910 Y27.863 E11.29820
G1 X7.907 Y27.182 E11.32662
G1 X8.368 Y20.535 E11.60437
G1 X8.501 Y19.645 E11.64190
G1 X8.726 Y18.678 E11.68326
G1 X8.911 Y18.072 E11.70971
G1 X9.150 Y17.445 E11.73769
G1 X9.533 Y16.606 E11.77612
G1 X9.922 Y15.887 E11.81019
G1 X10.337 Y15.255 E11.84171
G1 X11.115 Y14.268 E11.89412
G1 X11.484 Y13.877 E11.91654
G1 X11.976 Y13.411 E11.94479
G1 X12.414 Y13.764 F2220.000
G1 X13.029 Y13.272 E11.97764 F864.000
G1 X13.786 Y12.742 E12.01616
G1 X14.281 Y12.444 E12.04023
G1 X14.901 Y12.129 E12.06925
G1 X15.376 Y11.913 E12.09096
G1 X16.628 Y11.457 E12.14655
G1 X17.105 Y11.322 E12.16722
G1 X18.493 Y11.019 E12.22641
G1 X18.871 Y10.956 E12.24242
G1 X20.240 Y10.800 E12.29985
G1 X21.147 Y10.754 E12.33769
G1 X22.621 Y10.716 E12.39916
G1 X24.718 Y10.815 E12.48669 F864.000
G1 X26.153 Y10.977 E12.54689
G1 X26.550 Y11.043 E12.56369
G1 X27.946 Y11.352 E12.62328
G1 X28.654 Y11.569 E12.65413
G1 X29.192 Y11.753 E12.67787
G1 X29.619 Y11.926 E12.69705
G1 X30.587 Y12.407 E12.74213
G1 X31.149 Y12.748 E12.76953
G1 X31.702 Y13.148 E12.79798
G1 X32.150 Y13.508 E12.82195
G1 X32.799 Y14.122 E12.85918
G1 X33.265 Y14.652 E12.88862
G1 X33.812 Y15.419 E12.92789
G1 X34.057 Y15.850 E12.94854
G1 X34.338 Y16.409 E12.97462
G1 X34.637 Y17.212 E13.01034
G1 X34.841 Y18.007 E13.04458
G1 X34.927 Y18.449 E13.06333
G1 X36.196 Y27.576 E13.44750
G1 X36.234 Y28.241 E13.47526
G1 X36.203 Y29.127 E13.51222
G1 X36.106 Y29.938 E13.54629
G1 X35.959 Y30.666 E13.57725
G1 X35.765 Y31.314 E13.60543
G1 X35.412 Y32.213 E13.64571
G1 X35.243 Y32.591 E13.66297
G1 X35.081 Y32.897 E13.67740
G1 X34.583 Y33.736 E13.71807
G1 X34.317 Y34.111 E13.73722
G1 X33.947 Y34.576 E13.76203
G1 X33.581 Y34.992 E13.78510
G1 X32.769 Y35.778 E13.83222
G1 X32.259 Y36.187 E13.85950
G1 X31.244 Y36.873 E13.91055
G1 X30.802 Y37.126 E13.93180
G1 X29.917 Y37.559 E13.97287
G1 X29.546 Y37.719 E13.98968
G1 X28.881 Y37.958 E14.01916
G1 X27.421 Y38.367 E14.08237
G1 X26.187 Y38.591 E14.13465
G1 X25.471 Y38.677 E14.16473
G1 X23.819 Y38.805 E14.23380
G1 X21.705 Y38.804 E14.32192
G1 X19.993 Y38.702 E14.39344
G1 X18.111 Y38.435 E14.47266
G1 X17.672 Y38.344 E14.49135
G1 X16.567 Y38.048 E14.53906
G1 X15.601 Y37.696 E14.58194
G1 X14.510 Y37.190 E14.63205
G1 X14.172 Y37.013 E14.64797
G1 X13.350 Y36.498 E14.68839
G1 X12.694 Y36.007 E14.72257
G1 X12.037 Y35.448 E14.75854
G1 X11.714 Y35.141 E14.77710
G1 X11.282 Y34.659 E14.80411
G1 X10.622 Y33.815 E14.84874
G1 X10.384 Y33.477 E14.86596
G1 X9.888 Y32.648 E14.90626
G1 X9.709 Y32.309 E14.92225
G1 X9.129 Y30.988 E14.98241
G1 X8.905 Y30.314 E15.01201
G1 X8.627 Y29.140 E15.06229
G1 X8.555 Y28.708 E15.08056
G1 X8.466 Y27.820 E15.11775
G1 X8.463 Y27.220 E15.14279
G1 X8.922 Y20.599 E15.41945
G1 X9.044 Y19.771 E15.45436
G1 X9.268 Y18.805 E15.49571
G1 X9.431 Y18.270 E15.51901
G1 X9.670 Y17.643 E15.54699
G1 X10.023 Y16.870 E15.58239
G1 X10.411 Y16.155 E15.61633
G1 X10.776 Y15.598 E15.64409
G1 X11.542 Y14.626 E15.69569
G1 X11.867 Y14.281 E15.71543
G1 X12.359 Y13.815 E15.74369
G1 X12.797 Y14.168 F2220.000
G1 X13.348 Y13.728 E15.77311 F864.000
G1 X14.105 Y13.198 E15.81164
G1 X14.533 Y12.941 E15.83244
G1 X15.154 Y12.626 E15.86146
G1 X15.600 Y12.423 E15.88188
G1 X16.812 Y11.983 E15.93564
G1 X17.224 Y11.866 E15.95351
G1 X18.610 Y11.564 E16.01263
G1 X18.937 Y11.509 E16.02648
G1 X20.273 Y11.356 E16.08251
G1 X21.165 Y11.311 E16.11977
G1 X22.597 Y11.273 E16.17948
G1 X24.680 Y11.371 E16.26642 F864.000
G1 X26.089 Y11.530 E16.32550
G1 X26.432 Y11.588 E16.34003
G1 X27.819 Y11.894 E16.39922
G1 X28.473 Y12.096 E16.42777
G1 X29.012 Y12.280 E16.45150
G1 X29.380 Y12.430 E16.46809
G1 X30.337 Y12.904 E16.51259
G1 X30.822 Y13.199 E16.53628
G1 X31.375 Y13.600 E16.56473
G1 X31.794 Y13.937 E16.58716
G1 X32.410 Y14.521 E16.62256
G1 X32.819 Y14.987 E16.64840
G1 X33.334 Y15.706 E16.68528
G1 X33.560 Y16.100 E16.70422
G1 X33.839 Y16.656 E16.73015
G1 X34.097 Y17.351 E16.76103
G1 X34.301 Y18.144 E16.79517
G1 X34.375 Y18.525 E16.81138
G1 X35.644 Y27.653 E17.19554
G1 X35.677 Y28.227 E17.21955
G1 X35.630 Y29.308 E17.26465
G1 X35.560 Y29.829 E17.28657
G1 X35.414 Y30.550 E17.31724
G1 X35.246 Y31.110 E17.34161
G1 X34.893 Y32.010 E17.38188
G1 X34.600 Y32.615 E17.40993
G1 X34.178 Y33.332 E17.44462
G1 X33.881 Y33.764 E17.46646
G1 X33.511 Y34.230 E17.49126
G1 X33.169 Y34.617 E17.51279
G1 X32.387 Y35.373 E17.55812
G1 X31.946 Y35.726 E17.58171
G1 X30.938 Y36.407 E17.63241
G1 X30.556 Y36.626 E17.65078
G1 X29.685 Y37.052 E17.69119
G1 X29.348 Y37.198 E17.70649
G1 X28.725 Y37.423 E17.73412
G1 X27.301 Y37.823 E17.79579
G1 X26.092 Y38.042 E17.84699
G1 X25.423 Y38.122 E17.87509
G1 X23.816 Y38.248 E17.94229
G1 X21.725 Y38.248 E18.02946
G1 X20.030 Y38.146 E18.10027
G1 X18.194 Y37.884 E18.17755
G1 X17.815 Y37.806 E18.19371
G1 X16.718 Y37.512 E18.24104
G1 X15.830 Y37.188 E18.28044
G1 X14.746 Y36.686 E18.33026
G1 X14.454 Y36.532 E18.34402
G1 X13.649 Y36.028 E18.38360
G1 X13.055 Y35.582 E18.41458
G1 X12.397 Y35.023 E18.45056
G1 X12.118 Y34.758 E18.46660
G1 X11.721 Y34.315 E18.49142
G1 X11.061 Y33.472 E18.53606
G1 X10.855 Y33.180 E18.55095
G1 X10.368 Y32.366 E18.59051
G1 X10.213 Y32.072 E18.60434
G1 X9.640 Y30.768 E18.66374
G1 X9.447 Y30.185 E18.68934
G1 X9.171 Y29.019 E18.73927
G1 X9.052 Y28.140 E18.77626
G1 X9.021 Y27.777 E18.79146
G1 X9.019 Y27.258 E18.81311
G1 X9.475 Y20.663 E19.08868
G1 X9.587 Y19.897 E19.12096
G1 X9.811 Y18.931 E19.16232
G1 X9.952 Y18.468 E19.18246
G1 X10.191 Y17.841 E19.21044
G1 X10.513 Y17.135 E19.24282
G1 X10.899 Y16.422 E19.27662
G1 X11.216 Y15.940 E19.30063
G1 X11.969 Y14.984 E19.35140
G1 X12.250 Y14.686 E19.36847
G1 X12.742 Y14.220 E19.39673
G1 F1776
G1 X13.348 Y13.728 E15.63949
G1 F1776
G1 X14.002 Y13.270 E11.79673
G1 E11.39673 F9000.00000
G92 E0
G1 X26.407 Y25.546 F2220.000
G1 E8.00000 F9000.00000
G1 X26.527 Y25.335 E8.01012 F691.200
G1 X27.617 Y25.556 E8.05651
G1 X28.572 Y25.803 E8.09763
G1 X29.161 Y26.038 E8.12405
G1 X29.687 Y26.363 E8.14986
G1 X29.986 Y26.615 E8.16614
G1 X30.348 Y27.048 E8.18966
G1 X30.502 Y27.338 E8.20334
G1 X30.620 Y27.671 E8.21807
G1 X30.703 Y28.224 E8.24138
G1 X30.672 Y28.918 E8.27038
G1 X30.576 Y29.400 E8.29083
G1 X30.259 Y30.189 E8.32630
G1 X29.930 Y30.746 E8.35326
G1 X29.649 Y31.099 E8.37206
G1 X29.060 Y31.677 E8.40647
G1 X28.277 Y32.206 E8.44589
G1 X27.522 Y32.574 E8.48090
G1 X27.286 Y32.664 E8.49140
G1 X26.089 Y32.998 E8.54321
G1 X25.299 Y33.134 E8.57666
G1 X25.206 Y32.866 E8.58849
G1 X25.466 Y32.725 E8.60082
G1 X26.221 Y32.129 E8.64095
G1 X26.881 Y31.295 E8.68530
G1 X27.219 Y30.623 E8.71662
G1 X27.331 Y30.297 E8.73099
G1 X27.514 Y29.581 E8.76179
G1 X27.573 Y28.494 E8.80717
G1 X27.475 Y27.670 E8.84179
G1 X27.208 Y26.754 E8.88156
G1 X26.728 Y25.897 E8.92248
G1 X26.458 Y25.601 E8.93922
G1 X25.330 Y24.621 F2220.000
G1 X24.107 Y24.176 E8.99347 F691.200
G1 X23.309 Y24.042 E9.02718
G1 X23.287 Y23.785 E9.03795
G1 X24.053 Y23.511 E9.07186
G1 X24.868 Y22.997 E9.11202
G1 X25.118 Y22.785 E9.12569
G1 X25.321 Y24.546 E9.19959
G1 X25.405 Y22.884 F2220.000
G1 X25.241 Y22.662 E9.21109 F691.200
G1 X25.774 Y22.083 E9.24390
G1 X26.215 Y21.297 E9.28147
G1 X26.444 Y20.459 E9.31771
G1 X26.485 Y19.656 E9.35122
G1 X26.315 Y18.720 E9.39088
G1 X25.974 Y17.949 E9.42603
G1 X25.415 Y17.243 E9.46358
G1 X24.580 Y16.608 E9.50730
G1 X24.676 Y16.371 E9.51793
G1 X25.444 Y16.460 E9.55019
G1 X26.625 Y16.721 E9.60061
G1 X27.316 Y16.954 E9.63100
G1 X28.002 Y17.295 E9.66295
G1 X28.576 Y17.726 E9.69285
G1 X28.867 Y18.010 E9.70980
G1 X29.088 Y18.300 E9.72501
G1 X29.324 Y18.749 E9.74616
G1 X29.446 Y19.226 E9.76667
G1 X29.463 Y19.582 E9.78153
G1 X29.413 Y20.000 E9.79909
G1 X29.261 Y20.398 E9.81686
G1 X29.009 Y20.779 E9.83592
G1 X28.909 Y20.888 E9.84205
G1 X28.328 Y21.389 E9.87407
G1 X27.606 Y21.831 E9.90935
G1 X25.472 Y22.852 E10.00795
G1 F1776
G1 X25.241 Y22.662 E8.56652
G1 F1776
G1 X25.774 Y22.083 E4.77782
G1 F1776
G1 X26.015 Y21.654 E2.40795
G1 E2.00795 F9000.00000
G92 E0
G1 X17.555 Y19.865 F2220.000
G1 E8.00000 F9000.00000
G1 X14.725 Y19.865 E8.11800 F691.200
G1 X14.911 Y19.453 E8.13685
G1 X15.207 Y18.907 E8.16273
G1 X15.744 Y18.224 E8.19895
G1 X16.142 Y17.847 E8.22180
G1 X16.868 Y17.333 E8.25892
G1 X17.580 Y16.985 E8.29194
G1 X18.373 Y16.704 E8.32701
G1 X19.576 Y16.441 E8.37835
G1 X19.681 Y16.704 E8.39017
G1 X19.167 Y17.015 E8.41522
G1 X18.662 Y17.494 E8.44423
G1 X18.201 Y18.122 E8.47673
G1 X17.757 Y19.080 E8.52071
G1 X17.574 Y19.792 E8.55138
G1 F1776
G1 X15.996 Y19.832 E0.95138
G1 E0.55138 F9000.00000
G92 E0
G1 X17.468 Y29.131 F2220.000
G1 E8.00000 F9000.00000
G1 X17.785 Y30.164 E8.04506 F691.200
G1 X18.157 Y31.045 E8.08489
G1 X18.728 Y31.900 E8.12775
G1 X19.355 Y32.513 E8.16430
G1 X19.875 Y32.841 E8.18995
G1 X19.781 Y33.095 E8.20126
G1 X19.014 Y32.980 E8.23358
G1 X18.110 Y32.739 E8.27257
G1 X17.837 Y32.639 E8.28468
G1 X16.930 Y32.219 E8.32637
G1 X16.392 Y31.881 E8.35286
G1 X15.671 Y31.281 E8.39196
G1 X15.031 Y30.479 E8.43472
G1 X14.693 Y29.914 E8.46219
G1 X14.256 Y28.914 E8.50766
G1 X17.445 Y28.914 E8.64062
G1 X17.460 Y29.057 E8.64658
G1 F1776
G1 X17.785 Y30.164 E3.08815
G1 F1776
G1 X17.950 Y30.555 E1.04658
G1 E0.64658 F9000.00000
G92 E0
G1 X25.892 Y24.637 F2220.000
G1 E8.00000 F9000.00000
G1 X27.742 Y25.013 E8.07870 F864.000
G1 X28.746 Y25.272 E8.12189
G1 X29.413 Y25.538 E8.15183
G1 X30.015 Y25.911 E8.18138
G1 X30.382 Y26.221 E8.20138
G1 X30.813 Y26.735 E8.22936
G1 X31.013 Y27.113 E8.24717
G1 X31.163 Y27.535 E8.26585
G1 X31.261 Y28.192 E8.29353
G1 X31.223 Y29.003 E8.32741
G1 X31.111 Y29.561 E8.35113
G1 X30.760 Y30.436 E8.39044
G1 X30.390 Y31.062 E8.42078
G1 X29.925 Y31.623 E8.45114
G1 X29.410 Y32.112 E8.48074
G1 X28.556 Y32.690 E8.52372
G1 X27.743 Y33.086 E8.56142
G1 X27.461 Y33.193 E8.57403
G1 X26.212 Y33.542 E8.62807
G1 X25.375 Y33.686 E8.66347
G1 X23.757 Y33.834 E8.73123
G1 X22.274 Y33.842 E8.79303
G1 X21.588 Y33.826 E8.82167
G1 X20.356 Y33.744 E8.87313
G1 X18.900 Y33.527 E8.93448
G1 X17.943 Y33.270 E8.97580
G1 X17.625 Y33.155 E8.98991
G1 X16.664 Y32.709 E9.03407
G1 X16.064 Y32.333 E9.06359
G1 X15.289 Y31.688 E9.10562
G1 X15.173 Y31.564 E9.11270
G1 X14.571 Y30.795 E9.15341
G1 X14.197 Y30.169 E9.18380
G1 X13.724 Y29.089 E9.23298
G1 X13.550 Y28.357 E9.26431
G1 X17.945 Y28.357 E9.44754
G1 X18.017 Y29.019 E9.47527
G1 X18.309 Y29.974 E9.51692
G1 X18.650 Y30.779 E9.55337
G1 X19.159 Y31.542 E9.59160
G1 X19.702 Y32.073 E9.62326
G1 X20.296 Y32.448 E9.65256
G1 X20.973 Y32.742 E9.68334
G1 X21.868 Y32.940 E9.72155
G1 X22.832 Y32.973 E9.76173
G1 X23.609 Y32.891 E9.79432
G1 X24.470 Y32.631 E9.83181
G1 X25.158 Y32.258 E9.86445
G1 X25.828 Y31.729 E9.90002
G1 X26.251 Y31.211 E9.92792
G1 X26.405 Y31.002 E9.93874
G1 X26.704 Y30.406 E9.96652
G1 X26.797 Y30.137 E9.97839
G1 X26.960 Y29.497 E10.00595
G1 X27.014 Y28.512 E10.04705
G1 X26.927 Y27.781 E10.07774
G1 X26.691 Y26.971 E10.11293
G1 X26.274 Y26.226 E10.14852
G1 X25.748 Y25.651 E10.18099
G1 X25.524 Y25.465 E10.19313
G1 X24.826 Y25.026 E10.22752
G1 X23.970 Y24.718 E10.26544
G1 X23.153 Y24.581 E10.29999
G1 X22.183 Y24.558 E10.34044
G1 X21.962 Y24.588 E10.34973
G1 X21.962 Y23.464 E10.39658
G1 X22.186 Y23.464 E10.40591
G1 X22.897 Y23.332 E10.43607
G1 X23.808 Y23.007 E10.47638
G1 X24.537 Y22.547 E10.51235
G1 X24.774 Y22.347 E10.52526
G1 X25.320 Y21.754 E10.55887
G1 X25.696 Y21.084 E10.59087
G1 X25.891 Y20.370 E10.62174
G1 X25.925 Y19.692 E10.65003
G1 X25.778 Y18.885 E10.68425
G1 X25.493 Y18.239 E10.71369
G1 X25.022 Y17.644 E10.74534
G1 X24.363 Y17.142 E10.77985
G1 X23.576 Y16.808 E10.81550
G1 X22.986 Y16.693 E10.84058
G1 X22.558 Y16.643 E10.85853
G1 X21.820 Y16.632 E10.88930
G1 X20.927 Y16.776 E10.92700
G1 X20.234 Y17.021 E10.95762
G1 X19.507 Y17.461 E10.99307
G1 X19.082 Y17.864 E11.01750
G1 X18.682 Y18.407 E11.04561
G1 X18.284 Y19.268 E11.08514
G1 X17.987 Y20.422 E11.13482
G1 X13.996 Y20.422 E11.30118
G1 X14.098 Y19.986 E11.31984
G1 X14.412 Y19.205 E11.35494
G1 X14.740 Y18.600 E11.38362
G1 X15.331 Y17.847 E11.42352
G1 X15.787 Y17.415 E11.44973
G1 X16.584 Y16.852 E11.49039
G1 X17.364 Y16.471 E11.52660
G1 X18.220 Y16.167 E11.56445
G1 X19.502 Y15.887 E11.61917
G1 X20.558 Y15.761 E11.66350
G1 X22.435 Y15.685 E11.74181
G1 X24.372 Y15.775 E11.82266
G1 X25.537 Y15.910 E11.87153
G1 X26.775 Y16.184 E11.92440
G1 X27.530 Y16.439 E11.95762
G1 X28.291 Y16.817 E11.99307
G1 X28.948 Y17.311 E12.02733
G1 X29.285 Y17.639 E12.04695
G1 X29.560 Y18.000 E12.06582
G1 X29.847 Y18.548 E12.09163
G1 X30.000 Y19.143 E12.11724
G1 X30.021 Y19.602 E12.13641
G1 X29.958 Y20.134 E12.15874
G1 X29.760 Y20.654 E12.18196
G1 X29.449 Y21.124 E12.20543
G1 X29.298 Y21.289 E12.21476
G1 X28.657 Y21.841 E12.25002
G1 X27.872 Y22.321 E12.28838
G1 X25.743 Y23.340 E12.38680
G1 X25.884 Y24.563 E12.43810
