; generated by Slic3r 1.2.9 on 2016-07-06 at 10:50:59

; external perimeters extrusion width = 0.50mm
; perimeters extrusion width = 0.50mm
; infill extrusion width = 0.60mm
; solid infill extrusion width = 0.50mm
; top infill extrusion width = 0.50mm

M107
M104 S200 ; set temperature
G28 ; home all axes

M109 S200 ; wait for temperature to be reached
G21 ; set units to millimeters
G90 ; use absolute coordinates
M82 ; use absolute distances for extrusion
G92 E0
G1 E-8.00000 F9000.00000
G92 E0
G1 Z0.200 F2220.000
G1 X23.186 Y23.186 F2220.000
G1 E8.00000 F9000.00000
G1 X24.298 Y22.074 E8.06558 F700.597
G1 X26.101 Y20.953 E8.15409
G1 X31.730 Y19.044 E8.40188
G1 X32.901 Y18.808 E8.45167
G1 X34.197 Y18.882 E8.50580
G1 X35.485 Y19.324 E8.56254 F700.597
G1 X36.600 Y20.105 E8.61930
G1 X37.483 Y21.213 E8.67837
G1 X37.775 Y21.799 E8.70566
G1 X41.912 Y31.785 E9.15627
G1 X42.147 Y32.473 E9.18659
G1 X42.305 Y33.899 E9.24640
G1 X42.070 Y35.222 E9.30241
G1 X41.503 Y36.399 E9.35686
G1 X40.558 Y37.456 E9.41598
G1 X39.397 Y38.175 E9.47290
G1 X38.147 Y38.534 E9.52712
G1 X37.439 Y38.588 E9.55674
G1 X23.221 Y38.588 E10.14947
G1 X22.466 Y38.527 E10.18105
G1 X21.166 Y38.131 E10.23771
G1 X19.927 Y37.302 E10.29986
G1 X19.030 Y36.195 E10.35926
G1 X18.505 Y34.928 E10.41642
G1 X18.357 Y33.507 E10.47599
G1 X18.580 Y32.240 E10.52961
G1 X20.360 Y26.736 E10.77079
G1 X21.502 Y24.870 E10.86198
G1 X23.133 Y23.239 E10.95814
G1 X23.580 Y23.580 F2220.000
G1 X24.692 Y22.467 E11.02373 F700.597
G1 X26.280 Y21.480 E11.10168
G1 X31.909 Y19.572 E11.34946
G1 X32.947 Y19.363 E11.39360
G1 X34.089 Y19.428 E11.44127
G1 X35.229 Y19.819 E11.49152 F700.597
G1 X36.217 Y20.510 E11.54178
G1 X37.003 Y21.496 E11.59436
G1 X37.261 Y22.012 E11.61839
G1 X41.397 Y31.998 E12.06900
G1 X41.608 Y32.612 E12.09608
G1 X41.748 Y33.881 E12.14930
G1 X41.539 Y35.053 E12.19890
G1 X41.040 Y36.089 E12.24686
G1 X40.199 Y37.030 E12.29948
G1 X39.170 Y37.666 E12.34989
G1 X38.070 Y37.983 E12.39764
G1 X37.439 Y38.031 E12.42401
G1 X23.221 Y38.031 E13.01674
G1 X22.549 Y37.976 E13.04484
G1 X21.404 Y37.627 E13.09475
G1 X20.347 Y36.931 E13.14750
G1 X19.538 Y35.959 E13.20026
G1 X19.046 Y34.793 E13.25301
G1 X18.913 Y33.534 E13.30577
G1 X19.110 Y32.412 E13.35329
G1 X20.890 Y26.907 E13.59447
G1 X21.896 Y25.264 E13.67478
G1 X23.527 Y23.633 E13.77094
G1 X23.974 Y23.974 F2220.000
G1 X25.086 Y22.861 E13.83652 F700.597
G1 X26.459 Y22.008 E13.90392
G1 X32.088 Y20.099 E14.15171
G1 X32.993 Y19.918 E14.19018
G1 X33.980 Y19.975 E14.23139
G1 X34.973 Y20.314 E14.27516 F700.597
G1 X35.834 Y20.915 E14.31892
G1 X36.523 Y21.779 E14.36501
G1 X36.746 Y22.225 E14.38579
G1 X40.882 Y32.211 E14.83640
G1 X41.068 Y32.752 E14.86021
G1 X41.192 Y33.864 E14.90686
G1 X41.008 Y34.883 E14.95006
G1 X40.577 Y35.780 E14.99152
G1 X39.841 Y36.604 E15.03759
G1 X38.943 Y37.157 E15.08154
G1 X37.992 Y37.431 E15.12282
G1 X37.439 Y37.474 E15.14593
G1 X23.221 Y37.474 E15.73866
G1 X22.632 Y37.425 E15.76329
G1 X21.642 Y37.124 E15.80644
G1 X20.721 Y36.519 E15.85238
G1 X20.016 Y35.672 E15.89832
G1 X19.586 Y34.657 E15.94426
G1 X19.469 Y33.562 E15.99020
G1 X19.641 Y32.583 E16.03161
G1 X21.420 Y27.079 E16.27279
G1 X22.290 Y25.658 E16.34223
G1 X23.921 Y24.027 E16.43839
G1 F1776
G1 X25.037 Y22.911 E8.83839
G1 E8.43839 F9000.00000
G92 E0
G1 X35.622 Y32.502 F2220.000
G1 E8.00000 F9000.00000
G1 X33.745 Y32.502 E8.07825 F600.000
G1 X33.804 Y31.495 E8.12031
G1 X33.555 Y30.469 E8.16435
G1 X33.017 Y29.559 E8.20839
G1 X32.237 Y28.847 E8.25243
G1 X31.283 Y28.393 E8.29647
G1 X30.395 Y28.260 E8.33392
G1 X32.848 Y25.807 E8.47858
G1 X35.593 Y32.433 E8.77760
G1 X36.456 Y33.060 F2220.000
G1 X32.960 Y33.060 E8.92334 F600.000
G1 X33.191 Y32.434 E8.95113
G1 X33.243 Y31.546 E8.98824
G1 X33.033 Y30.681 E9.02535
G1 X32.580 Y29.915 E9.06246
G1 X31.923 Y29.314 E9.09957
G1 X31.119 Y28.931 E9.13668
G1 X30.238 Y28.800 E9.17379
G1 X29.243 Y28.949 E9.21574
G1 X29.134 Y28.733 E9.22582
G1 X33.044 Y24.823 E9.45632
G1 X36.427 Y32.990 E9.82485
G1 F1776
G1 X34.849 Y33.022 E2.22485
G1 E1.82485 F9000.00000
G92 E0
G1 X27.517 Y33.060 F2220.000
G1 E8.00000 F9000.00000
G1 X24.808 Y33.060 E8.11296 F600.000
G1 X27.195 Y30.672 E8.25371
G1 X27.416 Y30.796 E8.26427
G1 X27.234 Y31.546 E8.29643
G1 X27.286 Y32.434 E8.33354
G1 X27.491 Y32.989 E8.35820
G1 X27.405 Y29.674 F2220.000
G1 X26.357 Y28.625 E8.42002 F600.000
G1 X26.485 Y28.403 E8.43072
G1 X28.325 Y28.896 E8.51012
G1 X27.832 Y27.057 E8.58951
G1 X28.054 Y26.928 E8.60021
G1 X29.102 Y27.977 E8.66203
G1 X33.240 Y23.840 E8.90596
G1 X37.289 Y33.617 E9.34713
G1 X31.918 Y33.617 E9.57107
G1 X32.388 Y32.998 E9.60348
G1 X32.640 Y32.319 E9.63366
G1 X32.682 Y31.596 E9.66384
G1 X32.511 Y30.893 E9.69402
G1 X32.143 Y30.270 E9.72420
G1 X31.608 Y29.781 E9.75439
G1 X30.954 Y29.470 E9.78457
G1 X30.238 Y29.363 E9.81475
G1 X29.522 Y29.470 E9.84493
G1 X28.869 Y29.781 E9.87511
G1 X28.334 Y30.270 E9.90530
G1 X27.966 Y30.893 E9.93548
G1 X27.795 Y31.596 E9.96566
G1 X27.837 Y32.319 E9.99584
G1 X28.088 Y32.998 E10.02602
G1 X28.559 Y33.617 E10.05843
G1 X23.463 Y33.617 E10.27089
G1 X27.352 Y29.727 E10.50021
G1 X27.759 Y29.320 F2220.000
G1 F1776
G1 X26.357 Y28.625 E3.35169
G1 F1776
G1 X26.404 Y28.544 E2.90021
G1 E2.50021 F9000.00000
G92 E0
G1 X27.746 Y26.737 F2220.000
G1 E8.00000 F9000.00000
G1 X27.640 Y26.342 E8.01706 F600.000
G1 X27.916 Y26.231 E8.02943
G1 X28.007 Y26.399 E8.03740
G1 X28.062 Y26.661 E8.04855
G1 X27.819 Y26.719 E8.05899
G1 X27.855 Y26.342 F2220.000
G1 F1776
G1 X27.640 Y26.342 E6.04707
G1 F1776
G1 X27.916 Y26.231 E4.61853
G1 F1776
G1 X28.007 Y26.399 E3.69823
G1 F1776
G1 X28.062 Y26.661 E2.41001
G1 F1776
G1 X27.819 Y26.719 E1.20450
G1 E0.05899 F9000.00000
G92 E0
G1 X26.165 Y28.318 F2220.000
G1 E8.00000 F9000.00000
G1 X26.089 Y28.634 E8.01357 F600.000
G1 X25.828 Y28.579 E8.02472
G1 X25.660 Y28.487 E8.03269
G1 X25.770 Y28.212 E8.04506
G1 X26.093 Y28.298 E8.05899
G1 X25.939 Y28.552 F2220.000
G1 X27.385 Y29.071 F2220.000
G1 X28.030 Y29.443 E8.12350 F600.000
G1 X28.156 Y29.536 E8.13708
G1 X27.984 Y29.859 E8.16877
G1 X27.465 Y30.504 E8.24050
G1 X29.341 Y29.231 F2220.000
G1 X29.093 Y29.307 E8.25129 F600.000
G1 X28.994 Y29.300 E8.25545
G1 X28.893 Y29.266 E8.25987
G1 X28.690 Y28.731 E8.28371
G1 X28.685 Y28.569 E8.29048
G1 X28.738 Y28.371 E8.29901
G1 X28.267 Y27.555 E8.33831
G1 X31.536 Y28.073 F2220.000
G1 X31.276 Y27.812 E8.35505 F875.746
G1 X31.705 Y27.383 E8.38264
G1 X33.347 Y29.024 E8.48813
G1 X33.444 Y28.263 E8.52299
G1 X32.135 Y26.954 E8.60716
G1 X32.564 Y26.524 E8.63475
G1 X32.837 Y26.798 E8.65232
G1 X33.575 Y29.240 F2220.000
G1 X34.063 Y30.216 E8.74682 F600.000
G1 X34.419 Y31.289 E8.84467
G1 X34.921 Y31.829 F2220.000
G1 X34.632 Y31.540 E8.86360 F875.746
G1 X34.110 Y31.892 E8.89275
G1 X34.385 Y32.167 E8.91076
M106 S255
M104 S195 ; set temperature
G1 F1776
G1 X34.110 Y31.892 E7.03659
G1 F1776
G1 X34.632 Y31.540 E4.00392
G1 F1776
G1 X34.921 Y31.829 E2.03519
G1 E0.91076 F9000.00000
G92 E0
G1 Z0.400 F2220.000
G1 X29.961 Y28.341 F2220.000
G1 E8.00000 F9000.00000
G1 X32.936 Y25.365 E8.14393 F600.000
G1 X35.996 Y32.752 E8.41744
G1 X33.401 Y32.752 E8.50621
G1 X33.495 Y32.498 E8.51549
G1 X33.552 Y31.518 E8.54907
G1 X33.321 Y30.564 E8.58266
G1 X32.821 Y29.719 E8.61624
G1 X32.096 Y29.056 E8.64982
G1 X31.209 Y28.634 E8.68341
G1 X30.238 Y28.490 E8.71699
G1 X30.050 Y28.518 E8.72351
G1 X29.995 Y28.408 E8.72772
G1 X29.102 Y28.553 F2220.000
G1 X33.097 Y24.558 E8.92095 F600.000
G1 X36.680 Y33.210 E9.24125
G1 X32.744 Y33.210 E9.37588
G1 X33.043 Y32.403 E9.40528
G1 X33.092 Y31.559 E9.43420
G1 X32.892 Y30.738 E9.46312
G1 X32.462 Y30.010 E9.49204
G1 X31.838 Y29.440 E9.52096
G1 X31.075 Y29.076 E9.54987
G1 X30.238 Y28.952 E9.57879
G1 X29.402 Y29.076 E9.60771
G1 X28.863 Y29.333 E9.62814
G1 X28.595 Y28.333 E9.66356
G1 X28.777 Y28.227 E9.67076
G1 X29.049 Y28.500 E9.68392
G1 X28.671 Y29.410 F2220.000
G1 X28.121 Y29.913 E9.70941 F600.000
G1 X27.936 Y29.719 E9.71858
G1 X27.981 Y29.674 E9.72077
G1 X27.656 Y29.349 E9.73650
G1 X27.761 Y29.167 E9.74370
G1 X28.599 Y29.391 E9.77336
G1 X26.917 Y31.384 F2220.000
G1 X26.982 Y32.498 E9.81152 F600.000
G1 X27.076 Y32.752 E9.82079
G1 X25.549 Y32.752 E9.87303
G1 X26.864 Y31.437 E9.93664
G1 X28.059 Y29.935 F2220.000
G1 X27.584 Y30.738 E9.96855 F600.000
G1 X27.385 Y31.559 E9.99747
G1 X27.434 Y32.403 E10.02639
G1 X27.732 Y33.210 E10.05579
G1 X24.445 Y33.210 E10.16823
G1 X27.868 Y29.787 E10.33380
G1 X28.000 Y29.889 E10.33951
G1 X27.335 Y29.674 F2220.000
G1 X26.414 Y28.754 E10.38402 F600.000
G1 X25.810 Y28.626 E10.40515
G1 X25.365 Y28.383 E10.42249
G1 X25.200 Y28.217 E10.43050
G1 X25.306 Y28.035 E10.43768
G1 X28.254 Y28.825 E10.54207
G1 X27.464 Y25.877 E10.64647
G1 X27.645 Y25.772 E10.65365
G1 X27.812 Y25.937 E10.66166
G1 X28.054 Y26.382 E10.67900
G1 X28.182 Y26.986 E10.70013
G1 X29.102 Y27.906 E10.74464
G1 X33.257 Y23.751 E10.94563
G1 X37.364 Y33.667 E11.31273
G1 X31.988 Y33.667 E11.49662
G1 X31.988 Y33.441 E11.50433
G1 X32.344 Y32.974 E11.52442
G1 X32.590 Y32.309 E11.54867
G1 X32.631 Y31.601 E11.57293
G1 X32.464 Y30.912 E11.59718
G1 X32.103 Y30.302 E11.62144
G1 X31.580 Y29.823 E11.64569
G1 X30.940 Y29.518 E11.66994
G1 X30.238 Y29.414 E11.69420
G1 X29.537 Y29.518 E11.71845
G1 X28.897 Y29.823 E11.74270
G1 X28.373 Y30.302 E11.76696
G1 X28.012 Y30.912 E11.79121
G1 X27.845 Y31.601 E11.81547
G1 X27.887 Y32.309 E11.83972
G1 X28.133 Y32.974 E11.86397
G1 X28.488 Y33.441 E11.88407
G1 X28.488 Y33.667 E11.89178
G1 X23.342 Y33.667 E12.06781
G1 X27.282 Y29.727 E12.25839
G1 X27.688 Y29.320 F2220.000
G1 X27.511 Y29.143 F2220.000
G1 X26.641 Y28.641 E12.29274 F600.000
G1 F1776
G1 X27.511 Y29.143 E7.45839
G1 E4.29274 F9000.00000
G92 E0
G1 X28.572 Y28.082 F2220.000
G1 E8.00000 F9000.00000
G1 X28.070 Y27.213 E8.03435 F600.000
G1 X30.573 Y28.278 F2220.000
G1 X32.897 Y25.954 E8.15380 F600.000
G1 X33.113 Y26.424 E8.17261
G1 X31.170 Y28.367 E8.27247
G1 X31.647 Y28.578 E8.29140
G1 X33.314 Y26.910 E8.37711
G1 X33.515 Y27.396 E8.39621
G1 X32.112 Y28.799 E8.46834
G1 X32.493 Y29.105 E8.48609
G1 X33.717 Y27.881 E8.54900
G1 X33.918 Y28.367 E8.56810
G1 X32.851 Y29.433 E8.62291
G1 X33.153 Y29.818 E8.64068
G1 X34.119 Y28.852 E8.69031
G1 X34.320 Y29.338 E8.70941
G1 X33.408 Y30.250 E8.75626
G1 X33.619 Y30.726 E8.77519
G1 X34.521 Y29.824 E8.82158
G1 X34.722 Y30.309 E8.84068
G1 X33.753 Y31.279 E8.89051
G1 X33.807 Y31.911 E8.91359
G1 X34.923 Y30.795 E8.97097
G1 X35.125 Y31.280 E8.99008
G1 X33.924 Y32.481 E9.05177
G1 X34.611 Y32.481 E9.07673
G1 X35.326 Y31.766 E9.11347
G1 X35.527 Y32.252 E9.13257
G1 X35.298 Y32.481 E9.14435
G1 F1776
G1 X35.527 Y32.252 E7.58369
G1 F1776
G1 X35.326 Y31.766 E5.05324
G1 F1776
G1 X34.810 Y32.281 E1.54435
G1 E1.14435 F9000.00000
G92 E0
G1 X26.701 Y32.248 F2220.000
G1 E8.00000 F9000.00000
G1 X26.468 Y32.481 E8.01126 F600.000
G1 X26.468 Y32.481 F2220.000
G1 X26.701 Y32.248 E8.02253 F600.000
G1 F1776
G1 X26.468 Y32.481 E6.43719
G1 E0.02253 F9000.00000
G92 E0
G1 Z0.600 F2220.000
G1 X29.961 Y28.341 F2220.000
G1 E8.00000 F9000.00000
G1 X32.936 Y25.365 E8.14393 F600.000
G1 X35.996 Y32.752 E8.41744
G1 X33.401 Y32.752 E8.50621
G1 X33.495 Y32.498 E8.51549
G1 X33.552 Y31.518 E8.54907
G1 X33.321 Y30.564 E8.58266
G1 X32.821 Y29.719 E8.61624
G1 X32.096 Y29.056 E8.64982
G1 X31.209 Y28.634 E8.68341
G1 X30.238 Y28.490 E8.71699
G1 X30.050 Y28.518 E8.72351
G1 X29.995 Y28.408 E8.72772
G1 X29.102 Y28.553 F2220.000
G1 X33.097 Y24.558 E8.92095 F600.000
G1 X36.680 Y33.210 E9.24125
G1 X32.744 Y33.210 E9.37588
G1 X33.043 Y32.403 E9.40528
G1 X33.092 Y31.559 E9.43420
G1 X32.892 Y30.738 E9.46312
G1 X32.462 Y30.010 E9.49204
G1 X31.838 Y29.440 E9.52096
G1 X31.075 Y29.076 E9.54987
G1 X30.238 Y28.952 E9.57879
G1 X29.402 Y29.076 E9.60771
G1 X28.863 Y29.333 E9.62814
G1 X28.595 Y28.333 E9.66356
G1 X28.777 Y28.227 E9.67076
G1 X29.049 Y28.500 E9.68392
G1 X28.671 Y29.410 F2220.000
G1 X28.121 Y29.913 E9.70941 F600.000
G1 X27.936 Y29.719 E9.71858
G1 X27.981 Y29.674 E9.72078
G1 X27.656 Y29.349 E9.73650
G1 X27.761 Y29.167 E9.74370
G1 X28.599 Y29.391 E9.77336
G1 X26.917 Y31.384 F2220.000
G1 X26.982 Y32.498 E9.81152 F600.000
G1 X27.076 Y32.752 E9.82079
G1 X25.549 Y32.752 E9.87303
G1 X26.864 Y31.437 E9.93664
G1 X28.059 Y29.935 F2220.000
G1 X27.584 Y30.738 E9.96855 F600.000
G1 X27.385 Y31.559 E9.99747
G1 X27.434 Y32.403 E10.02639
G1 X27.732 Y33.210 E10.05579
G1 X24.445 Y33.210 E10.16823
G1 X27.868 Y29.787 E10.33380
G1 X28.000 Y29.889 E10.33951
G1 X27.335 Y29.674 F2220.000
G1 X26.414 Y28.754 E10.38402 F600.000
G1 X25.810 Y28.626 E10.40515
G1 X25.391 Y28.397 E10.42150
G1 X25.212 Y28.222 E10.43005
G1 X25.317 Y28.038 E10.43728
G1 X28.254 Y28.825 E10.54129
G1 X27.464 Y25.877 E10.64569
G1 X27.645 Y25.772 E10.65287
G1 X27.812 Y25.937 E10.66088
G1 X28.054 Y26.382 E10.67821
G1 X28.182 Y26.986 E10.69934
G1 X29.102 Y27.906 E10.74386
G1 X33.257 Y23.751 E10.94484
G1 X37.364 Y33.667 E11.31195
G1 X31.988 Y33.667 E11.49583
G1 X31.988 Y33.441 E11.50354
G1 X32.344 Y32.974 E11.52364
G1 X32.590 Y32.309 E11.54789
G1 X32.631 Y31.601 E11.57214
G1 X32.464 Y30.912 E11.59640
G1 X32.103 Y30.302 E11.62065
G1 X31.580 Y29.823 E11.64490
G1 X30.940 Y29.518 E11.66916
G1 X30.238 Y29.414 E11.69341
G1 X29.537 Y29.518 E11.71767
G1 X28.897 Y29.823 E11.74192
G1 X28.373 Y30.302 E11.76617
G1 X28.012 Y30.912 E11.79043
G1 X27.845 Y31.601 E11.81468
G1 X27.887 Y32.309 E11.83893
G1 X28.133 Y32.974 E11.86319
G1 X28.488 Y33.441 E11.88328
G1 X28.488 Y33.667 E11.89099
G1 X23.342 Y33.667 E12.06703
G1 X27.282 Y29.727 E12.25760
G1 X27.688 Y29.320 F2220.000
G1 X27.511 Y29.143 F2220.000
G1 X26.641 Y28.641 E12.29195 F600.000
G1 F1776
G1 X27.511 Y29.143 E7.45760
G1 E4.29195 F9000.00000
G92 E0
G1 X28.572 Y28.082 F2220.000
G1 E8.00000 F9000.00000
G1 X28.070 Y27.213 E8.03435 F600.000
G1 F1776
G1 X28.572 Y28.082 E3.20004
G1 E0.03435 F9000.00000
G92 E0
G1 X30.745 Y27.912 F2220.000
G1 E8.00000 F9000.00000
G1 X31.172 Y28.339 E8.02085 F600.000
G1 X32.266 Y28.780 F2220.000
G1 X31.071 Y27.586 E8.07917 F600.000
G1 X31.398 Y27.259 E8.09511
G1 X34.780 Y30.641 E8.26028
G1 X34.318 Y29.527 F2220.000
G1 X31.724 Y26.933 E8.38697 F600.000
G1 X32.050 Y26.607 E8.40291
G1 X33.857 Y28.413 E8.49113
G1 X33.395 Y27.299 F2220.000
G1 X32.376 Y26.280 E8.54088 F600.000
G1 X32.703 Y25.954 E8.55681
G1 X32.934 Y26.185 E8.56809
G1 X33.216 Y29.730 F2220.000
G1 X35.241 Y31.755 E8.66698 F600.000
G1 X35.314 Y32.481 E8.69217
G1 X33.700 Y30.867 E8.77101
G1 X33.812 Y31.631 E8.79770
G1 X34.661 Y32.481 E8.83919
G1 X34.009 Y32.481 E8.86172
G1 X33.776 Y32.248 E8.87310
G1 F1776
G1 X34.009 Y32.481 E7.28781
G1 F1776
G1 X34.661 Y32.481 E4.14604
G1 F1776
G1 X34.239 Y32.059 E1.27309
G1 E0.87310 F9000.00000
G92 E0
G1 X26.698 Y32.389 F2220.000
G1 E8.00000 F9000.00000
G1 X26.483 Y32.174 E8.01041 F600.000
G1 X26.483 Y32.174 F2220.000
G1 X26.698 Y32.389 E8.02082 F600.000
G1 F1776
G1 X26.483 Y32.174 E6.55570
G1 E0.02082 F9000.00000
G92 E0
G1 Z0.800 F2220.000
G1 X29.961 Y28.341 F2220.000
G1 E8.00000 F9000.00000
G1 X32.936 Y25.365 E8.14393 F600.000
G1 X35.996 Y32.752 E8.41744
G1 X33.401 Y32.752 E8.50621
G1 X33.495 Y32.498 E8.51549
G1 X33.552 Y31.518 E8.54907
G1 X33.321 Y30.564 E8.58266
G1 X32.821 Y29.719 E8.61624
G1 X32.096 Y29.056 E8.64982
G1 X31.209 Y28.634 E8.68341
G1 X30.238 Y28.490 E8.71699
G1 X30.050 Y28.518 E8.72351
G1 X29.995 Y28.408 E8.72772
G1 X29.102 Y28.553 F2220.000
G1 X33.097 Y24.558 E8.92095 F600.000
G1 X36.680 Y33.210 E9.24125
G1 X32.744 Y33.210 E9.37588
G1 X33.043 Y32.403 E9.40528
G1 X33.092 Y31.559 E9.43420
G1 X32.892 Y30.738 E9.46312
G1 X32.462 Y30.010 E9.49204
G1 X31.838 Y29.440 E9.52096
G1 X31.075 Y29.076 E9.54987
