; generated by Slic3r 1.2.9 on 2016-07-15 at 13:09:52

; external perimeters extrusion width = 0.50mm
; perimeters extrusion width = 0.50mm
; infill extrusion width = 0.60mm
; solid infill extrusion width = 0.50mm
; top infill extrusion width = 0.50mm

M107
M104 S200 ; set temperature
G28 ; home all axes

M109 S200 ; wait for temperature to be reached
G21 ; set units to millimeters
G90 ; use absolute coordinates
M82 ; use absolute distances for extrusion
G92 E0
G1 E-8.00000 F9000.00000
G92 E0
G1 Z0.200 F2220.000
G1 X7.177 Y23.102 F2220.000
G1 E8.00000 F9000.00000
G1 X8.000 Y23.030 E8.03444 F864.000
G1 X107.000 Y23.030 E12.16167
G1 X107.731 Y23.088 E12.19223
G1 X107.823 Y23.102 E12.19613 F864.000
G1 X109.216 Y23.556 E12.25719
G1 X109.296 Y23.597 E12.26095
G1 X110.478 Y24.455 E12.32184
G1 X110.544 Y24.522 E12.32576
G1 X111.403 Y25.703 E12.38663
G1 X111.446 Y25.787 E12.39057
G1 X111.897 Y27.177 E12.45150
G1 X111.912 Y27.270 E12.45542
G1 X111.970 Y28.000 E12.48596
G1 X111.970 Y72.000 E14.32029
G1 X111.897 Y72.823 E14.35475
G1 X111.446 Y74.213 E14.41567
G1 X111.403 Y74.296 E14.41956
G1 X110.545 Y75.478 E14.48047
G1 X110.479 Y75.544 E14.48436
G1 X109.297 Y76.403 E14.54527
G1 X109.213 Y76.446 E14.54918
G1 X107.824 Y76.897 E14.61009
G1 X107.000 Y76.970 E14.64456
G1 X8.000 Y76.970 E18.77179
G1 X7.176 Y76.897 E18.80627
G1 X5.787 Y76.446 E18.86717
G1 X5.704 Y76.403 E18.87106
G1 X4.522 Y75.544 E18.93198
G1 X4.455 Y75.478 E18.93588
G1 X3.597 Y74.297 E18.99678
G1 X3.554 Y74.213 E19.00070
G1 X3.103 Y72.824 E19.06160
G1 X3.030 Y72.000 E19.09606
G1 X3.030 Y28.000 E20.93039
G1 X3.103 Y27.176 E20.96487
G1 X3.553 Y25.788 E21.02570
G1 X3.597 Y25.704 E21.02965
G1 X4.456 Y24.522 E21.09058
G1 X4.522 Y24.456 E21.09447
G1 X5.704 Y23.597 E21.15539
G1 X5.787 Y23.554 E21.15929
G1 X7.106 Y23.126 E21.21709
G1 X7.264 Y23.653 F2220.000
G1 X8.000 Y23.587 E21.24789 F864.000
G1 X107.000 Y23.587 E25.37512
G1 X107.644 Y23.638 E25.40204
G1 X107.736 Y23.653 E25.40593 F864.000
G1 X108.965 Y24.053 E25.45980
G1 X109.043 Y24.093 E25.46348
G1 X110.084 Y24.849 E25.51712
G1 X110.151 Y24.915 E25.52103
G1 X110.907 Y25.956 E25.57464
G1 X110.949 Y26.040 E25.57858
G1 X111.347 Y27.264 E25.63224
G1 X111.413 Y28.000 E25.66304
G1 X111.413 Y72.000 E27.49737
G1 X111.347 Y72.736 E27.52818
G1 X110.949 Y73.960 E27.58184
G1 X110.907 Y74.043 E27.58573
G1 X110.151 Y75.084 E27.63938
G1 X110.085 Y75.150 E27.64327
G1 X109.044 Y75.907 E27.69692
G1 X108.960 Y75.949 E27.70082
G1 X107.736 Y76.347 E27.75447
G1 X107.000 Y76.413 E27.78529
G1 X8.000 Y76.413 E31.91252
G1 X7.263 Y76.347 E31.94335
G1 X6.040 Y75.949 E31.99698
G1 X5.957 Y75.907 E32.00088
G1 X4.915 Y75.151 E32.05453
G1 X4.849 Y75.084 E32.05843
G1 X4.093 Y74.044 E32.11206
G1 X4.050 Y73.960 E32.11599
G1 X3.653 Y72.736 E32.16962
G1 X3.587 Y72.000 E32.20044
G1 X3.587 Y28.000 E34.03476
G1 X3.653 Y27.263 E34.06560
G1 X4.050 Y26.041 E34.11917
G1 X4.093 Y25.957 E34.12312
G1 X4.849 Y24.915 E34.17678
G1 X4.915 Y24.849 E34.18067
G1 X5.957 Y24.093 E34.23432
G1 X6.040 Y24.050 E34.23822
G1 X7.193 Y23.676 E34.28876
G1 X7.351 Y24.203 F2220.000
G1 X8.000 Y24.145 E34.31591 F864.000
G1 X107.000 Y24.145 E38.44314
G1 X107.556 Y24.188 E38.46641
G1 X107.649 Y24.203 E38.47031 F864.000
G1 X108.710 Y24.549 E38.51685
G1 X108.790 Y24.589 E38.52059
G1 X109.690 Y25.243 E38.56697
G1 X109.757 Y25.309 E38.57088
G1 X110.410 Y26.209 E38.61723
G1 X110.453 Y26.293 E38.62116
G1 X110.797 Y27.351 E38.66755
G1 X110.855 Y28.000 E38.69472
G1 X110.855 Y72.000 E40.52904
G1 X110.797 Y72.649 E40.55621
G1 X110.453 Y73.707 E40.60260
G1 X110.411 Y73.790 E40.60649
G1 X109.757 Y74.691 E40.65287
G1 X109.691 Y74.757 E40.65676
G1 X108.791 Y75.411 E40.70315
G1 X108.707 Y75.453 E40.70705
G1 X107.649 Y75.797 E40.75343
G1 X107.000 Y75.855 E40.78060
G1 X8.000 Y75.855 E44.90784
G1 X7.351 Y75.797 E44.93502
G1 X6.293 Y75.453 E44.98139
G1 X6.210 Y75.411 E44.98528
G1 X5.309 Y74.757 E45.03167
G1 X5.243 Y74.691 E45.03557
G1 X4.589 Y73.791 E45.08194
G1 X4.547 Y73.707 E45.08586
G1 X4.203 Y72.649 E45.13223
G1 X4.145 Y72.000 E45.15940
G1 X4.145 Y28.000 E46.99373
G1 X4.203 Y27.351 E47.02091
G1 X4.546 Y26.294 E47.06723
G1 X4.589 Y26.210 E47.07117
G1 X5.243 Y25.309 E47.11756
G1 X5.309 Y25.243 E47.12146
G1 X6.210 Y24.589 E47.16785
G1 X6.293 Y24.547 E47.17174
G1 X7.280 Y24.226 E47.21501
G1 F1776
G1 X8.000 Y24.145 E43.72658
G1 F1776
G1 X8.854 Y24.145 E39.61502
G1 E39.21501 F9000.00000
G92 E0
G1 X64.116 Y53.518 F2220.000
G1 E8.00000 F9000.00000
G1 X64.921 Y53.565 E8.03364 F864.000
G1 X65.948 Y53.316 E8.07768
G1 X66.857 Y52.778 E8.12172
G1 X67.570 Y51.999 E8.16576
G1 X68.024 Y51.045 E8.20980
G1 X68.180 Y50.000 E8.25384
G1 X68.024 Y48.955 E8.29789
G1 X67.570 Y48.001 E8.34193
G1 X66.857 Y47.222 E8.38597
G1 X65.948 Y46.684 E8.43001
G1 X64.921 Y46.435 E8.47405
G1 X64.116 Y46.482 E8.50769
G1 X64.116 Y38.518 E8.83967
G1 X64.921 Y38.565 E8.87331
G1 X65.948 Y38.316 E8.91735
G1 X66.857 Y37.778 E8.96139
G1 X67.570 Y36.999 E9.00543
G1 X68.024 Y36.045 E9.04947
G1 X68.180 Y35.000 E9.09351
G1 X68.024 Y33.955 E9.13755
G1 X67.570 Y33.001 E9.18159
G1 X66.857 Y32.222 E9.22563
G1 X65.948 Y31.684 E9.26967
G1 X64.921 Y31.435 E9.31371
G1 X64.116 Y31.482 E9.34736
G1 X64.116 Y29.116 E9.44599
G1 X66.482 Y29.116 E9.54462
G1 X66.435 Y29.921 E9.57826
G1 X66.684 Y30.948 E9.62230
G1 X67.222 Y31.857 E9.66634
G1 X68.001 Y32.570 E9.71038
G1 X68.955 Y33.024 E9.75442
G1 X70.000 Y33.180 E9.79846
G1 X71.045 Y33.024 E9.84250
G1 X71.999 Y32.570 E9.88654
G1 X72.778 Y31.857 E9.93058
G1 X73.316 Y30.948 E9.97462
G1 X73.565 Y29.921 E10.01866
G1 X73.518 Y29.116 E10.05230
G1 X81.482 Y29.116 E10.38428
G1 X81.435 Y29.921 E10.41792
G1 X81.684 Y30.948 E10.46196
G1 X82.222 Y31.857 E10.50601
G1 X83.001 Y32.570 E10.55005
G1 X83.955 Y33.024 E10.59409
G1 X85.000 Y33.180 E10.63813
G1 X86.045 Y33.024 E10.68217
G1 X86.999 Y32.570 E10.72621
G1 X87.778 Y31.857 E10.77025
G1 X88.316 Y30.948 E10.81429
G1 X88.565 Y29.921 E10.85833
G1 X88.518 Y29.116 E10.89197
G1 X96.482 Y29.116 E11.22395
G1 X96.435 Y29.921 E11.25759
G1 X96.684 Y30.948 E11.30163
G1 X97.222 Y31.857 E11.34567
G1 X98.001 Y32.570 E11.38971
G1 X98.955 Y33.024 E11.43375
G1 X100.000 Y33.180 E11.47779
G1 X101.045 Y33.024 E11.52183
G1 X101.999 Y32.570 E11.56587
G1 X102.778 Y31.857 E11.60991
G1 X103.316 Y30.948 E11.65396
G1 X103.565 Y29.921 E11.69800
G1 X103.518 Y29.116 E11.73164
G1 X105.884 Y29.116 E11.83027
G1 X105.884 Y31.482 E11.92890
G1 X105.079 Y31.435 E11.96254
G1 X104.052 Y31.684 E12.00658
G1 X103.143 Y32.222 E12.05062
G1 X102.430 Y33.001 E12.09466
G1 X101.976 Y33.955 E12.13870
G1 X101.820 Y35.000 E12.18274
G1 X101.976 Y36.045 E12.22678
G1 X102.430 Y36.999 E12.27082
G1 X103.143 Y37.778 E12.31486
G1 X104.052 Y38.316 E12.35890
G1 X105.079 Y38.565 E12.40294
G1 X105.884 Y38.518 E12.43659
G1 X105.884 Y46.482 E12.76856
G1 X105.079 Y46.435 E12.80221
G1 X104.052 Y46.684 E12.84625
G1 X103.143 Y47.222 E12.89029
G1 X102.430 Y48.001 E12.93433
G1 X101.976 Y48.955 E12.97837
G1 X101.820 Y50.000 E13.02241
G1 X101.976 Y51.045 E13.06645
G1 X102.430 Y51.999 E13.11049
G1 X103.143 Y52.778 E13.15453
G1 X104.052 Y53.316 E13.19857
G1 X105.079 Y53.565 E13.24261
G1 X105.884 Y53.518 E13.27625
G1 X105.884 Y61.482 E13.60823
G1 X105.079 Y61.435 E13.64187
G1 X104.052 Y61.684 E13.68591
G1 X103.143 Y62.222 E13.72995
G1 X102.430 Y63.001 E13.77399
G1 X101.976 Y63.955 E13.81804
G1 X101.820 Y65.000 E13.86208
G1 X101.976 Y66.045 E13.90612
G1 X102.430 Y66.999 E13.95016
G1 X103.143 Y67.778 E13.99420
G1 X104.052 Y68.316 E14.03824
G1 X105.079 Y68.565 E14.08228
G1 X105.884 Y68.518 E14.11592
G1 X105.884 Y70.884 E14.21455
G1 X103.518 Y70.884 E14.31318
G1 X103.565 Y70.079 E14.34682
G1 X103.316 Y69.052 E14.39086
G1 X102.778 Y68.143 E14.43490
G1 X101.999 Y67.430 E14.47894
G1 X101.045 Y66.976 E14.52298
G1 X100.000 Y66.820 E14.56702
G1 X98.955 Y66.976 E14.61106
G1 X98.001 Y67.430 E14.65510
G1 X97.222 Y68.143 E14.69915
G1 X96.684 Y69.052 E14.74319
G1 X96.435 Y70.079 E14.78723
G1 X96.482 Y70.884 E14.82087
G1 X88.518 Y70.884 E15.15285
G1 X88.565 Y70.079 E15.18649
G1 X88.316 Y69.052 E15.23053
G1 X87.778 Y68.143 E15.27457
G1 X86.999 Y67.430 E15.31861
G1 X86.045 Y66.976 E15.36265
G1 X85.000 Y66.820 E15.40669
G1 X83.955 Y66.976 E15.45073
G1 X83.001 Y67.430 E15.49477
G1 X82.222 Y68.143 E15.53881
G1 X81.684 Y69.052 E15.58285
G1 X81.435 Y70.079 E15.62689
G1 X81.482 Y70.884 E15.66054
G1 X73.518 Y70.884 E15.99251
G1 X73.565 Y70.079 E16.02615
G1 X73.316 Y69.052 E16.07020
G1 X72.778 Y68.143 E16.11424
G1 X71.999 Y67.430 E16.15828
G1 X71.045 Y66.976 E16.20232
G1 X70.000 Y66.820 E16.24636
G1 X68.955 Y66.976 E16.29040
G1 X68.001 Y67.430 E16.33444
G1 X67.222 Y68.143 E16.37848
G1 X66.684 Y69.052 E16.42252
G1 X66.435 Y70.079 E16.46656
G1 X66.482 Y70.884 E16.50020
G1 X64.116 Y70.884 E16.59883
G1 X64.116 Y68.518 E16.69746
G1 X64.921 Y68.565 E16.73110
G1 X65.948 Y68.316 E16.77514
G1 X66.857 Y67.778 E16.81918
G1 X67.570 Y66.999 E16.86322
G1 X68.024 Y66.045 E16.90727
G1 X68.180 Y65.000 E16.95131
G1 X68.024 Y63.955 E16.99535
G1 X67.570 Y63.001 E17.03939
G1 X66.857 Y62.222 E17.08343
G1 X65.948 Y61.684 E17.12747
G1 X64.921 Y61.435 E17.17151
G1 X64.116 Y61.482 E17.20515
G1 X64.116 Y53.593 E17.53400
G1 X63.559 Y52.796 F2220.000
G1 X63.982 Y52.953 E17.55282 F864.000
G1 X64.871 Y53.004 E17.58994
G1 X65.736 Y52.795 E17.62705
G1 X66.502 Y52.341 E17.66416
G1 X67.103 Y51.684 E17.70127
G1 X67.485 Y50.880 E17.73838
G1 X67.617 Y50.000 E17.77549
G1 X67.485 Y49.120 E17.81260
G1 X67.103 Y48.316 E17.84971
G1 X66.502 Y47.659 E17.88682
G1 X65.736 Y47.205 E17.92394
G1 X64.871 Y46.996 E17.96105
G1 X63.982 Y47.047 E17.99816
G1 X63.559 Y47.204 E18.01698
G1 X63.559 Y37.796 E18.40920
G1 X63.982 Y37.953 E18.42802
G1 X64.871 Y38.004 E18.46513
G1 X65.736 Y37.795 E18.50224
G1 X66.502 Y37.341 E18.53936
G1 X67.103 Y36.684 E18.57647
G1 X67.485 Y35.880 E18.61358
G1 X67.617 Y35.000 E18.65069
G1 X67.485 Y34.120 E18.68780
G1 X67.103 Y33.316 E18.72491
G1 X66.502 Y32.659 E18.76202
G1 X65.736 Y32.205 E18.79913
G1 X64.871 Y31.996 E18.83624
G1 X63.982 Y32.047 E18.87336
G1 X63.559 Y32.204 E18.89218
G1 X63.559 Y28.559 E19.04415
G1 X67.204 Y28.559 E19.19613
G1 X67.047 Y28.982 E19.21495
G1 X66.996 Y29.871 E19.25206
G1 X67.205 Y30.736 E19.28917
G1 X67.659 Y31.502 E19.32628
G1 X68.316 Y32.103 E19.36339
G1 X69.120 Y32.485 E19.40050
G1 X70.000 Y32.617 E19.43762
G1 X70.880 Y32.485 E19.47473
G1 X71.684 Y32.103 E19.51184
G1 X72.341 Y31.502 E19.54895
G1 X72.795 Y30.736 E19.58606
G1 X73.004 Y29.871 E19.62317
G1 X72.953 Y28.982 E19.66028
G1 X72.796 Y28.559 E19.67910
G1 X82.204 Y28.559 E20.07132
G1 X82.047 Y28.982 E20.09015
G1 X81.996 Y29.871 E20.12726
G1 X82.205 Y30.736 E20.16437
G1 X82.659 Y31.502 E20.20148
G1 X83.316 Y32.103 E20.23859
G1 X84.120 Y32.485 E20.27570
G1 X85.000 Y32.617 E20.31281
G1 X85.880 Y32.485 E20.34992
G1 X86.684 Y32.103 E20.38703
G1 X87.341 Y31.502 E20.42415
G1 X87.795 Y30.736 E20.46126
G1 X88.004 Y29.871 E20.49837
G1 X87.953 Y28.982 E20.53548
G1 X87.796 Y28.559 E20.55430
G1 X97.204 Y28.559 E20.94652
G1 X97.047 Y28.982 E20.96534
G1 X96.996 Y29.871 E21.00245
G1 X97.205 Y30.736 E21.03956
G1 X97.659 Y31.502 E21.07668
G1 X98.316 Y32.103 E21.11379
G1 X99.120 Y32.485 E21.15090
G1 X100.000 Y32.617 E21.18801
G1 X100.880 Y32.485 E21.22512
G1 X101.684 Y32.103 E21.26223
G1 X102.341 Y31.502 E21.29934
G1 X102.795 Y30.736 E21.33645
G1 X103.004 Y29.871 E21.37357
G1 X102.953 Y28.982 E21.41068
G1 X102.796 Y28.559 E21.42950
G1 X106.441 Y28.559 E21.58147
G1 X106.441 Y32.204 E21.73345
G1 X106.018 Y32.047 E21.75227
G1 X105.129 Y31.996 E21.78938
G1 X104.264 Y32.205 E21.82649
G1 X103.498 Y32.659 E21.86360
G1 X102.897 Y33.316 E21.90071
G1 X102.515 Y34.120 E21.93782
G1 X102.383 Y35.000 E21.97493
G1 X102.515 Y35.880 E22.01205
G1 X102.897 Y36.684 E22.04916
G1 X103.498 Y37.341 E22.08627
G1 X104.264 Y37.795 E22.12338
G1 X105.129 Y38.004 E22.16049
G1 X106.018 Y37.953 E22.19760
G1 X106.441 Y37.796 E22.21642
G1 X106.441 Y47.204 E22.60864
G1 X106.018 Y47.047 E22.62746
G1 X105.129 Y46.996 E22.66458
G1 X104.264 Y47.205 E22.70169
G1 X103.498 Y47.659 E22.73880
G1 X102.897 Y48.316 E22.77591
G1 X102.515 Y49.120 E22.81302
G1 X102.383 Y50.000 E22.85013
G1 X102.515 Y50.880 E22.88724
G1 X102.897 Y51.684 E22.92435
G1 X103.498 Y52.341 E22.96147
G1 X104.264 Y52.795 E22.99858
G1 X105.129 Y53.004 E23.03569
G1 X106.018 Y52.953 E23.07280
G1 X106.441 Y52.796 E23.09162
G1 X106.441 Y62.204 E23.48384
G1 X106.018 Y62.047 E23.50266
G1 X105.129 Y61.996 E23.53977
G1 X104.264 Y62.205 E23.57688
G1 X103.498 Y62.659 E23.61400
G1 X102.897 Y63.316 E23.65111
G1 X102.515 Y64.120 E23.68822
G1 X102.383 Y65.000 E23.72533
G1 X102.515 Y65.880 E23.76244
G1 X102.897 Y66.684 E23.79955
G1 X103.498 Y67.341 E23.83666
G1 X104.264 Y67.795 E23.87377
G1 X105.129 Y68.004 E23.91089
G1 X106.018 Y67.953 E23.94800
G1 X106.441 Y67.796 E23.96682
G1 X106.441 Y71.441 E24.11879
G1 X102.796 Y71.441 E24.27077
G1 X102.953 Y71.018 E24.28959
G1 X103.004 Y70.129 E24.32670
G1 X102.795 Y69.264 E24.36381
G1 X102.341 Y68.498 E24.40092
G1 X101.684 Y67.897 E24.43803
G1 X100.880 Y67.515 E24.47514
G1 X100.000 Y67.383 E24.51226
G1 X99.120 Y67.515 E24.54937
G1 X98.316 Y67.897 E24.58648
G1 X97.659 Y68.498 E24.62359
G1 X97.205 Y69.264 E24.66070
G1 X96.996 Y70.129 E24.69781
G1 X97.047 Y71.018 E24.73492
G1 X97.204 Y71.441 E24.75375
G1 X87.796 Y71.441 E25.14596
G1 X87.953 Y71.018 E25.16479
G1 X88.004 Y70.129 E25.20190
G1 X87.795 Y69.264 E25.23901
G1 X87.341 Y68.498 E25.27612
G1 X86.684 Y67.897 E25.31323
G1 X85.880 Y67.515 E25.35034
G1 X85.000 Y67.383 E25.38745
G1 X84.120 Y67.515 E25.42456
G1 X83.316 Y67.897 E25.46167
G1 X82.659 Y68.498 E25.49879
G1 X82.205 Y69.264 E25.53590
G1 X81.996 Y70.129 E25.57301
G1 X82.047 Y71.018 E25.61012
G1 X82.204 Y71.441 E25.62894
G1 X72.796 Y71.441 E26.02116
G1 X72.953 Y71.018 E26.03998
G1 X73.004 Y70.129 E26.07709
G1 X72.795 Y69.264 E26.11420
G1 X72.341 Y68.498 E26.15132
G1 X71.684 Y67.897 E26.18843
G1 X70.880 Y67.515 E26.22554
G1 X70.000 Y67.383 E26.26265
G1 X69.120 Y67.515 E26.29976
G1 X68.316 Y67.897 E26.33687
G1 X67.659 Y68.498 E26.37398
G1 X67.205 Y69.264 E26.41109
G1 X66.996 Y70.129 E26.44821
G1 X67.047 Y71.018 E26.48532
G1 X67.204 Y71.441 E26.50414
G1 X63.559 Y71.441 E26.65611
G1 X63.559 Y67.796 E26.80809
G1 X63.982 Y67.953 E26.82691
G1 X64.871 Y68.004 E26.86402
G1 X65.736 Y67.795 E26.90113
G1 X66.502 Y67.341 E26.93824
G1 X67.103 Y66.684 E26.97535
G1 X67.485 Y65.880 E27.01246
G1 X67.617 Y65.000 E27.04958
G1 X67.485 Y64.120 E27.08669
G1 X67.103 Y63.316 E27.12380
G1 X66.502 Y62.659 E27.16091
G1 X65.736 Y62.205 E27.19802
G1 X64.871 Y61.996 E27.23513
G1 X63.982 Y62.047 E27.27224
G1 X63.559 Y62.204 E27.29106
G1 X63.559 Y52.871 E27.68016
G1 X63.002 Y51.833 F2220.000
G1 X63.419 Y52.150 E27.70200 F691.200
G1 X64.097 Y52.401 E27.73218
G1 X64.820 Y52.443 E27.76236
G1 X65.524 Y52.273 E27.79254
G1 X66.147 Y51.904 E27.82273
G1 X66.635 Y51.370 E27.85291
G1 X66.947 Y50.716 E27.88309
G1 X67.053 Y50.000 E27.91327
G1 X66.946 Y49.284 E27.94345
G1 X66.635 Y48.630 E27.97363
G1 X66.147 Y48.096 E28.00382
G1 X65.524 Y47.727 E28.03400
G1 X64.820 Y47.557 E28.06418
G1 X64.097 Y47.599 E28.09436
G1 X63.419 Y47.850 E28.12454
G1 X63.002 Y48.167 E28.14639
G1 X63.002 Y36.833 E28.61891
G1 X63.419 Y37.150 E28.64075
G1 X64.097 Y37.401 E28.67093
G1 X64.820 Y37.443 E28.70112
G1 X65.524 Y37.273 E28.73130
G1 X66.147 Y36.904 E28.76148
G1 X66.635 Y36.370 E28.79166
G1 X66.947 Y35.716 E28.82184
G1 X67.053 Y35.000 E28.85202
G1 X66.946 Y34.284 E28.88221
G1 X66.635 Y33.630 E28.91239
G1 X66.147 Y33.096 E28.94257
G1 X65.524 Y32.727 E28.97275
G1 X64.820 Y32.557 E29.00293
