; generated by Slic3r 1.2.9 on 2016-07-08 at 07:13:52

; external perimeters extrusion width = 0.50mm
; perimeters extrusion width = 0.50mm
; infill extrusion width = 0.60mm
; solid infill extrusion width = 0.50mm
; top infill extrusion width = 0.50mm

M107
M104 S200 ; set temperature
G28 ; home all axes

M109 S200 ; wait for temperature to be reached
G21 ; set units to millimeters
G90 ; use absolute coordinates
M82 ; use absolute distances for extrusion
G92 E0
G1 E-8.00000 F9000.00000
G92 E0
G1 Z0.200 F2220.000
G1 X10.184 Y25.237 F2220.000
G1 E8.00000 F9000.00000
G1 X11.574 Y24.786 E8.06093 F864.000
G1 X12.500 Y24.697 E8.09970
G1 X107.500 Y24.697 E12.06018
G1 X108.231 Y24.755 E12.09074
G1 X108.426 Y24.786 E12.09897 F864.000
G1 X109.816 Y25.237 E12.15990
G1 X109.992 Y25.327 E12.16813
G1 X111.174 Y26.186 E12.22906
G1 X111.314 Y26.326 E12.23730
G1 X112.173 Y27.508 E12.29823
G1 X112.263 Y27.684 E12.30646
G1 X112.714 Y29.074 E12.36739
G1 X112.745 Y29.269 E12.37563
G1 X112.803 Y30.000 E12.40618
G1 X112.803 Y70.000 E14.07375
G1 X112.714 Y70.926 E14.11251
G1 X112.262 Y72.316 E14.17346
G1 X112.173 Y72.492 E14.18170
G1 X111.314 Y73.674 E14.24261
G1 X111.174 Y73.814 E14.25085
G1 X109.992 Y74.673 E14.31179
G1 X109.816 Y74.763 E14.32002
G1 X108.426 Y75.214 E14.38095
G1 X107.500 Y75.303 E14.41972
G1 X12.500 Y75.303 E18.38019
G1 X11.574 Y75.214 E18.41896
G1 X10.184 Y74.763 E18.47989
G1 X10.008 Y74.673 E18.48813
G1 X8.826 Y73.814 E18.54906
G1 X8.686 Y73.674 E18.55729
G1 X7.827 Y72.492 E18.61822
G1 X7.737 Y72.316 E18.62646
G1 X7.286 Y70.926 E18.68739
G1 X7.197 Y70.000 E18.72616
G1 X7.197 Y30.000 E20.39373
G1 X7.286 Y29.074 E20.43250
G1 X7.737 Y27.684 E20.49343
G1 X7.827 Y27.508 E20.50166
G1 X8.686 Y26.326 E20.56259
G1 X8.826 Y26.186 E20.57083
G1 X10.008 Y25.327 E20.63176
G1 X10.117 Y25.271 E20.63686
G1 X10.437 Y25.734 F2220.000
G1 X11.661 Y25.336 E20.69053 F864.000
G1 X12.500 Y25.254 E20.72566
G1 X107.500 Y25.254 E24.68613
G1 X108.144 Y25.305 E24.71305
G1 X108.339 Y25.336 E24.72128 F864.000
G1 X109.563 Y25.734 E24.77494
G1 X109.739 Y25.823 E24.78318
G1 X110.780 Y26.580 E24.83684
G1 X110.920 Y26.720 E24.84508
G1 X111.677 Y27.761 E24.89874
G1 X111.766 Y27.937 E24.90697
G1 X112.164 Y29.161 E24.96064
G1 X112.195 Y29.357 E24.96888
G1 X112.246 Y30.000 E24.99578
G1 X112.246 Y70.000 E26.66335
G1 X112.164 Y70.838 E26.69847
G1 X111.766 Y72.063 E26.75215
G1 X111.676 Y72.239 E26.76039
G1 X110.920 Y73.280 E26.81404
G1 X110.780 Y73.420 E26.82227
G1 X109.739 Y74.177 E26.87595
G1 X109.563 Y74.266 E26.88418
G1 X108.339 Y74.664 E26.93784
G1 X107.500 Y74.746 E26.97297
G1 X12.500 Y74.746 E30.93344
G1 X11.661 Y74.664 E30.96857
G1 X10.437 Y74.266 E31.02223
G1 X10.261 Y74.177 E31.03047
G1 X9.220 Y73.420 E31.08413
G1 X9.080 Y73.280 E31.09237
G1 X8.323 Y72.239 E31.14603
G1 X8.234 Y72.063 E31.15426
G1 X7.836 Y70.839 E31.20793
G1 X7.754 Y70.000 E31.24306
G1 X7.754 Y30.000 E32.91063
G1 X7.836 Y29.161 E32.94576
G1 X8.234 Y27.937 E32.99942
G1 X8.323 Y27.761 E33.00765
G1 X9.080 Y26.720 E33.06131
G1 X9.220 Y26.580 E33.06955
G1 X10.261 Y25.823 E33.12321
G1 X10.370 Y25.768 E33.12832
G1 X10.690 Y26.230 F2220.000
G1 X11.748 Y25.886 E33.17472 F864.000
G1 X12.500 Y25.812 E33.20620
G1 X107.500 Y25.812 E37.16668
G1 X108.056 Y25.855 E37.18995
G1 X108.252 Y25.886 E37.19818 F864.000
G1 X109.310 Y26.230 E37.24458
G1 X109.486 Y26.320 E37.25281
G1 X110.386 Y26.974 E37.29921
G1 X110.526 Y27.114 E37.30745
G1 X111.180 Y28.014 E37.35384
G1 X111.270 Y28.190 E37.36208
G1 X111.614 Y29.249 E37.40848
G1 X111.645 Y29.444 E37.41671
G1 X111.688 Y30.000 E37.43998
G1 X111.688 Y70.000 E39.10755
G1 X111.614 Y70.751 E39.13902
G1 X111.270 Y71.810 E39.18543
G1 X111.180 Y71.986 E39.19367
G1 X110.526 Y72.886 E39.24006
G1 X110.386 Y73.026 E39.24829
G1 X109.486 Y73.680 E39.29470
G1 X109.310 Y73.770 E39.30293
G1 X108.251 Y74.114 E39.34933
G1 X107.500 Y74.188 E39.38081
G1 X12.500 Y74.188 E43.34128
G1 X11.749 Y74.114 E43.37277
G1 X10.690 Y73.770 E43.41917
G1 X10.514 Y73.680 E43.42740
G1 X9.614 Y73.026 E43.47380
G1 X9.474 Y72.886 E43.48203
G1 X8.820 Y71.986 E43.52843
G1 X8.730 Y71.810 E43.53666
G1 X8.386 Y70.752 E43.58306
G1 X8.312 Y70.000 E43.61455
G1 X8.312 Y30.000 E45.28211
G1 X8.386 Y29.248 E45.31360
G1 X8.730 Y28.190 E45.36000
G1 X8.820 Y28.014 E45.36823
G1 X9.474 Y27.114 E45.41463
G1 X9.614 Y26.974 E45.42286
G1 X10.514 Y26.320 E45.46926
G1 X10.623 Y26.264 E45.47437
G1 F1776
G1 X11.748 Y25.886 E39.75985
G1 F1776
G1 X12.138 Y25.848 E37.87437
G1 E37.47437 F9000.00000
G92 E0
G1 X68.283 Y69.217 F2220.000
G1 E8.00000 F9000.00000
G1 X68.283 Y30.783 E9.60230 F864.000
G1 X106.717 Y30.783 E11.20460
G1 X106.717 Y69.217 E12.80690
G1 X68.358 Y69.217 E14.40608
G1 X67.726 Y69.774 F2220.000
G1 X67.726 Y30.226 E16.05483 F864.000
G1 X107.274 Y30.226 E17.70358
G1 X107.274 Y69.774 E19.35233
G1 X67.801 Y69.774 E20.99795
G1 X67.307 Y70.265 F2220.000
G1 X67.235 Y70.193 E21.00223 F691.200
G1 X67.188 Y70.101 E21.00650
G1 X67.169 Y69.976 E21.01177
G1 X67.169 Y30.024 E22.67737
G1 X67.188 Y29.899 E22.68264
G1 X67.235 Y29.807 E22.68691
G1 X67.307 Y29.735 E22.69119
G1 X67.399 Y29.688 E22.69546
G1 X67.524 Y29.669 E22.70073
G1 X107.476 Y29.669 E24.36633
G1 X107.601 Y29.688 E24.37160
G1 X107.693 Y29.735 E24.37587
G1 X107.765 Y29.807 E24.38015
G1 X107.812 Y29.899 E24.38442
G1 X107.831 Y30.024 E24.38969
G1 X107.831 Y69.976 E26.05529
G1 X107.812 Y70.101 E26.06056
G1 X107.765 Y70.193 E26.06483
G1 X107.693 Y70.265 E26.06911
G1 X107.601 Y70.312 E26.07338
G1 X107.476 Y70.331 E26.07865
G1 X67.524 Y70.331 E27.74425
G1 X67.374 Y70.299 E27.75062
G1 X67.318 Y70.163 F2220.000
G1 X68.894 Y68.882 F2220.000
G1 X68.618 Y68.606 E27.76694 F1080.000
G1 X68.618 Y67.816 E27.79990
G1 X69.684 Y68.882 E27.86282
G1 X70.473 Y68.882 E27.89578
G1 X68.618 Y67.027 E28.00532
G1 X68.618 Y66.238 E28.03828
G1 X71.262 Y68.882 E28.19443
G1 X72.051 Y68.882 E28.22739
G1 X68.618 Y65.449 E28.43015
G1 X68.618 Y64.660 E28.46311
G1 X72.840 Y68.882 E28.71248
G1 X73.630 Y68.882 E28.74544
G1 X68.618 Y63.870 E29.04143
G1 X68.618 Y63.081 E29.07439
G1 X74.419 Y68.882 E29.41698
G1 X75.208 Y68.882 E29.44994
G1 X68.618 Y62.292 E29.83915
G1 X68.618 Y61.503 E29.87211
G1 X75.997 Y68.882 E30.30793
G1 X76.786 Y68.882 E30.34088
G1 X68.618 Y60.714 E30.82331
G1 X68.618 Y59.924 E30.85627
G1 X77.576 Y68.882 E31.38531
G1 X78.365 Y68.882 E31.41827
G1 X68.618 Y59.135 E31.99393
G1 X68.618 Y58.346 E32.02689
G1 X79.154 Y68.882 E32.64915
G1 X79.943 Y68.882 E32.68211
G1 X68.618 Y57.557 E33.35098
G1 X68.618 Y56.767 E33.38394
G1 X80.733 Y68.882 E34.09943
G1 X81.522 Y68.882 E34.13239
G1 X68.618 Y55.978 E34.89449
G1 X68.618 Y55.189 E34.92744
G1 X82.311 Y68.882 E35.73615
G1 X83.100 Y68.882 E35.76911
G1 X68.618 Y54.400 E36.62443
G1 X68.618 Y53.611 E36.65739
G1 X83.889 Y68.882 E37.55932
G1 X84.679 Y68.882 E37.59228
G1 X68.618 Y52.821 E38.54083
G1 X68.618 Y52.032 E38.57379
G1 X85.468 Y68.882 E39.56894
G1 X86.257 Y68.882 E39.60190
G1 X68.618 Y51.243 E40.64367
G1 X68.618 Y50.454 E40.67662
G1 X87.046 Y68.882 E41.76500
G1 X87.835 Y68.882 E41.79796
G1 X68.618 Y49.665 E42.93295
G1 X68.618 Y48.875 E42.96591
G1 X88.625 Y68.882 E44.14751
G1 X89.414 Y68.882 E44.18047
G1 X68.618 Y48.086 E45.40868
G1 X68.618 Y47.297 E45.44164
G1 X90.203 Y68.882 E46.71646
G1 X90.992 Y68.882 E46.74942
G1 X68.618 Y46.508 E48.07085
G1 X68.618 Y45.719 E48.10381
G1 X91.781 Y68.882 E49.47186
G1 X92.571 Y68.882 E49.50482
G1 X68.618 Y44.929 E50.91948
G1 X68.618 Y44.140 E50.95243
G1 X93.360 Y68.882 E52.41370
G1 X94.149 Y68.882 E52.44666
G1 X68.618 Y43.351 E53.95454
G1 X68.618 Y42.562 E53.98750
G1 X94.938 Y68.882 E55.54199
G1 X95.728 Y68.882 E55.57495
G1 X68.618 Y41.772 E57.17605
G1 X68.618 Y40.983 E57.20901
G1 X96.517 Y68.882 E58.85673
G1 X97.306 Y68.882 E58.88968
G1 X68.618 Y40.194 E60.58401
G1 X68.618 Y39.405 E60.61697
G1 X98.095 Y68.882 E62.35791
G1 X98.884 Y68.882 E62.39086
G1 X68.618 Y38.616 E64.17841
G1 X68.618 Y37.826 E64.21137
G1 X99.674 Y68.882 E66.04553
G1 X100.463 Y68.882 E66.07849
G1 X68.618 Y37.037 E67.95926
G1 X68.618 Y36.248 E67.99222
G1 X101.252 Y68.882 E69.91960
G1 X102.041 Y68.882 E69.95256
G1 X68.618 Y35.459 E71.92655
G1 X68.618 Y34.670 E71.95951
G1 X102.830 Y68.882 E73.98012
G1 X103.620 Y68.882 E74.01308
G1 X68.618 Y33.880 E76.08029
G1 X68.618 Y33.091 E76.11325
G1 X104.409 Y68.882 E78.22708
G1 X105.198 Y68.882 E78.26004
G1 X68.618 Y32.302 E80.42048
G1 X68.618 Y31.513 E80.45344
G1 X105.987 Y68.882 E82.66049
G1 X106.382 Y68.487 E82.68379
G1 X69.013 Y31.118 E84.89085
G1 X69.802 Y31.118 E84.92381
G1 X106.382 Y67.698 E87.08425
G1 X106.382 Y66.909 E87.11721
G1 X70.591 Y31.118 E89.23104
G1 X71.380 Y31.118 E89.26400
G1 X106.382 Y66.120 E91.33122
G1 X106.382 Y65.330 E91.36418
G1 X72.170 Y31.118 E93.38479
G1 X72.959 Y31.118 E93.41775
G1 X106.382 Y64.541 E95.39175
G1 X106.382 Y63.752 E95.42471
G1 X73.748 Y31.118 E97.35209
G1 X74.537 Y31.118 E97.38505
G1 X106.382 Y62.963 E99.26583
G1 X106.382 Y62.174 E99.29879
G1 X75.326 Y31.118 E101.13295
G1 X76.116 Y31.118 E101.16591
G1 X106.382 Y61.384 E102.95346
G1 X106.382 Y60.595 E102.98642
G1 X76.905 Y31.118 E104.72736
G1 X77.694 Y31.118 E104.76032
G1 X106.382 Y59.806 E106.45465
G1 X106.382 Y59.017 E106.48761
G1 X78.483 Y31.118 E108.13533
G1 X79.272 Y31.118 E108.16829
G1 X106.382 Y58.228 E109.76940
G1 X106.382 Y57.438 E109.80236
G1 X80.062 Y31.118 E111.35685
G1 X80.851 Y31.118 E111.38981
G1 X106.382 Y56.649 E112.89770
G1 X106.382 Y55.860 E112.93066
G1 X81.640 Y31.118 E114.39193
G1 X82.429 Y31.118 E114.42489
G1 X106.382 Y55.071 E115.83955
G1 X106.382 Y54.282 E115.87251
G1 X83.218 Y31.118 E117.24056
G1 X84.008 Y31.118 E117.27352
G1 X106.382 Y53.492 E118.59496
G1 X106.382 Y52.703 E118.62792
G1 X84.797 Y31.118 E119.90275
G1 X85.586 Y31.118 E119.93571
G1 X106.382 Y51.914 E121.16392
G1 X106.382 Y51.125 E121.19688
G1 X86.375 Y31.118 E122.37849
G1 X87.164 Y31.118 E122.41145
G1 X106.382 Y50.335 E123.54644
G1 X106.382 Y49.546 E123.57940
G1 X87.954 Y31.118 E124.66778
G1 X88.743 Y31.118 E124.70074
G1 X106.382 Y48.757 E125.74251
G1 X106.382 Y47.968 E125.77547
G1 X89.532 Y31.118 E126.77063
G1 X90.321 Y31.118 E126.80359
G1 X106.382 Y47.179 E127.75214
G1 X106.382 Y46.389 E127.78510
G1 X91.111 Y31.118 E128.68704
G1 X91.900 Y31.118 E128.72000
G1 X106.382 Y45.600 E129.57532
G1 X106.382 Y44.811 E129.60828
G1 X92.689 Y31.118 E130.41700
G1 X93.478 Y31.118 E130.44996
G1 X106.382 Y44.022 E131.21206
G1 X106.382 Y43.233 E131.24502
G1 X94.267 Y31.118 E131.96051
G1 X95.057 Y31.118 E131.99347
G1 X106.382 Y42.443 E132.66235
G1 X106.382 Y41.654 E132.69531
G1 X95.846 Y31.118 E133.31758
G1 X96.635 Y31.118 E133.35054
G1 X106.382 Y40.865 E133.92619
G1 X106.382 Y40.076 E133.95915
G1 X97.424 Y31.118 E134.48820
G1 X98.213 Y31.118 E134.52116
G1 X106.382 Y39.287 E135.00359
G1 X106.382 Y38.497 E135.03655
G1 X99.003 Y31.118 E135.47238
G1 X99.792 Y31.118 E135.50534
G1 X106.382 Y37.708 E135.89455
G1 X106.382 Y36.919 E135.92751
G1 X100.581 Y31.118 E136.27011
G1 X101.370 Y31.118 E136.30307
G1 X106.382 Y36.130 E136.59906
G1 X106.382 Y35.341 E136.63202
G1 X102.159 Y31.118 E136.88140
G1 X102.949 Y31.118 E136.91435
G1 X106.382 Y34.551 E137.11712
G1 X106.382 Y33.762 E137.15008
G1 X103.738 Y31.118 E137.30624
G1 X104.527 Y31.118 E137.33920
G1 X106.382 Y32.973 E137.44874
G1 X106.382 Y32.184 E137.48170
G1 X105.316 Y31.118 E137.54463
G1 X106.106 Y31.118 E137.57759
G1 X106.382 Y31.394 E137.59391
G1 F1776
G1 X106.106 Y31.118 E135.71244
G1 F1776
G1 X105.316 Y31.118 E131.91304
G1 F1776
G1 X105.598 Y31.400 E129.99392
G1 E129.59391 F9000.00000
G92 E0
G1 X51.717 Y69.217 F2220.000
G1 E8.00000 F9000.00000
G1 X13.283 Y69.217 E9.60230 F864.000
G1 X13.283 Y30.783 E11.20460
G1 X51.717 Y30.783 E12.80690
G1 X51.717 Y69.142 E14.40608
G1 X52.274 Y69.774 F2220.000
G1 X12.726 Y69.774 E16.05483 F864.000
G1 X12.726 Y30.226 E17.70358
G1 X52.274 Y30.226 E19.35233
G1 X52.274 Y69.699 E20.99795
G1 X52.765 Y70.193 F2220.000
G1 X52.693 Y70.265 E21.00223 F691.200
G1 X52.601 Y70.312 E21.00650
G1 X52.476 Y70.331 E21.01177
G1 X12.524 Y70.331 E22.67737
G1 X12.399 Y70.312 E22.68264
G1 X12.307 Y70.265 E22.68691
G1 X12.235 Y70.193 E22.69119
G1 X12.188 Y70.101 E22.69546
G1 X12.169 Y69.976 E22.70073
G1 X12.169 Y30.024 E24.36633
G1 X12.188 Y29.899 E24.37160
G1 X12.235 Y29.807 E24.37587
G1 X12.307 Y29.735 E24.38015
G1 X12.399 Y29.688 E24.38442
G1 X12.524 Y29.669 E24.38969
G1 X52.476 Y29.669 E26.05529
G1 X52.601 Y29.688 E26.06056
G1 X52.693 Y29.735 E26.06483
G1 X52.765 Y29.807 E26.06911
G1 X52.812 Y29.899 E26.07338
G1 X52.831 Y30.024 E26.07865
G1 X52.831 Y69.976 E27.74425
G1 X52.799 Y70.126 E27.75062
G1 X52.663 Y70.182 F2220.000
G1 X51.382 Y31.394 F2220.000
G1 X51.106 Y31.118 E27.76694 F1080.000
G1 X50.316 Y31.118 E27.79990
G1 X51.382 Y32.184 E27.86284
G1 X51.382 Y32.973 E27.89580
G1 X49.527 Y31.118 E28.00534
G1 X48.738 Y31.118 E28.03830
G1 X51.382 Y33.762 E28.19445
G1 X51.382 Y34.551 E28.22741
G1 X47.949 Y31.118 E28.43018
G1 X47.159 Y31.118 E28.46314
G1 X51.382 Y35.341 E28.71252
G1 X51.382 Y36.130 E28.74548
G1 X46.370 Y31.118 E29.04147
G1 X45.581 Y31.118 E29.07443
G1 X51.382 Y36.919 E29.41703
G1 X51.382 Y37.708 E29.44999
G1 X44.792 Y31.118 E29.83920
G1 X44.003 Y31.118 E29.87216
G1 X51.382 Y38.497 E30.30798
G1 X51.382 Y39.287 E30.34094
G1 X43.213 Y31.118 E30.82337
G1 X42.424 Y31.118 E30.85633
G1 X51.382 Y40.076 E31.38538
G1 X51.382 Y40.865 E31.41834
G1 X41.635 Y31.118 E31.99400
G1 X40.846 Y31.118 E32.02696
G1 X51.382 Y41.654 E32.64923
G1 X51.382 Y42.443 E32.68218
G1 X40.057 Y31.118 E33.35107
G1 X39.267 Y31.118 E33.38402
G1 X51.382 Y43.233 E34.09952
G1 X51.382 Y44.022 E34.13248
G1 X38.478 Y31.118 E34.89458
G1 X37.689 Y31.118 E34.92754
G1 X51.382 Y44.811 E35.73625
G1 X51.382 Y45.600 E35.76921
G1 X36.900 Y31.118 E36.62454
G1 X36.111 Y31.118 E36.65750
G1 X51.382 Y46.389 E37.55943
G1 X51.382 Y47.179 E37.59239
G1 X35.321 Y31.118 E38.54094
G1 X34.532 Y31.118 E38.57390
G1 X51.382 Y47.968 E39.56906
G1 X51.382 Y48.757 E39.60202
G1 X33.743 Y31.118 E40.64379
G1 X32.954 Y31.118 E40.67675
G1 X51.382 Y49.546 E41.76513
G1 X51.382 Y50.335 E41.79809
G1 X32.165 Y31.118 E42.93309
G1 X31.375 Y31.118 E42.96605
G1 X51.382 Y51.125 E44.14765
G1 X51.382 Y51.914 E44.18061
G1 X30.586 Y31.118 E45.40883
G1 X29.797 Y31.118 E45.44179
G1 X51.382 Y52.703 E46.71662
G1 X51.382 Y53.492 E46.74957
G1 X29.008 Y31.118 E48.07101
G1 X28.218 Y31.118 E48.10397
G1 X51.382 Y54.282 E49.47202
G1 X51.382 Y55.071 E49.50498
G1 X27.429 Y31.118 E50.91965
G1 X26.640 Y31.118 E50.95260
G1 X51.382 Y55.860 E52.41388
G1 X51.382 Y56.649 E52.44684
G1 X25.851 Y31.118 E53.95472
G1 X25.062 Y31.118 E53.98768
G1 X51.382 Y57.438 E55.54218
G1 X51.382 Y58.228 E55.57514
G1 X24.272 Y31.118 E57.17624
G1 X23.483 Y31.118 E57.20920
G1 X51.382 Y59.017 E58.85692
G1 X51.382 Y59.806 E58.88988
G1 X22.694 Y31.118 E60.58421
G1 X21.905 Y31.118 E60.61717
G1 X51.382 Y60.595 E62.35811
G1 X51.382 Y61.384 E62.39107
G1 X21.116 Y31.118 E64.17863
G1 X20.326 Y31.118 E64.21159
G1 X51.382 Y62.174 E66.04575
G1 X51.382 Y62.963 E66.07871
G1 X19.537 Y31.118 E67.95948
G1 X18.748 Y31.118 E67.99244
G1 X51.382 Y63.752 E69.91983
G1 X51.382 Y64.541 E69.95279
G1 X17.959 Y31.118 E71.92679
G1 X17.170 Y31.118 E71.95975
G1 X51.382 Y65.330 E73.98036
G1 X51.382 Y66.120 E74.01332
G1 X16.380 Y31.118 E76.08054
G1 X15.591 Y31.118 E76.11350
G1 X51.382 Y66.909 E78.22733
G1 X51.382 Y67.698 E78.26029
G1 X14.802 Y31.118 E80.42073
G1 X14.013 Y31.118 E80.45369
G1 X51.382 Y68.487 E82.66075
G1 X50.987 Y68.882 E82.68405
G1 X13.618 Y31.513 E84.89110
G1 X13.618 Y32.302 E84.92406
G1 X50.198 Y68.882 E87.08450
G1 X49.409 Y68.882 E87.11746
G1 X13.618 Y33.091 E89.23129
