; generated by Slic3r 1.2.9 on 2016-07-06 at 10:51:46

; external perimeters extrusion width = 0.50mm
; perimeters extrusion width = 0.50mm
; infill extrusion width = 0.60mm
; solid infill extrusion width = 0.50mm
; top infill extrusion width = 0.50mm

M107
M104 S200 ; set temperature
G28 ; home all axes

M109 S200 ; wait for temperature to be reached
G21 ; set units to millimeters
G90 ; use absolute coordinates
M82 ; use absolute distances for extrusion
G92 E0
G1 E-8.00000 F9000.00000
G92 E0
G1 Z0.200 F2220.000
G1 X37.864 Y19.538 F2220.000
G1 E8.00000 F9000.00000
G1 X38.985 Y17.976 E8.08016 F864.000
G1 X40.639 Y16.996 E8.16032
G1 X42.140 Y16.749 E8.22372
G1 X57.140 Y16.749 E8.84906
G1 X59.022 Y17.144 E8.92922
G1 X60.584 Y18.265 E9.00938 F864.000
G1 X61.564 Y19.919 E9.08954
G1 X61.811 Y21.420 E9.15295
G1 X61.811 Y36.420 E9.77828
G1 X61.416 Y38.302 E9.85844
G1 X60.295 Y39.864 E9.93860
G1 X58.641 Y40.844 E10.01876
G1 X57.140 Y41.091 E10.08217
G1 X42.140 Y41.091 E10.70751
G1 X40.258 Y40.696 E10.78766
G1 X38.696 Y39.575 E10.86782
G1 X37.716 Y37.921 E10.94798
G1 X37.469 Y36.420 E11.01139
G1 X37.469 Y21.420 E11.63673
G1 X37.849 Y19.612 E11.71376
G1 X38.420 Y19.663 F2220.000
G1 X39.530 Y18.239 E11.78903 F864.000
G1 X41.141 Y17.429 E11.86420
G1 X42.140 Y17.306 E11.90615
G1 X57.140 Y17.306 E12.53149
G1 X58.899 Y17.701 E12.60666
G1 X60.321 Y18.810 E12.68184 F864.000
G1 X61.131 Y20.421 E12.75701
G1 X61.254 Y21.420 E12.79896
G1 X61.254 Y36.420 E13.42430
G1 X60.859 Y38.179 E13.49947
G1 X59.750 Y39.601 E13.57464
G1 X58.139 Y40.411 E13.64981
G1 X57.140 Y40.534 E13.69176
G1 X42.140 Y40.534 E14.31710
G1 X40.381 Y40.139 E14.39227
G1 X38.959 Y39.030 E14.46745
G1 X38.149 Y37.419 E14.54262
G1 X38.026 Y36.420 E14.58457
G1 X38.026 Y21.420 E15.20991
G1 X38.404 Y19.736 E15.28184
G1 X38.976 Y19.798 F2220.000
G1 X40.073 Y18.525 E15.35189 F864.000
G1 X42.140 Y17.863 E15.44238
G1 X57.140 Y17.863 E16.06772
G1 X58.768 Y18.257 E16.13755
G1 X60.035 Y19.353 E16.20738 F864.000
G1 X60.697 Y21.420 E16.29786
G1 X60.697 Y36.420 E16.92320
G1 X60.303 Y38.048 E16.99303
G1 X59.207 Y39.315 E17.06286
G1 X57.140 Y39.977 E17.15335
G1 X42.140 Y39.977 E17.77869
G1 X40.512 Y39.583 E17.84852
G1 X39.245 Y38.487 E17.91835
G1 X38.583 Y36.420 E18.00883
G1 X38.583 Y21.420 E18.63417
G1 X38.958 Y19.871 E18.70063
G1 F1776
G1 X39.965 Y18.655 E11.10063
G1 E10.70063 F9000.00000
G92 E0
G1 X55.726 Y35.006 F2220.000
G1 E8.00000 F9000.00000
G1 X53.304 Y35.006 E8.10096 F691.200
G1 X53.304 Y32.007 E8.22598
G1 X53.692 Y32.236 E8.24477
G1 X54.719 Y32.485 E8.28881
G1 X55.726 Y32.427 E8.33087
G1 X55.726 Y34.931 E8.43527
G1 X52.747 Y31.263 F2220.000
G1 X51.997 Y31.263 E8.46653 F691.200
G1 X51.997 Y30.075 E8.51604
G1 X52.258 Y30.017 E8.52718
G1 X52.537 Y30.604 E8.55431
G1 X53.138 Y31.261 E8.59142
G1 X53.904 Y31.715 E8.62853
G1 X54.769 Y31.924 E8.66564
G1 X55.658 Y31.873 E8.70275
G1 X56.283 Y31.641 E8.73053
G1 X56.283 Y35.563 E8.89402
G1 X52.747 Y35.563 E9.04143
G1 X52.747 Y31.338 E9.21756
G1 F1776
G1 X51.997 Y31.263 E5.58891
G1 F1776
G1 X51.997 Y30.438 E1.61756
G1 E1.21756 F9000.00000
G92 E0
G1 X53.304 Y25.833 F2220.000
G1 E8.00000 F9000.00000
G1 X53.304 Y22.834 E8.12502 F691.200
G1 X55.726 Y22.834 E8.22598
G1 X55.726 Y25.413 E8.33351
G1 X54.719 Y25.355 E8.37557
G1 X53.692 Y25.604 E8.41961
G1 X53.369 Y25.795 E8.43527
G1 X52.747 Y26.577 F2220.000
G1 X52.747 Y22.277 E8.61453 F691.200
G1 X56.283 Y22.277 E8.76194
G1 X56.283 Y26.199 E8.92542
G1 X55.658 Y25.967 E8.95321
G1 X54.769 Y25.916 E8.99032
G1 X53.904 Y26.125 E9.02743
G1 X53.138 Y26.579 E9.06454
G1 X52.537 Y27.236 E9.10165
G1 X52.258 Y27.823 E9.12878
G1 X51.997 Y27.765 E9.13992
G1 X51.997 Y26.577 E9.18942
G1 X52.672 Y26.577 E9.21756
G1 X52.190 Y26.020 F2220.000
G1 X52.190 Y21.720 E9.39683 F691.200
G1 X56.840 Y21.720 E9.59068
G1 X56.840 Y27.241 E9.82083
G1 X56.221 Y26.770 E9.85324
G1 X55.543 Y26.519 E9.88342
G1 X54.820 Y26.477 E9.91360
G1 X54.116 Y26.647 E9.94378
G1 X53.493 Y27.016 E9.97397
G1 X53.005 Y27.550 E10.00415
G1 X52.694 Y28.204 E10.03433
G1 X52.587 Y28.920 E10.06451
G1 X52.694 Y29.636 E10.09469
G1 X53.005 Y30.290 E10.12488
G1 X53.493 Y30.824 E10.15506
G1 X54.116 Y31.193 E10.18524
G1 X54.820 Y31.363 E10.21542
G1 X55.543 Y31.321 E10.24560
G1 X56.221 Y31.070 E10.27578
G1 X56.840 Y30.599 E10.30819
G1 X56.840 Y36.120 E10.53834
G1 X52.190 Y36.120 E10.73219
G1 X52.190 Y31.820 E10.91146
G1 X51.440 Y31.820 E10.94273
G1 X51.440 Y26.020 E11.18452
G1 X52.115 Y26.020 E11.21266
G1 X52.690 Y26.020 F2220.000
G1 X53.639 Y24.958 F2220.000
G1 X53.912 Y25.230 E11.22932 F1080.000
G1 X54.569 Y25.071 E11.25848
G1 X53.639 Y24.142 E11.31521
G1 X53.639 Y23.326 E11.35041
G1 X55.357 Y25.043 E11.45524
G1 X55.391 Y24.262 E11.48902
G1 X54.298 Y23.169 E11.55568
G1 X55.114 Y23.169 E11.59088
G1 X55.391 Y23.446 E11.60775
G1 X52.073 Y28.067 F2220.000
G1 X52.013 Y28.876 E11.67801 F720.000
G1 X52.073 Y29.773 E11.75578
G1 X55.391 Y33.067 F2220.000
G1 X55.115 Y32.791 E11.77692 F1080.000
G1 X53.981 Y32.684 E11.83878
G1 X55.391 Y34.093 E11.94700
G1 X54.942 Y34.671 E11.98671
G1 X53.639 Y33.368 E12.08674
G1 X53.639 Y34.394 E12.14246
G1 X53.916 Y34.671 E12.16368
G1 F1776
G1 X53.639 Y34.394 E10.28224
G1 F1776
G1 X53.639 Y33.368 E5.34211
G1 F1776
G1 X53.754 Y33.482 E4.56368
G1 E4.16368 F9000.00000
G92 E0
G1 X45.976 Y32.007 F2220.000
G1 E8.00000 F9000.00000
G1 X45.976 Y35.006 E8.12502 F691.200
G1 X43.554 Y35.006 E8.22598
G1 X43.554 Y32.427 E8.33351
G1 X44.561 Y32.485 E8.37557
G1 X45.588 Y32.236 E8.41961
G1 X45.911 Y32.045 E8.43527
G1 X46.533 Y31.263 F2220.000
G1 X46.533 Y35.563 E8.61453 F691.200
G1 X42.997 Y35.563 E8.76194
G1 X42.997 Y31.641 E8.92542
G1 X43.622 Y31.873 E8.95321
G1 X44.511 Y31.924 E8.99032
G1 X45.376 Y31.715 E9.02743
G1 X46.142 Y31.261 E9.06454
G1 X46.743 Y30.604 E9.10165
G1 X47.022 Y30.017 E9.12878
G1 X47.283 Y30.075 E9.13992
G1 X47.283 Y31.263 E9.18942
G1 X46.608 Y31.263 E9.21756
G1 F1776
G1 X46.580 Y32.841 E1.61757
G1 E1.21756 F9000.00000
G92 E0
G1 X45.976 Y25.833 F2220.000
G1 E8.00000 F9000.00000
G1 X45.588 Y25.604 E8.01879 F691.200
G1 X44.561 Y25.355 E8.06283
G1 X43.554 Y25.413 E8.10489
G1 X43.554 Y22.834 E8.21241
G1 X45.976 Y22.834 E8.31337
G1 X45.976 Y25.758 E8.43527
G1 X46.533 Y26.577 F2220.000
G1 X47.283 Y26.577 E8.46653 F691.200
G1 X47.283 Y27.765 E8.51604
G1 X47.022 Y27.823 E8.52717
G1 X46.743 Y27.236 E8.55430
G1 X46.142 Y26.579 E8.59142
G1 X45.376 Y26.125 E8.62853
G1 X44.511 Y25.916 E8.66564
G1 X43.622 Y25.967 E8.70275
G1 X42.997 Y26.199 E8.73053
G1 X42.997 Y22.277 E8.89402
G1 X46.533 Y22.277 E9.04143
G1 X46.533 Y26.502 E9.21756
G1 X47.090 Y26.020 F2220.000
G1 X47.840 Y26.020 E9.24883 F691.200
G1 X47.840 Y31.820 E9.49063
G1 X47.090 Y31.820 E9.52190
G1 X47.090 Y36.120 E9.70116
G1 X42.440 Y36.120 E9.89501
G1 X42.440 Y30.599 E10.12517
G1 X43.059 Y31.070 E10.15757
G1 X43.737 Y31.321 E10.18775
G1 X44.460 Y31.363 E10.21793
G1 X45.164 Y31.193 E10.24812
G1 X45.787 Y30.824 E10.27830
G1 X46.275 Y30.290 E10.30848
G1 X46.586 Y29.636 E10.33866
G1 X46.693 Y28.920 E10.36884
G1 X46.586 Y28.204 E10.39902
G1 X46.275 Y27.550 E10.42921
G1 X45.787 Y27.016 E10.45939
G1 X45.164 Y26.647 E10.48957
G1 X44.460 Y26.477 E10.51975
G1 X43.737 Y26.519 E10.54993
G1 X43.059 Y26.770 E10.58012
G1 X42.440 Y27.241 E10.61252
G1 X42.440 Y21.720 E10.84267
G1 X47.090 Y21.720 E11.03653
G1 X47.090 Y25.945 E11.21266
G1 X47.090 Y26.520 F2220.000
G1 X47.207 Y28.067 F2220.000
G1 X47.267 Y28.876 E11.28292 F720.000
G1 X47.207 Y29.773 E11.36070
G1 X45.641 Y32.882 F2220.000
G1 X45.368 Y32.610 E11.37736 F1080.000
G1 X44.711 Y32.769 E11.40651
G1 X45.641 Y33.698 E11.46324
G1 X45.641 Y34.514 E11.49845
G1 X43.923 Y32.797 E11.60327
G1 X43.889 Y33.578 E11.63705
G1 X44.982 Y34.671 E11.70371
G1 X44.166 Y34.671 E11.73892
G1 X43.889 Y34.394 E11.75579
G1 F1776
G1 X44.166 Y34.671 E9.87436
G1 F1776
G1 X44.982 Y34.671 E5.94752
G1 F1776
G1 X44.718 Y34.407 E4.15579
G1 E3.75579 F9000.00000
G92 E0
G1 X44.165 Y25.049 F2220.000
G1 E8.00000 F9000.00000
G1 X43.889 Y24.773 E8.02114 F1080.000
G1 X43.889 Y23.747 E8.07686
G1 X45.299 Y25.156 E8.18508
G1 X45.641 Y24.472 E8.22662
G1 X44.338 Y23.169 E8.32664
G1 X45.364 Y23.169 E8.38237
G1 X45.641 Y23.446 E8.40359
M106 S255
M104 S195 ; set temperature
G1 F1776
G1 X45.364 Y23.169 E6.52212
G1 F1776
G1 X44.338 Y23.169 E1.58200
G1 F1776
G1 X44.452 Y23.284 E0.80359
G1 E0.40359 F9000.00000
G92 E0
G1 Z0.400 F2220.000
G1 X53.054 Y31.569 F2220.000
G1 E8.00000 F9000.00000
G1 X53.787 Y32.002 E8.02913 F600.000
G1 X54.741 Y32.234 E8.06272
G1 X55.721 Y32.176 E8.09630
G1 X55.976 Y32.082 E8.10558
G1 X55.976 Y35.256 E8.21413
G1 X53.054 Y35.256 E8.31406
G1 X53.054 Y31.644 E8.43763
G1 F1776
G1 X53.787 Y32.002 E4.50900
G1 F1776
G1 X54.528 Y32.182 E0.83763
G1 E0.43763 F9000.00000
G92 E0
G1 X53.054 Y26.271 F2220.000
G1 E8.00000 F9000.00000
G1 X53.054 Y22.584 E8.12613 F600.000
G1 X55.976 Y22.584 E8.22606
G1 X55.976 Y25.758 E8.33462
G1 X55.721 Y25.663 E8.34389
G1 X54.741 Y25.606 E8.37748
G1 X53.787 Y25.838 E8.41106
G1 X53.119 Y26.233 E8.43763
G1 X52.597 Y26.427 F2220.000
G1 X52.597 Y22.127 E8.58471 F657.018
G1 X56.433 Y22.127 E8.71592
G1 X56.433 Y26.414 E8.86256
G1 X55.627 Y26.116 E8.89196
G1 X54.783 Y26.067 E8.92088
G1 X53.961 Y26.266 E8.94980
G1 X53.234 Y26.696 E8.97871
G1 X52.663 Y27.320 E9.00763
G1 X52.300 Y28.084 E9.03655
G1 X52.175 Y28.920 E9.06547
G1 X52.300 Y29.756 E9.09439
G1 X52.663 Y30.520 E9.12331
G1 X53.234 Y31.144 E9.15223
G1 X53.961 Y31.574 E9.18114
G1 X54.783 Y31.773 E9.21006
G1 X55.627 Y31.724 E9.23898
G1 X56.433 Y31.426 E9.26838
G1 X56.433 Y35.713 E9.41502
G1 X52.597 Y35.713 E9.54623
G1 X52.597 Y31.413 E9.69331
G1 X51.847 Y31.413 E9.71897
G1 X51.847 Y26.427 E9.88951
G1 X52.522 Y26.427 E9.91260
G1 X52.140 Y25.970 F2220.000
G1 X52.140 Y21.670 E10.05969 F600.000
G1 X56.890 Y21.670 E10.22216
G1 X56.890 Y27.170 E10.41029
G1 X56.665 Y27.170 E10.41800
G1 X56.197 Y26.814 E10.43810
G1 X55.532 Y26.568 E10.46235
G1 X54.824 Y26.527 E10.48661
G1 X54.135 Y26.694 E10.51086
G1 X53.525 Y27.055 E10.53511
G1 X53.047 Y27.578 E10.55937
G1 X52.742 Y28.219 E10.58362
G1 X52.637 Y28.920 E10.60787
G1 X52.742 Y29.621 E10.63213
G1 X53.047 Y30.262 E10.65638
G1 X53.525 Y30.785 E10.68064
G1 X54.135 Y31.146 E10.70489
G1 X54.824 Y31.313 E10.72914
G1 X55.532 Y31.272 E10.75340
G1 X56.197 Y31.026 E10.77765
G1 X56.665 Y30.670 E10.79774
G1 X56.890 Y30.670 E10.80545
G1 X56.890 Y36.170 E10.99359
G1 X52.140 Y36.170 E11.15606
G1 X52.140 Y31.870 E11.30315
G1 X51.390 Y31.870 E11.32880
G1 X51.390 Y25.970 E11.53061
G1 X52.065 Y25.970 E11.55370
G1 X52.640 Y25.970 F2220.000
G1 X52.471 Y27.191 F2220.000
G1 X52.158 Y27.657 E11.57289 F600.000
G1 X52.087 Y27.971 E11.58392
G1 X52.087 Y29.869 F2220.000
G1 X52.158 Y30.183 E11.59495 F600.000
G1 X52.471 Y30.649 E11.61413
G1 X53.326 Y32.367 F2220.000
G1 X53.554 Y32.138 E11.62577 F821.272
G1 X54.048 Y32.324 E11.64478
G1 X53.326 Y33.047 E11.68158
G1 X53.326 Y33.727 E11.70607
G1 X54.596 Y32.457 E11.77075
G1 X55.252 Y32.482 E11.79437
G1 X53.326 Y34.408 E11.89243
G1 X53.429 Y34.984 E11.91352
G1 X55.704 Y32.709 E12.02934
G1 X55.704 Y33.390 E12.05383
G1 X54.110 Y34.984 E12.13502
G1 X54.790 Y34.984 E12.15951
G1 X55.704 Y34.070 E12.20606
G1 X55.704 Y34.750 E12.23055
G1 X55.470 Y34.984 E12.24246
G1 F1776
G1 X55.704 Y34.750 E10.64984
G1 F1776
G1 X55.704 Y34.070 E7.37461
G1 F1776
G1 X55.303 Y34.471 E4.64246
G1 E4.24246 F9000.00000
G92 E0
G1 X55.471 Y25.382 F2220.000
G1 E8.00000 F9000.00000
G1 X55.704 Y25.150 E8.01289 F821.272
G1 X55.704 Y24.410 E8.04185
G1 X54.772 Y25.342 E8.09344
G1 X53.860 Y25.514 E8.12980
G1 X55.704 Y23.670 E8.23190
G1 X55.704 Y22.930 E8.26086
G1 X53.326 Y25.309 E8.39254
G1 X53.326 Y24.569 E8.42150
G1 X55.039 Y22.856 E8.51636
G1 X54.299 Y22.856 E8.54532
G1 X53.326 Y23.829 E8.59922
G1 X53.326 Y23.090 E8.62818
G1 X53.560 Y22.856 E8.64113
G1 F1776
G1 X53.326 Y23.090 E7.04856
G1 F1776
G1 X53.326 Y23.829 E3.48720
G1 F1776
G1 X53.685 Y23.470 E1.04113
G1 E0.64113 F9000.00000
G92 E0
G1 X46.226 Y31.569 F2220.000
G1 E8.00000 F9000.00000
G1 X46.226 Y35.256 E8.12613 F600.000
G1 X43.304 Y35.256 E8.22606
G1 X43.304 Y32.082 E8.33462
G1 X43.559 Y32.176 E8.34389
G1 X44.539 Y32.234 E8.37748
G1 X45.493 Y32.002 E8.41106
G1 X46.161 Y31.607 E8.43763
G1 F1776
G1 X46.189 Y33.185 E0.83763
G1 E0.43763 F9000.00000
G92 E0
G1 X46.226 Y26.271 F2220.000
G1 E8.00000 F9000.00000
G1 X45.493 Y25.838 E8.02913 F600.000
G1 X44.539 Y25.606 E8.06272
G1 X43.559 Y25.663 E8.09630
G1 X43.304 Y25.758 E8.10558
G1 X43.304 Y22.584 E8.21413
G1 X46.226 Y22.584 E8.31406
G1 X46.226 Y26.196 E8.43763
G1 X46.683 Y26.427 F2220.000
G1 X47.433 Y26.427 E8.46328 F657.018
G1 X47.433 Y31.413 E8.63382
G1 X46.683 Y31.413 E8.65948
G1 X46.683 Y35.713 E8.80656
G1 X42.847 Y35.713 E8.93777
G1 X42.847 Y31.426 E9.08441
G1 X43.653 Y31.724 E9.11381
G1 X44.497 Y31.773 E9.14273
G1 X45.319 Y31.574 E9.17165
G1 X46.046 Y31.144 E9.20057
G1 X46.617 Y30.520 E9.22949
G1 X46.980 Y29.756 E9.25840
G1 X47.105 Y28.920 E9.28732
G1 X46.980 Y28.084 E9.31624
G1 X46.617 Y27.320 E9.34516
G1 X46.046 Y26.696 E9.37408
G1 X45.319 Y26.266 E9.40300
G1 X44.497 Y26.067 E9.43192
G1 X43.653 Y26.116 E9.46083
G1 X42.847 Y26.414 E9.49023
G1 X42.847 Y22.127 E9.63688
G1 X46.683 Y22.127 E9.76808
G1 X46.683 Y26.352 E9.91260
G1 X47.140 Y25.970 F2220.000
G1 X47.890 Y25.970 E9.93826 F600.000
G1 X47.890 Y31.870 E10.14007
G1 X47.140 Y31.870 E10.16572
G1 X47.140 Y36.170 E10.31281
G1 X42.390 Y36.170 E10.47529
G1 X42.390 Y30.670 E10.66342
G1 X42.615 Y30.670 E10.67113
G1 X43.083 Y31.026 E10.69122
G1 X43.748 Y31.272 E10.71547
G1 X44.456 Y31.313 E10.73973
G1 X45.145 Y31.146 E10.76398
G1 X45.755 Y30.785 E10.78824
G1 X46.233 Y30.262 E10.81249
G1 X46.538 Y29.621 E10.83674
G1 X46.643 Y28.920 E10.86100
G1 X46.538 Y28.219 E10.88525
G1 X46.233 Y27.578 E10.90950
G1 X45.755 Y27.055 E10.93376
G1 X45.145 Y26.694 E10.95801
G1 X44.456 Y26.527 E10.98227
G1 X43.748 Y26.568 E11.00652
G1 X43.083 Y26.814 E11.03077
G1 X42.615 Y27.170 E11.05087
G1 X42.390 Y27.170 E11.05858
G1 X42.390 Y21.670 E11.24671
G1 X47.140 Y21.670 E11.40918
G1 X47.140 Y25.895 E11.55370
G1 X47.140 Y26.470 F2220.000
G1 X46.809 Y27.191 F2220.000
G1 X47.122 Y27.657 E11.57289 F600.000
G1 X47.193 Y27.971 E11.58392
G1 X47.193 Y29.869 F2220.000
G1 X47.122 Y30.183 E11.59495 F600.000
G1 X46.809 Y30.649 E11.61413
G1 X43.809 Y32.458 F2220.000
G1 X43.576 Y32.690 E11.62702 F821.272
G1 X43.576 Y33.430 E11.65598
G1 X44.508 Y32.498 E11.70757
G1 X45.420 Y32.326 E11.74393
G1 X43.576 Y34.170 E11.84604
G1 X43.576 Y34.910 E11.87500
G1 X45.954 Y32.531 E12.00668
G1 X45.954 Y33.271 E12.03563
G1 X44.241 Y34.984 E12.13049
G1 X44.981 Y34.984 E12.15945
G1 X45.954 Y34.011 E12.21335
G1 X45.954 Y34.750 E12.24231
G1 X45.720 Y34.984 E12.25526
G1 F1776
G1 X45.954 Y34.750 E10.66265
G1 F1776
G1 X45.954 Y34.011 E7.10130
G1 F1776
G1 X45.595 Y34.370 E4.65526
G1 E4.25526 F9000.00000
G92 E0
G1 X45.726 Y25.702 F2220.000
G1 E8.00000 F9000.00000
G1 X45.954 Y25.473 E8.01163 F821.272
G1 X45.954 Y24.793 E8.03613
G1 X45.232 Y25.516 E8.07293
G1 X44.684 Y25.383 E8.09321
G1 X45.954 Y24.113 E8.15788
G1 X45.954 Y23.432 E8.18237
G1 X44.028 Y25.358 E8.28043
G1 X43.576 Y25.131 E8.29867
G1 X45.851 Y22.856 E8.41449
G1 X45.170 Y22.856 E8.43899
G1 X43.576 Y24.450 E8.52017
G1 X43.576 Y23.770 E8.54466
G1 X44.490 Y22.856 E8.59121
G1 X43.810 Y22.856 E8.61570
G1 X43.576 Y23.090 E8.62761
G1 F1776
G1 X43.810 Y22.856 E7.03504
G1 F1776
G1 X44.490 Y22.856 E3.75980
G1 F1776
G1 X44.089 Y23.257 E1.02761
G1 E0.62761 F9000.00000
G92 E0
G1 Z0.600 F2220.000
G1 X53.054 Y31.569 F2220.000
G1 E8.00000 F9000.00000
G1 X53.787 Y32.002 E8.02913 F600.000
