; generated by Slic3r 1.2.9 on 2016-07-06 at 10:53:46

; external perimeters extrusion width = 0.50mm
; perimeters extrusion width = 0.50mm
; infill extrusion width = 0.60mm
; solid infill extrusion width = 0.50mm
; top infill extrusion width = 0.50mm

M107
M104 S200 ; set temperature
G28 ; home all axes

M109 S200 ; wait for temperature to be reached
G21 ; set units to millimeters
G90 ; use absolute coordinates
M82 ; use absolute distances for extrusion
G92 E0
G1 E-8.00000 F9000.00000
G92 E0
G1 Z0.200 F2220.000
G1 X20.469 Y37.586 F2220.000
G1 E8.00000 F9000.00000
G1 X21.970 Y37.339 E8.06341 F864.000
G1 X36.970 Y37.339 E8.68875
G1 X38.852 Y37.734 E8.76891
G1 X40.414 Y38.855 E8.84906 F864.000
G1 X41.394 Y40.509 E8.92922
G1 X41.641 Y42.010 E8.99263
G1 X41.641 Y57.010 E9.61797
G1 X41.246 Y58.892 E9.69813
G1 X40.125 Y60.454 E9.77828
G1 X38.471 Y61.434 E9.85844
G1 X36.970 Y61.681 E9.92185
G1 X21.970 Y61.681 E10.54719
G1 X20.088 Y61.286 E10.62735
G1 X18.526 Y60.165 E10.70751
G1 X17.546 Y58.511 E10.78766
G1 X17.299 Y57.010 E10.85107
G1 X17.299 Y42.010 E11.47641
G1 X17.694 Y40.128 E11.55657
G1 X18.815 Y38.566 E11.63673
G1 X20.405 Y37.625 E11.71376
G1 X20.744 Y38.133 F2220.000
G1 X20.971 Y38.019 E11.72435 F864.000
G1 X21.970 Y37.896 E11.76630
G1 X36.970 Y37.896 E12.39164
G1 X38.729 Y38.291 E12.46681
G1 X40.151 Y39.400 E12.54198 F864.000
G1 X40.961 Y41.011 E12.61715
G1 X41.084 Y42.010 E12.65910
G1 X41.084 Y57.010 E13.28444
G1 X40.689 Y58.769 E13.35961
G1 X39.580 Y60.191 E13.43479
G1 X37.969 Y61.001 E13.50996
G1 X36.970 Y61.124 E13.55191
G1 X21.970 Y61.124 E14.17725
G1 X20.211 Y60.729 E14.25242
G1 X18.789 Y59.620 E14.32759
G1 X17.979 Y58.009 E14.40276
G1 X17.856 Y57.010 E14.44471
G1 X17.856 Y42.010 E15.07005
G1 X18.251 Y40.251 E15.14522
G1 X19.360 Y38.829 E15.22040
G1 X20.677 Y38.167 E15.28185
G1 X20.951 Y38.779 F2220.000
G1 X21.970 Y38.453 E15.32644 F864.000
G1 X36.970 Y38.453 E15.95178
G1 X38.598 Y38.847 E16.02161
G1 X39.865 Y39.943 E16.09144 F864.000
G1 X40.527 Y42.010 E16.18193
G1 X40.527 Y57.010 E16.80727
G1 X40.133 Y58.638 E16.87710
G1 X39.037 Y59.905 E16.94693
G1 X36.970 Y60.567 E17.03741
G1 X21.970 Y60.567 E17.66275
G1 X20.342 Y60.173 E17.73258
G1 X19.075 Y59.077 E17.80241
G1 X18.413 Y57.010 E17.89290
G1 X18.413 Y42.010 E18.51824
G1 X18.807 Y40.382 E18.58807
G1 X19.903 Y39.115 E18.65790
G1 X20.880 Y38.802 E18.70067
G1 F1776
G1 X21.970 Y38.453 E13.19026
G1 F1776
G1 X22.404 Y38.453 E11.10067
G1 E10.70067 F9000.00000
G92 E0
G1 X35.556 Y55.596 F2220.000
G1 E8.00000 F9000.00000
G1 X33.134 Y55.596 E8.10096 F691.200
G1 X33.134 Y52.597 E8.22598
G1 X33.522 Y52.826 E8.24477
G1 X34.549 Y53.075 E8.28881
G1 X35.556 Y53.017 E8.33087
G1 X35.556 Y55.521 E8.43527
G1 X32.577 Y51.853 F2220.000
G1 X31.827 Y51.853 E8.46653 F691.200
G1 X31.827 Y50.665 E8.51604
G1 X32.088 Y50.607 E8.52718
G1 X32.367 Y51.194 E8.55430
G1 X32.968 Y51.851 E8.59142
G1 X33.734 Y52.305 E8.62853
G1 X34.599 Y52.514 E8.66564
G1 X35.488 Y52.463 E8.70275
G1 X36.113 Y52.231 E8.73053
G1 X36.113 Y56.153 E8.89402
G1 X32.577 Y56.153 E9.04143
G1 X32.577 Y51.928 E9.21756
G1 F1776
G1 X31.827 Y51.853 E5.58891
G1 F1776
G1 X31.827 Y51.028 E1.61756
G1 E1.21756 F9000.00000
G92 E0
G1 X33.134 Y46.423 F2220.000
G1 E8.00000 F9000.00000
G1 X33.134 Y43.424 E8.12502 F691.200
G1 X35.556 Y43.424 E8.22598
G1 X35.556 Y46.003 E8.33351
G1 X34.549 Y45.945 E8.37557
G1 X33.522 Y46.194 E8.41961
G1 X33.199 Y46.385 E8.43527
G1 X32.577 Y47.167 F2220.000
G1 X32.577 Y42.867 E8.61453 F691.200
G1 X36.113 Y42.867 E8.76194
G1 X36.113 Y46.789 E8.92542
G1 X35.488 Y46.557 E8.95321
G1 X34.599 Y46.506 E8.99032
G1 X33.734 Y46.715 E9.02743
G1 X32.968 Y47.169 E9.06454
G1 X32.367 Y47.826 E9.10165
G1 X32.088 Y48.413 E9.12878
G1 X31.827 Y48.355 E9.13992
G1 X31.827 Y47.167 E9.18942
G1 X32.502 Y47.167 E9.21756
G1 X32.020 Y46.610 F2220.000
G1 X32.020 Y42.310 E9.39683 F691.200
G1 X36.670 Y42.310 E9.59068
G1 X36.670 Y47.831 E9.82083
G1 X36.051 Y47.360 E9.85324
G1 X35.373 Y47.109 E9.88342
G1 X34.650 Y47.067 E9.91360
G1 X33.946 Y47.237 E9.94378
G1 X33.323 Y47.606 E9.97397
G1 X32.835 Y48.140 E10.00415
G1 X32.524 Y48.794 E10.03433
G1 X32.417 Y49.510 E10.06451
G1 X32.524 Y50.226 E10.09469
G1 X32.835 Y50.880 E10.12487
G1 X33.323 Y51.414 E10.15506
G1 X33.946 Y51.783 E10.18524
G1 X34.650 Y51.953 E10.21542
G1 X35.373 Y51.911 E10.24560
G1 X36.051 Y51.660 E10.27578
G1 X36.670 Y51.189 E10.30819
G1 X36.670 Y56.710 E10.53834
G1 X32.020 Y56.710 E10.73219
G1 X32.020 Y52.410 E10.91146
G1 X31.270 Y52.410 E10.94273
G1 X31.270 Y46.610 E11.18452
G1 X31.945 Y46.610 E11.21266
G1 X32.520 Y46.610 F2220.000
G1 X33.469 Y45.548 F2220.000
G1 X33.742 Y45.820 E11.22932 F1080.000
G1 X34.399 Y45.661 E11.25848
G1 X33.469 Y44.732 E11.31521
G1 X33.469 Y43.916 E11.35041
G1 X35.187 Y45.633 E11.45524
G1 X35.221 Y44.852 E11.48902
G1 X34.128 Y43.759 E11.55568
G1 X34.944 Y43.759 E11.59088
G1 X35.221 Y44.036 E11.60775
G1 X31.903 Y48.657 F2220.000
G1 X31.843 Y49.466 E11.67801 F720.000
G1 X31.903 Y50.363 E11.75579
G1 X35.221 Y53.657 F2220.000
G1 X34.945 Y53.381 E11.77692 F1080.000
G1 X33.811 Y53.274 E11.83878
G1 X35.221 Y54.683 E11.94700
G1 X34.772 Y55.261 E11.98671
G1 X33.469 Y53.958 E12.08674
G1 X33.469 Y54.984 E12.14246
G1 X33.746 Y55.261 E12.16368
G1 F1776
G1 X33.469 Y54.984 E10.28224
G1 F1776
G1 X33.469 Y53.958 E5.34211
G1 F1776
G1 X33.584 Y54.072 E4.56368
G1 E4.16368 F9000.00000
G92 E0
G1 X25.806 Y52.597 F2220.000
G1 E8.00000 F9000.00000
G1 X25.806 Y55.596 E8.12502 F691.200
G1 X23.384 Y55.596 E8.22598
G1 X23.384 Y53.017 E8.33351
G1 X24.391 Y53.075 E8.37557
G1 X25.418 Y52.826 E8.41961
G1 X25.741 Y52.635 E8.43527
G1 X26.363 Y51.853 F2220.000
G1 X26.363 Y56.153 E8.61453 F691.200
G1 X22.827 Y56.153 E8.76194
G1 X22.827 Y52.231 E8.92542
G1 X23.452 Y52.463 E8.95321
G1 X24.341 Y52.514 E8.99032
G1 X25.206 Y52.305 E9.02743
G1 X25.972 Y51.851 E9.06454
G1 X26.573 Y51.194 E9.10165
G1 X26.852 Y50.607 E9.12878
G1 X27.113 Y50.665 E9.13992
G1 X27.113 Y51.853 E9.18942
G1 X26.438 Y51.853 E9.21757
G1 F1776
G1 X26.410 Y53.431 E1.61757
G1 E1.21757 F9000.00000
G92 E0
G1 X25.806 Y46.423 F2220.000
G1 E8.00000 F9000.00000
G1 X25.418 Y46.194 E8.01879 F691.200
G1 X24.391 Y45.945 E8.06283
G1 X23.384 Y46.003 E8.10489
G1 X23.384 Y43.424 E8.21241
G1 X25.806 Y43.424 E8.31337
G1 X25.806 Y46.348 E8.43527
G1 X26.363 Y47.167 F2220.000
G1 X27.113 Y47.167 E8.46653 F691.200
G1 X27.113 Y48.355 E8.51604
G1 X26.852 Y48.413 E8.52717
G1 X26.573 Y47.826 E8.55430
G1 X25.972 Y47.169 E8.59142
G1 X25.206 Y46.715 E8.62853
G1 X24.341 Y46.506 E8.66564
G1 X23.452 Y46.557 E8.70275
G1 X22.827 Y46.789 E8.73053
G1 X22.827 Y42.867 E8.89402
G1 X26.363 Y42.867 E9.04143
G1 X26.363 Y47.092 E9.21756
G1 X26.920 Y46.610 F2220.000
G1 X27.670 Y46.610 E9.24883 F691.200
G1 X27.670 Y52.410 E9.49063
G1 X26.920 Y52.410 E9.52190
G1 X26.920 Y56.710 E9.70116
G1 X22.270 Y56.710 E9.89501
G1 X22.270 Y51.189 E10.12517
G1 X22.889 Y51.660 E10.15757
G1 X23.567 Y51.911 E10.18775
G1 X24.290 Y51.953 E10.21793
G1 X24.994 Y51.783 E10.24811
G1 X25.617 Y51.414 E10.27830
G1 X26.105 Y50.880 E10.30848
G1 X26.416 Y50.226 E10.33866
G1 X26.523 Y49.510 E10.36884
G1 X26.416 Y48.794 E10.39902
G1 X26.105 Y48.140 E10.42921
G1 X25.617 Y47.606 E10.45939
G1 X24.994 Y47.237 E10.48957
G1 X24.290 Y47.067 E10.51975
G1 X23.567 Y47.109 E10.54993
G1 X22.889 Y47.360 E10.58012
G1 X22.270 Y47.831 E10.61252
G1 X22.270 Y42.310 E10.84267
G1 X26.920 Y42.310 E11.03653
G1 X26.920 Y46.535 E11.21266
G1 X26.920 Y47.110 F2220.000
G1 X27.037 Y48.657 F2220.000
G1 X27.097 Y49.554 E11.29044 F720.000
G1 X27.037 Y50.363 E11.36070
G1 X25.471 Y53.472 F2220.000
G1 X25.198 Y53.200 E11.37735 F1080.000
G1 X24.541 Y53.359 E11.40651
G1 X25.471 Y54.288 E11.46324
G1 X25.471 Y55.104 E11.49845
G1 X23.753 Y53.387 E11.60327
G1 X23.719 Y54.168 E11.63705
G1 X24.812 Y55.261 E11.70371
G1 X23.996 Y55.261 E11.73892
G1 X23.719 Y54.984 E11.75579
G1 F1776
G1 X23.996 Y55.261 E9.87436
G1 F1776
G1 X24.812 Y55.261 E5.94752
G1 F1776
G1 X24.548 Y54.997 E4.15578
G1 E3.75579 F9000.00000
G92 E0
G1 X23.995 Y45.639 F2220.000
G1 E8.00000 F9000.00000
G1 X23.719 Y45.363 E8.02114 F1080.000
G1 X23.719 Y44.337 E8.07686
G1 X25.129 Y45.746 E8.18508
G1 X25.471 Y45.062 E8.22662
G1 X24.168 Y43.759 E8.32664
G1 X25.194 Y43.759 E8.38237
G1 X25.471 Y44.036 E8.40359
M106 S255
M104 S195 ; set temperature
G1 F1776
G1 X25.194 Y43.759 E6.52212
G1 F1776
G1 X24.168 Y43.759 E1.58200
G1 F1776
G1 X24.282 Y43.874 E0.80359
G1 E0.40359 F9000.00000
G92 E0
G1 Z0.400 F2220.000
G1 X32.884 Y52.159 F2220.000
G1 E8.00000 F9000.00000
G1 X33.617 Y52.592 E8.02913 F600.000
G1 X34.571 Y52.824 E8.06272
G1 X35.551 Y52.766 E8.09630
G1 X35.806 Y52.672 E8.10558
G1 X35.806 Y55.846 E8.21413
G1 X32.884 Y55.846 E8.31407
G1 X32.884 Y52.234 E8.43763
G1 F1776
G1 X33.617 Y52.592 E4.50901
G1 F1776
G1 X34.358 Y52.772 E0.83763
G1 E0.43763 F9000.00000
G92 E0
G1 X32.884 Y46.861 F2220.000
G1 E8.00000 F9000.00000
G1 X32.884 Y43.174 E8.12613 F600.000
G1 X35.806 Y43.174 E8.22606
G1 X35.806 Y46.348 E8.33461
G1 X35.551 Y46.253 E8.34389
G1 X34.571 Y46.196 E8.37748
G1 X33.617 Y46.428 E8.41106
G1 X32.949 Y46.823 E8.43763
G1 X32.427 Y47.017 F2220.000
G1 X32.427 Y42.717 E8.58471 F657.018
G1 X36.263 Y42.717 E8.71592
G1 X36.263 Y47.004 E8.86256
G1 X35.457 Y46.706 E8.89196
G1 X34.613 Y46.657 E8.92088
G1 X33.791 Y46.856 E8.94980
G1 X33.064 Y47.286 E8.97871
G1 X32.493 Y47.910 E9.00763
G1 X32.130 Y48.674 E9.03655
G1 X32.005 Y49.510 E9.06547
G1 X32.130 Y50.346 E9.09439
G1 X32.493 Y51.110 E9.12331
G1 X33.064 Y51.734 E9.15223
G1 X33.791 Y52.164 E9.18114
G1 X34.613 Y52.363 E9.21006
G1 X35.457 Y52.314 E9.23898
G1 X36.263 Y52.016 E9.26838
G1 X36.263 Y56.303 E9.41502
G1 X32.427 Y56.303 E9.54623
G1 X32.427 Y52.003 E9.69331
G1 X31.677 Y52.003 E9.71897
G1 X31.677 Y47.017 E9.88951
G1 X32.352 Y47.017 E9.91260
G1 X31.970 Y46.560 F2220.000
G1 X31.970 Y42.260 E10.05969 F600.000
G1 X36.720 Y42.260 E10.22216
G1 X36.720 Y47.760 E10.41029
G1 X36.495 Y47.760 E10.41800
G1 X36.027 Y47.404 E10.43810
G1 X35.362 Y47.158 E10.46235
G1 X34.654 Y47.117 E10.48661
G1 X33.965 Y47.284 E10.51086
G1 X33.355 Y47.645 E10.53511
G1 X32.877 Y48.168 E10.55937
G1 X32.572 Y48.809 E10.58362
G1 X32.467 Y49.510 E10.60787
G1 X32.572 Y50.211 E10.63213
G1 X32.877 Y50.852 E10.65638
G1 X33.355 Y51.375 E10.68064
G1 X33.965 Y51.736 E10.70489
G1 X34.654 Y51.903 E10.72914
G1 X35.362 Y51.862 E10.75340
G1 X36.027 Y51.616 E10.77765
G1 X36.495 Y51.260 E10.79774
G1 X36.720 Y51.260 E10.80545
G1 X36.720 Y56.760 E10.99359
G1 X31.970 Y56.760 E11.15606
G1 X31.970 Y52.460 E11.30315
G1 X31.220 Y52.460 E11.32880
G1 X31.220 Y46.560 E11.53061
G1 X31.895 Y46.560 E11.55370
G1 X32.470 Y46.560 F2220.000
G1 X32.301 Y47.781 F2220.000
G1 X31.988 Y48.247 E11.57289 F600.000
G1 X31.917 Y48.561 E11.58392
G1 X31.917 Y50.459 F2220.000
G1 X31.988 Y50.773 E11.59495 F600.000
G1 X32.301 Y51.239 E11.61413
G1 X33.156 Y52.957 F2220.000
G1 X33.384 Y52.728 E11.62577 F821.272
G1 X33.878 Y52.914 E11.64478
G1 X33.156 Y53.637 E11.68158
G1 X33.156 Y54.317 E11.70607
G1 X34.426 Y53.047 E11.77075
G1 X35.082 Y53.072 E11.79437
G1 X33.156 Y54.998 E11.89243
G1 X33.259 Y55.574 E11.91352
G1 X35.534 Y53.299 E12.02934
G1 X35.534 Y53.980 E12.05383
G1 X33.940 Y55.574 E12.13502
G1 X34.620 Y55.574 E12.15951
G1 X35.534 Y54.660 E12.20606
G1 X35.534 Y55.340 E12.23055
G1 X35.300 Y55.574 E12.24246
G1 F1776
G1 X35.534 Y55.340 E10.64984
G1 F1776
G1 X35.534 Y54.660 E7.37461
G1 F1776
G1 X35.133 Y55.061 E4.64246
G1 E4.24246 F9000.00000
G92 E0
G1 X35.301 Y45.972 F2220.000
G1 E8.00000 F9000.00000
G1 X35.534 Y45.740 E8.01289 F821.272
G1 X35.534 Y45.000 E8.04185
G1 X34.602 Y45.932 E8.09344
G1 X33.690 Y46.104 E8.12980
G1 X35.534 Y44.260 E8.23190
G1 X35.534 Y43.520 E8.26086
G1 X33.156 Y45.899 E8.39254
G1 X33.156 Y45.159 E8.42150
G1 X34.869 Y43.446 E8.51636
G1 X34.129 Y43.446 E8.54531
G1 X33.156 Y44.419 E8.59922
G1 X33.156 Y43.680 E8.62818
G1 X33.390 Y43.446 E8.64113
G1 F1776
G1 X33.156 Y43.680 E7.04856
G1 F1776
G1 X33.156 Y44.419 E3.48721
G1 F1776
G1 X33.515 Y44.060 E1.04113
G1 E0.64113 F9000.00000
G92 E0
G1 X26.056 Y52.159 F2220.000
G1 E8.00000 F9000.00000
G1 X26.056 Y55.846 E8.12613 F600.000
G1 X23.134 Y55.846 E8.22606
G1 X23.134 Y52.672 E8.33462
G1 X23.389 Y52.767 E8.34389
G1 X24.369 Y52.824 E8.37748
G1 X25.323 Y52.592 E8.41106
G1 X25.991 Y52.197 E8.43763
G1 F1776
G1 X26.019 Y53.775 E0.83763
G1 E0.43763 F9000.00000
G92 E0
G1 X26.056 Y46.861 F2220.000
G1 E8.00000 F9000.00000
G1 X25.323 Y46.428 E8.02913 F600.000
G1 X24.369 Y46.196 E8.06272
G1 X23.389 Y46.253 E8.09630
G1 X23.134 Y46.348 E8.10558
G1 X23.134 Y43.174 E8.21413
G1 X26.056 Y43.174 E8.31406
G1 X26.056 Y46.786 E8.43763
G1 X26.513 Y47.017 F2220.000
G1 X27.263 Y47.017 E8.46328 F657.018
G1 X27.263 Y52.003 E8.63382
G1 X26.513 Y52.003 E8.65948
G1 X26.513 Y56.303 E8.80656
G1 X22.677 Y56.303 E8.93777
G1 X22.677 Y52.016 E9.08441
G1 X23.483 Y52.314 E9.11381
G1 X24.327 Y52.363 E9.14273
G1 X25.149 Y52.164 E9.17165
G1 X25.876 Y51.734 E9.20057
G1 X26.447 Y51.110 E9.22949
G1 X26.810 Y50.346 E9.25840
G1 X26.935 Y49.510 E9.28732
G1 X26.810 Y48.674 E9.31624
G1 X26.447 Y47.910 E9.34516
G1 X25.876 Y47.286 E9.37408
G1 X25.149 Y46.856 E9.40300
G1 X24.327 Y46.657 E9.43192
G1 X23.483 Y46.706 E9.46083
G1 X22.677 Y47.004 E9.49023
G1 X22.677 Y42.717 E9.63687
G1 X26.513 Y42.717 E9.76808
G1 X26.513 Y46.942 E9.91260
G1 X26.970 Y46.560 F2220.000
G1 X27.720 Y46.560 E9.93826 F600.000
G1 X27.720 Y52.460 E10.14007
G1 X26.970 Y52.460 E10.16572
G1 X26.970 Y56.760 E10.31281
G1 X22.220 Y56.760 E10.47529
G1 X22.220 Y51.260 E10.66342
G1 X22.445 Y51.260 E10.67113
G1 X22.913 Y51.616 E10.69122
G1 X23.578 Y51.862 E10.71547
G1 X24.286 Y51.903 E10.73973
G1 X24.975 Y51.736 E10.76398
G1 X25.585 Y51.375 E10.78824
G1 X26.063 Y50.852 E10.81249
G1 X26.368 Y50.211 E10.83674
G1 X26.473 Y49.510 E10.86100
G1 X26.368 Y48.809 E10.88525
G1 X26.063 Y48.168 E10.90950
G1 X25.585 Y47.645 E10.93376
G1 X24.975 Y47.284 E10.95801
G1 X24.286 Y47.117 E10.98226
G1 X23.578 Y47.158 E11.00652
G1 X22.913 Y47.404 E11.03077
G1 X22.445 Y47.760 E11.05087
G1 X22.220 Y47.760 E11.05858
G1 X22.220 Y42.260 E11.24671
G1 X26.970 Y42.260 E11.40918
G1 X26.970 Y46.485 E11.55370
G1 X26.970 Y47.060 F2220.000
G1 X26.639 Y47.781 F2220.000
G1 X26.952 Y48.247 E11.57289 F600.000
G1 X27.023 Y48.561 E11.58392
G1 X27.023 Y50.459 F2220.000
G1 X26.952 Y50.773 E11.59495 F600.000
G1 X26.639 Y51.239 E11.61413
G1 X23.639 Y53.048 F2220.000
G1 X23.406 Y53.280 E11.62702 F821.272
G1 X23.406 Y54.020 E11.65598
G1 X24.338 Y53.088 E11.70757
G1 X25.250 Y52.916 E11.74393
G1 X23.406 Y54.760 E11.84604
G1 X23.406 Y55.500 E11.87500
G1 X25.784 Y53.121 E12.00668
G1 X25.784 Y53.861 E12.03563
G1 X24.071 Y55.574 E12.13049
G1 X24.811 Y55.574 E12.15945
G1 X25.784 Y54.601 E12.21335
G1 X25.784 Y55.340 E12.24231
G1 X25.550 Y55.574 E12.25526
G1 F1776
G1 X25.784 Y55.340 E10.66265
G1 F1776
G1 X25.784 Y54.601 E7.10130
G1 F1776
G1 X25.425 Y54.960 E4.65526
G1 E4.25526 F9000.00000
G92 E0
G1 X25.556 Y46.292 F2220.000
G1 E8.00000 F9000.00000
G1 X25.784 Y46.063 E8.01163 F821.272
G1 X25.784 Y45.383 E8.03613
G1 X25.062 Y46.106 E8.07293
G1 X24.514 Y45.973 E8.09321
G1 X25.784 Y44.703 E8.15788
G1 X25.784 Y44.022 E8.18237
G1 X23.858 Y45.948 E8.28043
G1 X23.406 Y45.721 E8.29867
G1 X25.681 Y43.446 E8.41449
G1 X25.000 Y43.446 E8.43899
G1 X23.406 Y45.040 E8.52017
G1 X23.406 Y44.360 E8.54466
G1 X24.320 Y43.446 E8.59121
G1 X23.640 Y43.446 E8.61570
G1 X23.406 Y43.680 E8.62761
G1 F1776
G1 X23.640 Y43.446 E7.03504
G1 F1776
G1 X24.320 Y43.446 E3.75980
G1 F1776
G1 X23.919 Y43.847 E1.02761
G1 E0.62761 F9000.00000
G92 E0
