; generated by Slic3r 1.2.9 on 2016-07-18 at 13:06:33

; external perimeters extrusion width = 0.50mm
; perimeters extrusion width = 0.50mm
; infill extrusion width = 0.60mm
; solid infill extrusion width = 0.50mm
; top infill extrusion width = 0.50mm

M107
M104 S200 ; set temperature
G28 ; home all axes

M109 S200 ; wait for temperature to be reached
G21 ; set units to millimeters
G90 ; use absolute coordinates
M82 ; use absolute distances for extrusion
G92 E0
G1 E-8.00000 F9000.00000
G92 E0
G1 Z0.200 F2220.000
G1 X18.859 Y28.651 F2220.000
G1 E8.00000 F9000.00000
G1 X20.147 Y27.880 E8.06260 F864.000
G1 X21.479 Y27.187 E8.12519
G1 X22.850 Y26.575 E8.18779
G1 X24.255 Y26.044 E8.25039
G1 X25.689 Y25.598 E8.31299
G1 X27.417 Y25.180 E8.38712
G1 X28.896 Y24.922 E8.44972
G1 X30.388 Y24.753 E8.51232
G1 X31.888 Y24.672 E8.57491
G1 X83.389 Y24.680 E10.72197
G1 X84.612 Y24.753 E10.77303 F864.000
G1 X86.104 Y24.922 E10.83563
G1 X87.854 Y25.237 E10.90976
G1 X89.044 Y25.525 E10.96082
G1 X90.483 Y25.955 E11.02342
G1 X91.893 Y26.471 E11.08602
G1 X92.772 Y26.849 E11.12589
G1 X93.521 Y27.187 E11.16015
G1 X94.853 Y27.880 E11.22275
G1 X95.907 Y28.503 E11.27381
G1 X97.157 Y29.335 E11.33641
G1 X98.571 Y30.414 E11.41054
G1 X99.703 Y31.401 E11.47314
G1 X100.581 Y32.254 E11.52420
G1 X101.782 Y33.566 E11.59833
G1 X102.721 Y34.737 E11.66093
G1 X103.435 Y35.732 E11.71199
G1 X104.244 Y36.997 E11.77459
G1 X104.976 Y38.308 E11.83719
G1 X105.741 Y39.914 E11.91132
G1 X106.201 Y41.049 E11.96238
G1 X106.690 Y42.468 E12.02498
G1 X107.158 Y44.184 E12.09911
G1 X107.460 Y45.655 E12.16171
G1 X107.641 Y46.866 E12.21277
G1 X107.782 Y48.361 E12.27537
G1 X107.835 Y49.862 E12.33796
G1 X107.782 Y51.639 E12.41210
G1 X107.673 Y52.859 E12.46316
G1 X107.460 Y54.345 E12.52575
G1 X107.158 Y55.816 E12.58835
G1 X106.771 Y57.267 E12.65095
G1 X106.201 Y58.951 E12.72508
G1 X105.741 Y60.086 E12.77615
G1 X105.102 Y61.445 E12.83874
G1 X104.385 Y62.764 E12.90134
G1 X103.590 Y64.038 E12.96394
G1 X102.553 Y65.483 E13.03807
G1 X101.782 Y66.434 E13.08913
G1 X100.774 Y67.548 E13.15173
G1 X99.498 Y68.786 E13.22586
G1 X98.356 Y69.760 E13.28846
G1 X97.382 Y70.503 E13.33952
G1 X95.907 Y71.497 E13.41365
G1 X94.853 Y72.120 E13.46471
G1 X93.521 Y72.813 E13.52731
G1 X92.150 Y73.425 E13.58991
G1 X91.256 Y73.766 E13.62978
G1 X90.483 Y74.045 E13.66404
G1 X89.044 Y74.475 E13.72664
G1 X87.583 Y74.820 E13.78924
G1 X86.377 Y75.037 E13.84030
G1 X84.612 Y75.247 E13.91443
G1 X83.112 Y75.328 E13.97703
G1 X31.888 Y75.328 E16.11255
G1 X30.388 Y75.247 E16.17515
G1 X28.896 Y75.078 E16.23774
G1 X27.417 Y74.820 E16.30034
G1 X25.956 Y74.475 E16.36294
G1 X24.255 Y73.956 E16.43707
G1 X22.850 Y73.425 E16.49967
G1 X21.479 Y72.813 E16.56227
G1 X20.390 Y72.253 E16.61333
G1 X19.093 Y71.497 E16.67593
G1 X17.843 Y70.665 E16.73852
G1 X16.644 Y69.760 E16.80112
G1 X15.502 Y68.786 E16.86372
G1 X14.419 Y67.746 E16.92632
G1 X13.399 Y66.644 E16.98891
G1 X12.447 Y65.483 E17.05151
G1 X11.410 Y64.038 E17.12564
G1 X10.615 Y62.764 E17.18824
G1 X9.898 Y61.445 E17.25084
G1 X9.259 Y60.086 E17.31344
G1 X8.702 Y58.692 E17.37604
G1 X8.229 Y57.267 E17.43863
G1 X7.842 Y55.816 E17.50123
G1 X7.540 Y54.345 E17.56383
G1 X7.327 Y52.859 E17.62643
G1 X7.202 Y51.363 E17.68902
G1 X7.165 Y49.862 E17.75162
G1 X7.218 Y48.361 E17.81422
G1 X7.359 Y46.866 E17.87682
G1 X7.589 Y45.382 E17.93941
G1 X7.907 Y43.915 E18.00201
G1 X8.310 Y42.468 E18.06461
G1 X8.799 Y41.049 E18.12721
G1 X9.371 Y39.660 E18.18980
G1 X10.024 Y38.308 E18.25240
G1 X10.756 Y36.997 E18.31500
G1 X11.565 Y35.732 E18.37760
G1 X12.447 Y34.517 E18.44019
G1 X13.399 Y33.356 E18.50279
G1 X14.419 Y32.254 E18.56539
G1 X15.502 Y31.214 E18.62799
G1 X16.644 Y30.240 E18.69059
G1 X17.618 Y29.497 E18.74165
G1 X18.796 Y28.693 E18.80112
G1 X19.170 Y29.113 F2220.000
G1 X20.431 Y28.360 E18.86234 F864.000
G1 X21.734 Y27.683 E18.92356
G1 X23.075 Y27.084 E18.98478
G1 X24.449 Y26.566 E19.04600
G1 X25.851 Y26.130 E19.10722
G1 X27.516 Y25.728 E19.17861
G1 X28.962 Y25.476 E19.23983
G1 X30.421 Y25.309 E19.30105
G1 X31.888 Y25.229 E19.36227
G1 X83.356 Y25.237 E21.50795
G1 X84.579 Y25.309 E21.55901 F864.000
G1 X86.038 Y25.476 E21.62023
G1 X87.723 Y25.779 E21.69162
G1 X88.914 Y26.066 E21.74268
G1 X90.320 Y26.488 E21.80390
G1 X91.699 Y26.993 E21.86512
G1 X92.547 Y27.358 E21.90361
G1 X93.266 Y27.683 E21.93650
G1 X94.569 Y28.360 E21.99773
G1 X95.624 Y28.983 E22.04879
G1 X96.846 Y29.797 E22.11001
G1 X98.207 Y30.836 E22.18139
G1 X99.135 Y31.636 E22.23245
G1 X100.193 Y32.653 E22.29367
G1 X101.349 Y33.917 E22.36505
G1 X102.121 Y34.868 E22.41611
G1 X102.983 Y36.057 E22.47733
G1 X103.773 Y37.295 E22.53856
G1 X104.488 Y38.577 E22.59978
G1 X105.225 Y40.123 E22.67116
G1 X105.685 Y41.258 E22.72222
G1 X106.162 Y42.647 E22.78344
G1 X106.556 Y44.062 E22.84466
G1 X106.866 Y45.497 E22.90588
G1 X107.118 Y47.190 E22.97726
G1 X107.227 Y48.410 E23.02832
G1 X107.278 Y49.878 E23.08955
G1 X107.227 Y51.590 E23.16093
G1 X107.090 Y53.052 E23.22215
G1 X106.909 Y54.263 E23.27321
G1 X106.613 Y55.702 E23.33443
G1 X106.377 Y56.594 E23.37293
G1 X106.162 Y57.353 E23.40581
G1 X105.685 Y58.742 E23.46704
G1 X105.126 Y60.100 E23.52826
G1 X104.600 Y61.206 E23.57932
G1 X103.897 Y62.495 E23.64054
G1 X103.119 Y63.741 E23.70176
G1 X102.121 Y65.132 E23.77314
G1 X101.349 Y66.083 E23.82420
G1 X100.363 Y67.172 E23.88542
G1 X99.135 Y68.364 E23.95681
G1 X98.207 Y69.164 E24.00787
G1 X97.044 Y70.061 E24.06909
G1 X95.624 Y71.017 E24.14047
G1 X94.569 Y71.640 E24.19153
G1 X93.266 Y72.317 E24.25275
G1 X91.699 Y73.007 E24.32413
G1 X90.320 Y73.512 E24.38535
G1 X89.149 Y73.870 E24.43641
G1 X87.484 Y74.272 E24.50780
G1 X86.038 Y74.524 E24.56902
G1 X84.579 Y74.691 E24.63024
G1 X83.112 Y74.771 E24.69146
G1 X31.888 Y74.771 E26.82698
G1 X30.421 Y74.691 E26.88820
G1 X28.962 Y74.524 E26.94942
G1 X27.277 Y74.221 E27.02081
G1 X25.851 Y73.870 E27.08203
G1 X24.449 Y73.434 E27.14325
G1 X23.075 Y72.916 E27.20447
G1 X21.734 Y72.317 E27.26569
G1 X20.644 Y71.758 E27.31675
G1 X19.376 Y71.017 E27.37797
G1 X18.154 Y70.203 E27.43920
G1 X16.982 Y69.317 E27.50042
G1 X15.865 Y68.364 E27.56164
G1 X14.807 Y67.347 E27.62286
G1 X13.810 Y66.268 E27.68408
G1 X12.879 Y65.132 E27.74530
G1 X12.017 Y63.943 E27.80653
G1 X11.103 Y62.495 E27.87791
G1 X10.400 Y61.206 E27.93913
G1 X9.775 Y59.877 E28.00035
G1 X9.230 Y58.513 E28.06157
G1 X8.767 Y57.120 E28.12279
G1 X8.387 Y55.701 E28.18402
G1 X8.091 Y54.263 E28.24524
G1 X7.882 Y52.809 E28.30646
G1 X7.758 Y51.346 E28.36768
G1 X7.722 Y49.878 E28.42890
G1 X7.773 Y48.410 E28.49012
G1 X7.910 Y46.948 E28.55135
G1 X8.134 Y45.497 E28.61257
G1 X8.444 Y44.062 E28.67379
G1 X8.838 Y42.647 E28.73501
G1 X9.315 Y41.258 E28.79623
G1 X9.874 Y39.900 E28.85745
G1 X10.512 Y38.577 E28.91867
G1 X11.227 Y37.295 E28.97990
G1 X12.017 Y36.057 E29.04112
G1 X12.879 Y34.868 E29.10234
G1 X13.810 Y33.732 E29.16356
G1 X14.807 Y32.653 E29.22478
G1 X15.865 Y31.636 E29.28600
G1 X16.982 Y30.683 E29.34723
G1 X17.956 Y29.939 E29.39829
G1 X19.108 Y29.155 E29.45638
G1 X19.481 Y29.575 F2220.000
G1 X20.714 Y28.840 E29.51623 F864.000
G1 X22.179 Y28.088 E29.58486
G1 X23.495 Y27.515 E29.64470
G1 X24.843 Y27.021 E29.70455
G1 X26.217 Y26.608 E29.76439
G1 X27.408 Y26.320 E29.81545
G1 X28.820 Y26.060 E29.87530
G1 X30.244 Y25.884 E29.93514
G1 X31.677 Y25.793 E29.99499
G1 X83.323 Y25.793 E32.14808
G1 X84.546 Y25.865 E32.19914 F864.000
G1 X85.972 Y26.029 E32.25899
G1 X87.592 Y26.320 E32.32762
G1 X88.783 Y26.608 E32.37868
G1 X90.157 Y27.021 E32.43852
G1 X91.505 Y27.515 E32.49837
G1 X92.323 Y27.868 E32.53549
G1 X93.012 Y28.179 E32.56700
G1 X94.286 Y28.840 E32.62685
G1 X95.519 Y29.575 E32.68669
G1 X96.535 Y30.259 E32.73775
G1 X97.843 Y31.258 E32.80638
G1 X98.771 Y32.058 E32.85744
G1 X99.805 Y33.053 E32.91729
G1 X100.917 Y34.268 E32.98592
G1 X101.816 Y35.386 E33.04576
G1 X102.530 Y36.382 E33.09682
G1 X103.302 Y37.592 E33.15667
G1 X104.000 Y38.846 E33.21651
G1 X104.708 Y40.332 E33.28514
G1 X105.242 Y41.665 E33.34499
G1 X105.634 Y42.825 E33.39605
G1 X106.068 Y44.413 E33.46468
G1 X106.358 Y45.819 E33.52452
G1 X106.539 Y47.031 E33.57559
G1 X106.672 Y48.460 E33.63543
G1 X106.721 Y49.895 E33.69528
G1 X106.672 Y51.540 E33.76391
G1 X106.539 Y52.969 E33.82375
G1 X106.321 Y54.388 E33.88360
G1 X106.068 Y55.587 E33.93466
G1 X105.696 Y56.973 E33.99450
G1 X105.169 Y58.533 E34.06313
G1 X104.623 Y59.861 E34.12298
G1 X104.097 Y60.966 E34.17404
G1 X103.409 Y62.226 E34.23389
G1 X102.648 Y63.444 E34.29373
G1 X101.688 Y64.781 E34.36236
G1 X100.917 Y65.732 E34.41342
G1 X99.952 Y66.796 E34.47326
G1 X98.771 Y67.942 E34.54190
G1 X97.680 Y68.875 E34.60174
G1 X96.706 Y69.618 E34.65280
G1 X95.341 Y70.538 E34.72143
G1 X94.286 Y71.160 E34.77249
G1 X93.012 Y71.821 E34.83234
G1 X91.505 Y72.485 E34.90097
G1 X90.357 Y72.912 E34.95203
G1 X88.986 Y73.337 E35.01187
G1 X87.386 Y73.723 E35.08050
G1 X85.972 Y73.971 E35.14035
G1 X84.546 Y74.135 E35.20019
G1 X83.112 Y74.214 E35.26004
G1 X31.888 Y74.214 E37.39556
G1 X30.454 Y74.135 E37.45541
G1 X29.028 Y73.971 E37.51525
G1 X27.614 Y73.723 E37.57510
G1 X26.217 Y73.392 E37.63494
G1 X24.643 Y72.912 E37.70357
G1 X23.299 Y72.406 E37.76342
G1 X21.988 Y71.821 E37.82326
G1 X20.899 Y71.262 E37.87432
G1 X19.659 Y70.538 E37.93417
G1 X18.465 Y69.741 E37.99402
G1 X17.320 Y68.875 E38.05386
G1 X16.229 Y67.942 E38.11371
G1 X15.195 Y66.947 E38.17355
G1 X14.221 Y65.892 E38.23340
G1 X13.312 Y64.781 E38.29324
G1 X12.470 Y63.618 E38.35309
G1 X11.698 Y62.408 E38.41293
G1 X10.903 Y60.966 E38.48156
G1 X10.292 Y59.668 E38.54141
G1 X9.758 Y58.335 E38.60126
G1 X9.304 Y56.973 E38.66110
G1 X8.932 Y55.587 E38.72095
G1 X8.642 Y54.181 E38.78079
G1 X8.436 Y52.760 E38.84064
G1 X8.315 Y51.330 E38.90048
G1 X8.279 Y49.895 E38.96033
G1 X8.328 Y48.460 E39.02017
G1 X8.461 Y47.031 E39.08002
G1 X8.679 Y45.612 E39.13987
G1 X8.981 Y44.208 E39.19971
G1 X9.366 Y42.825 E39.25956
G1 X9.831 Y41.467 E39.31940
G1 X10.377 Y40.139 E39.37925
G1 X11.000 Y38.846 E39.43909
G1 X11.698 Y37.592 E39.49894
G1 X12.470 Y36.382 E39.55879
G1 X13.312 Y35.219 E39.61863
G1 X14.221 Y34.108 E39.67848
G1 X15.195 Y33.053 E39.73832
G1 X16.229 Y32.058 E39.79817
G1 X17.320 Y31.125 E39.85801
G1 X18.294 Y30.382 E39.90907
G1 X19.419 Y29.617 E39.96579
G1 F1776
G1 X20.714 Y28.840 E32.69443
G1 F1776
G1 X20.775 Y28.808 E32.36580
G1 E31.96579 F9000.00000
G92 E0
G1 X63.384 Y52.277 F2220.000
G1 E8.00000 F9000.00000
G1 X63.283 Y51.140 E8.04756 F864.000
G1 X63.249 Y50.000 E8.09513
G1 X63.283 Y48.860 E8.14269
G1 X63.384 Y47.723 E8.19026
G1 X63.553 Y46.595 E8.23782
G1 X63.788 Y45.478 E8.28539
G1 X64.089 Y44.378 E8.33295
G1 X64.454 Y43.297 E8.38052
G1 X64.883 Y42.240 E8.42808
G1 X65.373 Y41.210 E8.47565
G1 X65.924 Y40.210 E8.52321
G1 X66.533 Y39.246 E8.57077
G1 X67.198 Y38.319 E8.61834
G1 X67.917 Y37.433 E8.66590
G1 X68.687 Y36.591 E8.71347
G1 X69.506 Y35.796 E8.76103
G1 X70.370 Y35.051 E8.80860
G1 X71.277 Y34.359 E8.85616
G1 X72.223 Y33.722 E8.90373
G1 X73.206 Y33.141 E8.95129
G1 X74.221 Y32.620 E8.99885
G1 X75.265 Y32.160 E9.04642
G1 X76.335 Y31.763 E9.09398
G1 X77.426 Y31.430 E9.14155
G1 X78.535 Y31.162 E9.18911
G1 X79.658 Y30.960 E9.23668
G1 X80.791 Y30.825 E9.28424
G1 X81.930 Y30.758 E9.33181
G1 X83.070 Y30.758 E9.37937
G1 X84.209 Y30.825 E9.42694
G1 X85.342 Y30.960 E9.47450
G1 X86.465 Y31.162 E9.52206
G1 X87.574 Y31.430 E9.56963
G1 X88.665 Y31.763 E9.61719
G1 X89.735 Y32.160 E9.66476
G1 X90.779 Y32.620 E9.71232
G1 X91.794 Y33.141 E9.75989
G1 X92.777 Y33.722 E9.80745
G1 X93.723 Y34.359 E9.85502
G1 X94.630 Y35.051 E9.90258
G1 X95.494 Y35.796 E9.95015
G1 X96.313 Y36.591 E9.99771
G1 X97.083 Y37.433 E10.04527
G1 X97.802 Y38.319 E10.09284
G1 X98.467 Y39.246 E10.14040
G1 X99.076 Y40.210 E10.18797
G1 X99.627 Y41.210 E10.23553
G1 X100.117 Y42.240 E10.28310
G1 X100.546 Y43.297 E10.33066
G1 X100.911 Y44.378 E10.37823
G1 X101.212 Y45.478 E10.42579
G1 X101.447 Y46.595 E10.47335
G1 X101.616 Y47.723 E10.52092
G1 X101.717 Y48.860 E10.56848
G1 X101.751 Y50.000 E10.61605
G1 X101.717 Y51.140 E10.66361
G1 X101.616 Y52.277 E10.71118
G1 X101.447 Y53.405 E10.75874
G1 X101.212 Y54.522 E10.80631
G1 X100.911 Y55.622 E10.85387
G1 X100.546 Y56.703 E10.90143
G1 X100.117 Y57.760 E10.94900
G1 X99.627 Y58.790 E10.99656
G1 X99.076 Y59.790 E11.04413
G1 X98.467 Y60.754 E11.09169
G1 X97.802 Y61.681 E11.13926
G1 X97.083 Y62.567 E11.18682
G1 X96.313 Y63.409 E11.23439
G1 X95.494 Y64.204 E11.28195
G1 X94.630 Y64.949 E11.32952
G1 X93.723 Y65.641 E11.37708
G1 X92.777 Y66.278 E11.42464
G1 X91.794 Y66.859 E11.47221
G1 X90.779 Y67.380 E11.51977
G1 X89.735 Y67.840 E11.56734 F864.000
G1 X88.665 Y68.237 E11.61490
G1 X87.574 Y68.570 E11.66247
G1 X86.465 Y68.838 E11.71003
G1 X85.342 Y69.040 E11.75760
G1 X84.209 Y69.175 E11.80516
G1 X83.070 Y69.242 E11.85273
G1 X81.930 Y69.242 E11.90029
G1 X80.791 Y69.175 E11.94785
G1 X79.658 Y69.040 E11.99542
G1 X78.535 Y68.838 E12.04298
G1 X77.426 Y68.570 E12.09055
G1 X76.335 Y68.237 E12.13811
G1 X75.265 Y67.840 E12.18568
G1 X74.221 Y67.380 E12.23324
G1 X73.206 Y66.859 E12.28081
G1 X72.223 Y66.278 E12.32837
G1 X71.277 Y65.641 E12.37593
G1 X70.370 Y64.949 E12.42350
G1 X69.506 Y64.204 E12.47106
G1 X68.687 Y63.409 E12.51863
G1 X67.917 Y62.567 E12.56619
G1 X67.198 Y61.681 E12.61376
G1 X66.533 Y60.754 E12.66132
G1 X65.924 Y59.790 E12.70889
G1 X65.373 Y58.790 E12.75645
G1 X64.883 Y57.760 E12.80402
G1 X64.454 Y56.703 E12.85158
G1 X64.089 Y55.622 E12.89914
G1 X63.788 Y54.522 E12.94671
G1 X63.553 Y53.405 E12.99427
G1 X63.395 Y52.351 E13.03871
G1 X62.833 Y52.359 F2220.000
G1 X62.727 Y51.173 E13.08834 F864.000
G1 X62.692 Y50.000 E13.13728
G1 X62.727 Y48.827 E13.18622
G1 X62.831 Y47.657 E13.23516
G1 X63.004 Y46.496 E13.28411
G1 X63.246 Y45.347 E13.33305
G1 X63.555 Y44.215 E13.38199
G1 X63.931 Y43.103 E13.43093
G1 X64.373 Y42.015 E13.47987
G1 X64.878 Y40.955 E13.52881
G1 X65.444 Y39.927 E13.57776
G1 X66.071 Y38.934 E13.62670
G1 X66.755 Y37.980 E13.67564
G1 X67.495 Y37.069 E13.72458
G1 X68.288 Y36.203 E13.77352
G1 X69.130 Y35.385 E13.82246
G1 X70.019 Y34.619 E13.87140
G1 X70.952 Y33.906 E13.92035
G1 X71.926 Y33.250 E13.96929
G1 X72.937 Y32.653 E14.01823
G1 X73.981 Y32.117 E14.06717
G1 X75.056 Y31.644 E14.11611
G1 X76.156 Y31.235 E14.16505
G1 X77.279 Y30.892 E14.21400
G1 X78.420 Y30.617 E14.26294
G1 X79.575 Y30.409 E14.31188
G1 X80.741 Y30.270 E14.36082
G1 X81.913 Y30.201 E14.40976
G1 X83.087 Y30.201 E14.45870
G1 X83.740 Y30.239 E14.48598
G1 X84.259 Y30.270 E14.50764 F864.000
G1 X85.425 Y30.409 E14.55659
G1 X86.580 Y30.617 E14.60553
G1 X87.721 Y30.892 E14.65447
G1 X88.844 Y31.235 E14.70341
G1 X89.944 Y31.644 E14.75235
G1 X91.019 Y32.117 E14.80129
G1 X92.063 Y32.653 E14.85024
G1 X93.074 Y33.250 E14.89918
G1 X94.048 Y33.906 E14.94812
G1 X94.981 Y34.619 E14.99706
G1 X95.870 Y35.385 E15.04600
G1 X96.712 Y36.203 E15.09494
G1 X97.505 Y37.069 E15.14388
G1 X98.245 Y37.980 E15.19283
G1 X98.929 Y38.934 E15.24177
G1 X99.556 Y39.927 E15.29071
G1 X100.122 Y40.955 E15.33965
G1 X100.627 Y42.015 E15.38859
G1 X101.069 Y43.103 E15.43753
G1 X101.445 Y44.215 E15.48648
G1 X101.754 Y45.347 E15.53542
G1 X101.996 Y46.496 E15.58436
G1 X102.169 Y47.657 E15.63330
G1 X102.273 Y48.827 E15.68224
G1 X102.308 Y50.000 E15.73118
G1 X102.273 Y51.173 E15.78012
G1 X102.169 Y52.343 E15.82907
G1 X101.996 Y53.504 E15.87801
G1 X101.754 Y54.653 E15.92695
G1 X101.445 Y55.785 E15.97589
G1 X101.069 Y56.897 E16.02483
G1 X100.627 Y57.985 E16.07377
G1 X100.122 Y59.045 E16.12272
G1 X99.556 Y60.073 E16.17166
G1 X98.929 Y61.066 E16.22060
G1 X98.245 Y62.020 E16.26954
G1 X97.505 Y62.931 E16.31848
G1 X96.712 Y63.797 E16.36742
G1 X95.870 Y64.615 E16.41636
G1 X94.981 Y65.381 E16.46531
G1 X94.048 Y66.094 E16.51425
