; G-Code generated by Simplify3D(R) Version 3.0.2
; Jan 20, 2016 at 6:12:11 
; Settings Summary
;   processName,Process1
;   applyToModels,messe
;   profileName,Fischertechnik
;   profileVersion,2015-10-16 08:07:26
;   baseProfile,German RepRap NEO (modified)
;   printMaterial,PLA
;   printQuality,Medium
;   printExtruders,
;   extruderName,Primary Extruder
;   extruderToolheadNumber,0
;   extruderDiameter,0.5
;   extruderAutoWidth,0
;   extruderWidth,0.5
;   extrusionMultiplier,1
;   extruderUseRetract,1
;   extruderRetractionDistance,6
;   extruderExtraRestartDistance,0
;   extruderRetractionZLift,0
;   extruderRetractionSpeed,7500
;   extruderUseCoasting,0
;   extruderCoastingDistance,0.2
;   extruderUseWipe,0
;   extruderWipeDistance,5
;   primaryExtruder,0
;   layerHeight,0.2
;   topSolidLayers,6
;   bottomSolidLayers,6
;   perimeterOutlines,3
;   printPerimetersInsideOut,1
;   startPointOption,2
;   startPointOriginX,0
;   startPointOriginY,0
;   startPointOriginZ,300
;   sequentialIslands,0
;   spiralVaseMode,0
;   firstLayerHeightPercentage,100
;   firstLayerWidthPercentage,100
;   firstLayerUnderspeed,0.45
;   useRaft,0
;   raftExtruder,0
;   raftLayers,3
;   raftOffset,1.5
;   raftSeparationDistance,0.1
;   raftInfill,85
;   disableRaftBaseLayers,0
;   useSkirt,1
;   skirtExtruder,0
;   skirtLayers,1
;   skirtOutlines,5
;   skirtOffset,2
;   usePrimePillar,0
;   primePillarExtruder,999
;   primePillarWidth,10
;   primePillarLocation,3
;   primePillarSpeedMultiplier,1
;   useOozeShield,0
;   oozeShieldExtruder,999
;   oozeShieldOffset,2
;   oozeShieldOutlines,1
;   oozeShieldSidewallShape,1
;   oozeShieldSidewallAngle,30
;   oozeShieldSpeedMultiplier,1
;   infillExtruder,0
;   internalInfillPattern,Rectilinear
;   externalInfillPattern,Rectilinear
;   infillPercentage,20
;   outlineOverlapPercentage,15
;   infillExtrusionWidthPercentage,140
;   minInfillLength,3
;   infillLayerInterval,1
;   infillAngles,45,-45
;   overlapInfillAngles,0
;   generateSupport,1
;   supportExtruder,0
;   supportInfillPercentage,30
;   supportExtraInflation,1
;   denseSupportLayers,0
;   denseSupportInfillPercentage,70
;   supportLayerInterval,1
;   supportHorizontalPartOffset,0.6
;   supportUpperSeparationLayers,1
;   supportLowerSeparationLayers,1
;   supportType,0
;   supportGridSpacing,4
;   maxOverhangAngle,45
;   supportAngles,45
;   temperatureName,Primary Extruder
;   temperatureNumber,0
;   temperatureSetpointCount,2
;   temperatureSetpointLayers,1,3
;   temperatureSetpointTemperatures,200,195
;   temperatureStabilizeAtStartup,1
;   temperatureHeatedBed,0
;   temperatureRelayBetweenLayers,0
;   temperatureRelayBetweenLoops,0
;   fanLayers,1,3
;   fanSpeeds,0,100
;   blipFanToFullPower,0
;   adjustSpeedForCooling,1
;   minSpeedLayerTime,15
;   minCoolingSpeedSlowdown,20
;   increaseFanForCooling,0
;   minFanLayerTime,45
;   maxCoolingFanSpeed,100
;   increaseFanForBridging,0
;   bridgingFanSpeed,100
;   use5D,1
;   relativeEdistances,0
;   allowEaxisZeroing,1
;   independentExtruderAxes,0
;   includeM10123,0
;   stickySupport,1
;   applyToolheadOffsets,0
;   gcodeXoffset,0
;   gcodeYoffset,0
;   gcodeZoffset,0
;   overrideMachineDefinition,1
;   machineTypeOverride,0
;   strokeXoverride,115
;   strokeYoverride,100
;   strokeZoverride,55
;   originOffsetXoverride,0
;   originOffsetYoverride,0
;   originOffsetZoverride,0
;   homeXdirOverride,-1
;   homeYdirOverride,-1
;   homeZdirOverride,-1
;   flipXoverride,1
;   flipYoverride,-1
;   flipZoverride,1
;   toolheadOffsets,0,0|0,0|0,0|0,0|0,0|0,0
;   overrideFirmwareConfiguration,1
;   firmwareTypeOverride,RepRap (Marlin/Repetier/Sprinter)
;   GPXconfigOverride,r2
;   baudRateOverride,250000
;   overridePrinterModels,1
;   printerModelsOverride
;   startingGcode,G28 ; home all axes
;   layerChangeGcode,
;   retractionGcode,
;   toolChangeGcode,
;   endingGcode,G28 X0 ; home X axis,G28 Y100 ; home Y axis,M104 S0 ; turn off extruder,M106 S0 ; turn off fan,M84 ; disable motors
;   createX3G,0
;   celebration,0
;   celebrationSong,Star Wars
;   createMB5G,0
;   postProcessing,
;   defaultSpeed,2202
;   outlineUnderspeed,0.8
;   solidInfillUnderspeed,0.8
;   supportUnderspeed,0.8
;   rapidXYspeed,2202
;   rapidZspeed,30
;   minBridgingArea,50
;   bridgingExtraInflation,0
;   bridgingExtrusionMultiplier,1.05
;   bridgingSpeedMultiplier,0.8
;   filamentDiameter,1.75
;   filamentPricePerKg,34
;   filamentDensity,1.25
;   useMinPrintHeight,0
;   minPrintHeight,0
;   useMaxPrintHeight,0
;   maxPrintHeight,0
;   useDiaphragm,0
;   diaphragmLayerInterval,20
;   robustSlicing,1
;   mergeAllIntoSolid,0
;   onlyRetractWhenCrossingOutline,0
;   retractBetweenLayers,0
;   useRetractionMinTravel,1
;   retractionMinTravel,3
;   retractWhileWiping,0
;   onlyWipeOutlines,1
;   avoidCrossingOutline,0
;   maxMovementDetourFactor,3
;   toolChangeRetractionDistance,12
;   toolChangeExtraRestartDistance,-0.5
;   toolChangeRetractionSpeed,600
;   allowThinWallGapFill,1
;   thinWallAllowedOverlapPercentage,10
;   horizontalSizeCompensation,0
G90
M82
M106 S0
M104 S200 T0
M109 S200 T0
G28 ; home all axes
G92 E0
G1 E-6.0000 F7500
G1 Z0.200 F30
; layer 1, Z = 0.2
T0
; tool H0.200 W0.500
; skirt
G1 X45.476 Y39.640 F2202
G1 E0.0000 F2250
G92 E0
G1 X45.566 Y39.545 E0.0054 F991
G1 X47.798 Y37.439 E0.1330
G1 X47.899 Y37.355 E0.1385
G1 X48.191 Y37.138 E0.1536
G1 X48.300 Y37.066 E0.1591
G1 X50.958 Y35.531 E0.2866
G1 X51.075 Y35.472 E0.2921
G1 X51.409 Y35.328 E0.3072
G1 X51.532 Y35.283 E0.3127
G1 X54.472 Y34.403 E0.4402
G1 X54.599 Y34.373 E0.4457
G1 X54.958 Y34.310 E0.4608
G1 X55.088 Y34.295 E0.4663
G1 X58.151 Y34.116 E0.5939
G1 X58.282 Y34.116 E0.5993
G1 X58.646 Y34.137 E0.6144
G1 X58.776 Y34.153 E0.6199
G1 X61.798 Y34.686 E0.7475
G1 X61.925 Y34.716 E0.7529
G1 X62.274 Y34.820 E0.7680
G1 X62.397 Y34.865 E0.7735
G1 X65.215 Y36.080 E0.9011
G1 X65.332 Y36.139 E0.9065
G1 X65.647 Y36.321 E0.9216
G1 X65.756 Y36.393 E0.9271
G1 X68.218 Y38.226 E1.0547
G1 X68.318 Y38.310 E1.0601
G1 X68.583 Y38.560 E1.0752
G1 X68.673 Y38.655 E1.0807
G1 X70.645 Y41.006 E1.2083
G1 X70.724 Y41.111 E1.2137
G1 X70.924 Y41.415 E1.2289
G1 X70.989 Y41.528 E1.2343
G1 X72.366 Y44.271 E1.3619
G1 X72.418 Y44.391 E1.3673
G1 X72.543 Y44.733 E1.3825
G1 X72.580 Y44.858 E1.3879
G1 X73.288 Y47.844 E1.5155
G1 X73.311 Y47.973 E1.5209
G1 X73.353 Y48.335 E1.5361
G1 X73.361 Y48.466 E1.5415
G1 X73.361 Y51.534 E1.6691
G1 X73.353 Y51.665 E1.6745
G1 X73.311 Y52.027 E1.6897
G1 X73.288 Y52.156 E1.6951
G1 X72.580 Y55.142 E1.8227
G1 X72.543 Y55.267 E1.8281
G1 X72.418 Y55.609 E1.8433
G1 X72.366 Y55.729 E1.8487
G1 X70.989 Y58.472 E1.9763
G1 X70.924 Y58.585 E1.9818
G1 X70.724 Y58.889 E1.9969
G1 X70.645 Y58.994 E2.0023
G1 X68.673 Y61.345 E2.1299
G1 X68.583 Y61.440 E2.1354
G1 X68.318 Y61.690 E2.1505
G1 X68.218 Y61.774 E2.1559
G1 X65.756 Y63.607 E2.2835
G1 X65.647 Y63.679 E2.2890
G1 X65.332 Y63.861 E2.3041
G1 X65.215 Y63.920 E2.3095
G1 X62.397 Y65.135 E2.4371
G1 X62.274 Y65.180 E2.4426
G1 X61.925 Y65.284 E2.4577
G1 X61.798 Y65.314 E2.4631
G1 X58.776 Y65.847 E2.5907
G1 X58.646 Y65.862 E2.5962
G1 X58.282 Y65.884 E2.6113
G1 X58.151 Y65.884 E2.6167
G1 X55.088 Y65.705 E2.7443
G1 X54.958 Y65.690 E2.7498
G1 X54.599 Y65.627 E2.7649
G1 X54.472 Y65.597 E2.7704
G1 X51.532 Y64.716 E2.8979
G1 X51.409 Y64.672 E2.9034
G1 X51.075 Y64.528 E2.9185
G1 X50.958 Y64.469 E2.9240
G1 X48.300 Y62.934 E3.0515
G1 X48.190 Y62.862 E3.0570
G1 X47.899 Y62.645 E3.0721
G1 X47.798 Y62.561 E3.0776
G1 X45.566 Y60.455 E3.2052
G1 X45.476 Y60.360 E3.2106
G1 X45.242 Y60.081 E3.2257
G1 X45.164 Y59.976 E3.2312
G1 X43.478 Y57.412 E3.3588
G1 X43.412 Y57.298 E3.3642
G1 X43.249 Y56.973 E3.3793
G1 X43.197 Y56.853 E3.3848
G1 X42.147 Y53.969 E3.5124
G1 X42.110 Y53.844 E3.5178
G1 X42.026 Y53.490 E3.5329
G1 X42.003 Y53.361 E3.5384
G1 X41.647 Y50.313 E3.6660
G1 X41.639 Y50.182 E3.6714
G1 X41.639 Y49.818 E3.6865
G1 X41.647 Y49.687 E3.6920
G1 X42.003 Y46.639 E3.8196
G1 X42.026 Y46.510 E3.8250
G1 X42.110 Y46.156 E3.8401
G1 X42.147 Y46.031 E3.8456
G1 X43.197 Y43.147 E3.9732
G1 X43.249 Y43.027 E3.9786
G1 X43.412 Y42.701 E3.9938
G1 X43.478 Y42.588 E3.9992
G1 X45.164 Y40.024 E4.1268
G1 X45.242 Y39.919 E4.1322
G1 X45.476 Y39.640 E4.1474
G1 X45.850 Y39.973 F2202
G92 E0
G1 X45.920 Y39.899 E0.0042 F991
G1 X48.131 Y37.813 E0.1306
G1 X48.209 Y37.747 E0.1348
G1 X48.477 Y37.547 E0.1488
G1 X48.563 Y37.491 E0.1530
G1 X51.195 Y35.971 E0.2794
G1 X51.286 Y35.926 E0.2836
G1 X51.593 Y35.793 E0.2975
G1 X51.689 Y35.758 E0.3018
G1 X54.601 Y34.886 E0.4281
G1 X54.700 Y34.863 E0.4324
G1 X55.030 Y34.805 E0.4463
G1 X55.131 Y34.793 E0.4505
G1 X58.166 Y34.616 E0.5769
G1 X58.268 Y34.616 E0.5812
G1 X58.602 Y34.636 E0.5951
G1 X58.703 Y34.648 E0.5993
G1 X61.697 Y35.175 E0.7257
G1 X61.796 Y35.199 E0.7299
G1 X62.117 Y35.295 E0.7438
G1 X62.212 Y35.330 E0.7481
G1 X65.003 Y36.534 E0.8744
G1 X65.094 Y36.579 E0.8787
G1 X65.384 Y36.747 E0.8926
G1 X65.469 Y36.803 E0.8968
G1 X67.908 Y38.618 E1.0232
G1 X67.986 Y38.684 E1.0274
G1 X68.229 Y38.913 E1.0414
G1 X68.299 Y38.987 E1.0456
G1 X70.253 Y41.316 E1.1720
G1 X70.314 Y41.398 E1.1762
G1 X70.498 Y41.677 E1.1901
G1 X70.549 Y41.766 E1.1944
G1 X71.913 Y44.482 E1.3208
G1 X71.953 Y44.576 E1.3250
G1 X72.068 Y44.890 E1.3389
G1 X72.097 Y44.988 E1.3431
G1 X72.798 Y47.946 E1.4695
G1 X72.816 Y48.046 E1.4738
G1 X72.855 Y48.378 E1.4877
G1 X72.861 Y48.480 E1.4919
G1 X72.861 Y51.520 E1.6183
G1 X72.855 Y51.622 E1.6225
G1 X72.816 Y51.954 E1.6364
G1 X72.798 Y52.054 E1.6407
G1 X72.097 Y55.012 E1.7671
G1 X72.068 Y55.110 E1.7713
G1 X71.953 Y55.424 E1.7852
G1 X71.913 Y55.518 E1.7894
G1 X70.549 Y58.234 E1.9158
G1 X70.498 Y58.323 E1.9201
G1 X70.314 Y58.602 E1.9340
G1 X70.253 Y58.684 E1.9382
G1 X68.299 Y61.013 E2.0646
G1 X68.229 Y61.087 E2.0688
G1 X67.986 Y61.316 E2.0827
G1 X67.908 Y61.382 E2.0870
G1 X65.469 Y63.197 E2.2134
G1 X65.384 Y63.253 E2.2176
G1 X65.094 Y63.420 E2.2315
G1 X65.003 Y63.466 E2.2357
G1 X62.212 Y64.670 E2.3621
G1 X62.117 Y64.705 E2.3664
G1 X61.796 Y64.801 E2.3803
G1 X61.697 Y64.825 E2.3845
G1 X58.703 Y65.352 E2.5109
G1 X58.602 Y65.364 E2.5151
G1 X58.268 Y65.384 E2.5290
G1 X58.166 Y65.384 E2.5333
G1 X55.131 Y65.207 E2.6597
G1 X55.030 Y65.195 E2.6639
G1 X54.700 Y65.137 E2.6778
G1 X54.601 Y65.113 E2.6820
G1 X51.689 Y64.242 E2.8084
G1 X51.594 Y64.207 E2.8127
G1 X51.286 Y64.074 E2.8266
G1 X51.195 Y64.029 E2.8308
G1 X48.562 Y62.509 E2.9572
G1 X48.477 Y62.453 E2.9614
G1 X48.209 Y62.253 E2.9753
G1 X48.131 Y62.187 E2.9796
G1 X45.920 Y60.101 E3.1060
G1 X45.850 Y60.027 E3.1102
G1 X45.635 Y59.771 E3.1241
G1 X45.574 Y59.689 E3.1283
G1 X43.903 Y57.149 E3.2547
G1 X43.853 Y57.061 E3.2590
G1 X43.702 Y56.762 E3.2729
G1 X43.662 Y56.668 E3.2771
G1 X42.622 Y53.812 E3.4035
G1 X42.593 Y53.714 E3.4077
G1 X42.516 Y53.389 E3.4216
G1 X42.498 Y53.288 E3.4259
G1 X42.145 Y50.269 E3.5523
G1 X42.139 Y50.167 E3.5565
G1 X42.139 Y49.833 E3.5704
G1 X42.145 Y49.731 E3.5746
G1 X42.498 Y46.712 E3.7010
G1 X42.516 Y46.611 E3.7053
G1 X42.593 Y46.286 E3.7192
G1 X42.622 Y46.188 E3.7234
G1 X43.662 Y43.332 E3.8498
G1 X43.702 Y43.238 E3.8540
G1 X43.853 Y42.939 E3.8679
G1 X43.904 Y42.851 E3.8722
G1 X45.574 Y40.311 E3.9986
G1 X45.635 Y40.229 E4.0028
G1 X45.850 Y39.973 E4.0167
G1 X46.224 Y40.305 F2202
G92 E0
G1 X46.273 Y40.252 E0.0030 F991
G1 X48.463 Y38.186 E0.1282
G1 X48.519 Y38.140 E0.1312
G1 X48.764 Y37.957 E0.1439
G1 X48.825 Y37.917 E0.1470
G1 X51.432 Y36.412 E0.2721
G1 X51.497 Y36.379 E0.2751
G1 X51.778 Y36.258 E0.2879
G1 X51.847 Y36.233 E0.2909
G1 X54.731 Y35.370 E0.4161
G1 X54.802 Y35.353 E0.4191
G1 X55.103 Y35.300 E0.4318
G1 X55.175 Y35.291 E0.4348
G1 X58.180 Y35.116 E0.5600
G1 X58.253 Y35.116 E0.5630
G1 X58.558 Y35.134 E0.5757
G1 X58.631 Y35.143 E0.5787
G1 X61.596 Y35.665 E0.7039
G1 X61.666 Y35.682 E0.7069
G1 X61.959 Y35.770 E0.7196
G1 X62.028 Y35.795 E0.7227
G1 X64.792 Y36.987 E0.8478
G1 X64.857 Y37.020 E0.8509
G1 X65.122 Y37.173 E0.8636
G1 X65.183 Y37.213 E0.8666
G1 X67.597 Y39.010 E0.9918
G1 X67.653 Y39.057 E0.9948
G1 X67.876 Y39.267 E1.0075
G1 X67.925 Y39.320 E1.0105
G1 X69.861 Y41.626 E1.1357
G1 X69.904 Y41.685 E1.1387
G1 X70.072 Y41.940 E1.1514
G1 X70.109 Y42.003 E1.1545
G1 X71.460 Y44.693 E1.2796
G1 X71.489 Y44.760 E1.2826
G1 X71.593 Y45.047 E1.2954
G1 X71.614 Y45.117 E1.2984
G1 X72.308 Y48.047 E1.4235
G1 X72.321 Y48.118 E1.4266
G1 X72.356 Y48.422 E1.4393
G1 X72.361 Y48.495 E1.4423
G1 X72.361 Y51.505 E1.5675
G1 X72.356 Y51.578 E1.5705
G1 X72.321 Y51.882 E1.5832
G1 X72.308 Y51.953 E1.5862
G1 X71.614 Y54.883 E1.7114
G1 X71.593 Y54.952 E1.7144
G1 X71.489 Y55.240 E1.7271
G1 X71.460 Y55.307 E1.7302
G1 X70.109 Y57.997 E1.8553
G1 X70.072 Y58.060 E1.8584
G1 X69.904 Y58.315 E1.8711
G1 X69.861 Y58.374 E1.8741
G1 X67.925 Y60.680 E1.9993
G1 X67.876 Y60.733 E2.0023
G1 X67.653 Y60.943 E2.0150
G1 X67.597 Y60.989 E2.0180
G1 X65.183 Y62.787 E2.1432
G1 X65.122 Y62.827 E2.1462
G1 X64.857 Y62.980 E2.1589
G1 X64.792 Y63.013 E2.1619
G1 X62.028 Y64.205 E2.2871
G1 X61.959 Y64.230 E2.2901
G1 X61.666 Y64.318 E2.3029
G1 X61.596 Y64.335 E2.3059
G1 X58.631 Y64.857 E2.4310
G1 X58.558 Y64.866 E2.4341
G1 X58.253 Y64.884 E2.4468
G1 X58.180 Y64.884 E2.4498
G1 X55.175 Y64.709 E2.5750
G1 X55.103 Y64.700 E2.5780
G1 X54.802 Y64.647 E2.5907
G1 X54.731 Y64.630 E2.5937
G1 X51.847 Y63.767 E2.7189
G1 X51.778 Y63.742 E2.7219
G1 X51.497 Y63.621 E2.7346
G1 X51.432 Y63.588 E2.7377
G1 X48.825 Y62.083 E2.8628
G1 X48.764 Y62.043 E2.8659
G1 X48.519 Y61.860 E2.8786
G1 X48.463 Y61.814 E2.8816
G1 X46.273 Y59.748 E3.0068
G1 X46.224 Y59.695 E3.0098
G1 X46.027 Y59.460 E3.0225
G1 X45.984 Y59.402 E3.0255
G1 X44.329 Y56.887 E3.1507
G1 X44.293 Y56.824 E3.1537
G1 X44.156 Y56.550 E3.1664
G1 X44.127 Y56.484 E3.1694
G1 X43.097 Y53.655 E3.2946
G1 X43.076 Y53.585 E3.2976
G1 X43.006 Y53.287 E3.3104
G1 X42.993 Y53.216 E3.3134
G1 X42.644 Y50.225 E3.4385
G1 X42.639 Y50.153 E3.4416
G1 X42.639 Y49.847 E3.4543
G1 X42.644 Y49.775 E3.4573
G1 X42.993 Y46.784 E3.5825
G1 X43.006 Y46.713 E3.5855
G1 X43.076 Y46.415 E3.5982
G1 X43.097 Y46.345 E3.6012
G1 X44.127 Y43.516 E3.7264
G1 X44.156 Y43.449 E3.7294
G1 X44.293 Y43.176 E3.7421
G1 X44.329 Y43.113 E3.7452
G1 X45.984 Y40.598 E3.8703
G1 X46.027 Y40.540 E3.8734
G1 X46.224 Y40.305 E3.8861
G1 X46.597 Y40.638 F2202
G92 E0
G1 X46.627 Y40.606 E0.0018 F991
G1 X48.796 Y38.560 E0.1258
G1 X48.829 Y38.532 E0.1276
G1 X49.051 Y38.367 E0.1391
G1 X49.088 Y38.343 E0.1409
G1 X51.670 Y36.852 E0.2649
G1 X51.709 Y36.832 E0.2667
G1 X51.963 Y36.723 E0.2782
G1 X52.004 Y36.708 E0.2800
G1 X54.860 Y35.853 E0.4040
G1 X54.903 Y35.843 E0.4058
G1 X55.175 Y35.795 E0.4173
G1 X55.218 Y35.790 E0.4191
G1 X58.195 Y35.616 E0.5430
G1 X58.239 Y35.616 E0.5449
G1 X58.515 Y35.632 E0.5564
G1 X58.558 Y35.637 E0.5582
G1 X61.494 Y36.155 E0.6821
G1 X61.537 Y36.165 E0.6839
G1 X61.802 Y36.245 E0.6954
G1 X61.843 Y36.260 E0.6973
G1 X64.581 Y37.440 E0.8212
G1 X64.620 Y37.460 E0.8230
G1 X64.859 Y37.598 E0.8345
G1 X64.896 Y37.622 E0.8364
G1 X67.287 Y39.403 E0.9603
G1 X67.321 Y39.431 E0.9621
G1 X67.522 Y39.621 E0.9736
G1 X67.552 Y39.652 E0.9754
G1 X69.468 Y41.937 E1.0994
G1 X69.494 Y41.972 E1.1012
G1 X69.646 Y42.203 E1.1127
G1 X69.668 Y42.240 E1.1145
G1 X71.006 Y44.905 E1.2385
G1 X71.024 Y44.945 E1.2403
G1 X71.118 Y45.205 E1.2518
G1 X71.131 Y45.247 E1.2536
G1 X71.818 Y48.148 E1.3776
G1 X71.826 Y48.191 E1.3794
G1 X71.858 Y48.466 E1.3909
G1 X71.861 Y48.509 E1.3927
G1 X71.861 Y51.491 E1.5167
G1 X71.858 Y51.534 E1.5185
G1 X71.826 Y51.809 E1.5300
G1 X71.818 Y51.852 E1.5318
G1 X71.131 Y54.753 E1.6558
G1 X71.118 Y54.795 E1.6576
G1 X71.024 Y55.055 E1.6691
