; generated by Slic3r 1.2.9 on 2016-07-06 at 13:56:16

; external perimeters extrusion width = 0.50mm
; perimeters extrusion width = 0.50mm
; infill extrusion width = 0.60mm
; solid infill extrusion width = 0.50mm
; top infill extrusion width = 0.50mm

M107
M104 S200 ; set temperature
G28 ; home all axes

M109 S200 ; wait for temperature to be reached
G21 ; set units to millimeters
G90 ; use absolute coordinates
M82 ; use absolute distances for extrusion
G92 E0
G1 E-8.00000 F9000.00000
G92 E0
G1 Z0.200 F2220.000
G1 X38.904 Y13.148 F2220.000
G1 E8.00000 F9000.00000
G1 X40.025 Y11.586 E8.08016 F830.008
G1 X41.679 Y10.606 E8.16032
G1 X43.180 Y10.359 E8.22372
G1 X46.780 Y10.359 E8.37381
G1 X47.696 Y10.449 E8.41216
G1 X67.596 Y14.427 E9.25819 F830.008
G1 X69.363 Y15.184 E9.33835
G1 X70.924 Y17.056 E9.43996
G1 X71.296 Y18.282 E9.49336
G1 X71.394 Y18.899 E9.51942
G1 X71.394 Y20.361 E9.58035
G1 X71.296 Y20.978 E9.60641
G1 X70.924 Y22.203 E9.65978
G1 X69.779 Y23.747 E9.73994
G1 X67.972 Y24.741 E9.82591
G1 X46.545 Y30.908 E10.75544
G1 X45.897 Y31.045 E10.78304
G1 X45.171 Y31.101 E10.81341
G1 X44.789 Y31.101 E10.82933
G1 X44.063 Y31.045 E10.85971
G1 X42.747 Y30.660 E10.91686
G1 X41.587 Y29.929 E10.97401
G1 X40.671 Y28.910 E11.03115
G1 X40.343 Y28.353 E11.05808
G1 X39.002 Y25.672 E11.18306
G1 X38.509 Y23.583 E11.27255
G1 X38.509 Y15.030 E11.62911
G1 X38.889 Y13.222 E11.70614
G1 X39.460 Y13.273 F2220.000
G1 X40.570 Y11.849 E11.78141 F830.008
G1 X42.181 Y11.039 E11.85658
G1 X43.180 Y10.916 E11.89853
G1 X46.780 Y10.916 E12.04861
G1 X47.586 Y10.996 E12.08240
G1 X67.486 Y14.973 E12.92842 F830.008
G1 X69.134 Y15.706 E13.00360
G1 X70.418 Y17.289 E13.08856
G1 X70.746 Y18.369 E13.13562
G1 X70.844 Y18.986 E13.16168
G1 X70.844 Y20.274 E13.21534
G1 X70.746 Y20.891 E13.24140
G1 X70.418 Y21.970 E13.28843
G1 X69.324 Y23.404 E13.36360
G1 X67.818 Y24.206 E13.43475
G1 X46.391 Y30.372 E14.36429
G1 X45.821 Y30.493 E14.38859
G1 X45.171 Y30.544 E14.41575
G1 X44.789 Y30.544 E14.43167
G1 X44.139 Y30.493 E14.45884
G1 X42.972 Y30.150 E14.50958
G1 X41.942 Y29.500 E14.56032
G1 X41.130 Y28.594 E14.61106
G1 X40.841 Y28.104 E14.63478
G1 X39.500 Y25.423 E14.75976
G1 X39.066 Y23.583 E14.83857
G1 X39.066 Y15.030 E15.19513
G1 X39.444 Y13.346 E15.26706
G1 X40.016 Y13.408 F2220.000
G1 X41.113 Y12.135 E15.33711 F830.008
G1 X43.180 Y11.473 E15.42760
G1 X46.780 Y11.473 E15.57768
G1 X47.477 Y11.542 E15.60689
G1 X67.377 Y15.520 E16.45292 F830.008
G1 X68.896 Y16.226 E16.52275
G1 X69.914 Y17.526 E16.59161
G1 X70.196 Y18.456 E16.63210
G1 X70.293 Y19.074 E16.65816
G1 X70.293 Y20.186 E16.70456
G1 X70.196 Y20.804 E16.73062
G1 X69.914 Y21.733 E16.77109
G1 X68.874 Y23.052 E16.84113
G1 X67.664 Y23.671 E16.89778
G1 X46.237 Y29.837 E17.82731
G1 X45.744 Y29.942 E17.84833
G1 X45.171 Y29.987 E17.87228
G1 X44.789 Y29.987 E17.88820
G1 X44.216 Y29.942 E17.91215
G1 X43.197 Y29.640 E17.95648
G1 X42.362 Y29.124 E17.99740
G1 X41.636 Y28.347 E18.04173
G1 X41.339 Y27.855 E18.06568
G1 X39.998 Y25.174 E18.19066
G1 X39.623 Y23.583 E18.25880
G1 X39.623 Y15.030 E18.61536
G1 X39.998 Y13.481 E18.68182
G1 F1776
G1 X41.005 Y12.265 E11.08182
G1 E10.68182 F9000.00000
G92 E0
G1 X44.978 Y24.016 F2220.000
G1 E8.00000 F9000.00000
G1 X44.594 Y23.249 E8.03574 F664.007
G1 X44.594 Y16.444 E8.31942
G1 X45.366 Y16.444 E8.35159
G1 X45.366 Y18.234 E8.42620
G1 X45.506 Y18.874 E8.45352
G1 X45.610 Y19.051 E8.46207
G1 X45.787 Y19.482 E8.48152
G1 X45.876 Y19.622 E8.48844
G1 X45.493 Y20.435 E8.52590
G1 X45.366 Y21.030 E8.55126
G1 X45.366 Y23.246 E8.64364
G1 X45.011 Y23.949 E8.67644
G1 X44.975 Y25.257 F2220.000
G1 X44.037 Y23.380 E8.76390 F664.007
G1 X44.037 Y15.887 E9.07629
G1 X45.923 Y15.887 E9.15491
G1 X45.923 Y18.173 E9.25023
G1 X46.031 Y18.668 E9.27133
G1 X46.131 Y18.838 E9.27955
G1 X46.281 Y19.221 E9.29669
G1 X46.449 Y19.487 E9.30983
G1 X46.580 Y19.618 E9.31752
G1 X46.335 Y19.954 E9.33483
G1 X46.024 Y20.615 E9.36530
G1 X45.923 Y21.089 E9.38551
G1 X45.923 Y23.379 E9.48098
G1 X45.009 Y25.190 E9.56554
G1 X46.987 Y20.005 F2220.000
G1 X46.817 Y20.239 E9.57757 F664.007
G1 X46.555 Y20.794 E9.60315
G1 X46.480 Y21.148 E9.61823
G1 X46.480 Y23.511 E9.71678
G1 X45.159 Y26.130 E9.83904
G1 X44.784 Y26.120 E9.85466
G1 X43.480 Y23.512 E9.97623
G1 X43.480 Y15.330 E10.31733
G1 X46.480 Y15.330 E10.44240
G1 X46.480 Y18.113 E10.55843
G1 X46.556 Y18.462 E10.57333
G1 X46.652 Y18.625 E10.58121
G1 X46.682 Y18.747 E10.58644
G1 X46.775 Y18.959 E10.59609
G1 X46.887 Y19.137 E10.60486
G1 X47.011 Y19.261 E10.61219
G1 X47.175 Y19.307 E10.61926
G1 X66.424 Y19.308 E11.42176
G1 X66.476 Y19.630 E11.43536
G1 X66.424 Y19.952 E11.44897
G1 X47.175 Y19.953 E12.25146
G1 X47.059 Y19.985 E12.25648
G1 X46.714 Y19.912 F2220.000
G1 X46.912 Y19.537 F2220.000
G1 X46.966 Y19.568 E12.25909 F691.674
G1 X47.010 Y19.630 E12.26226
G1 X66.194 Y19.630 E13.06203
G1 F1776
G1 X64.615 Y19.630 E5.46203
G1 E5.06203 F9000.00000
G92 E0
G1 X45.034 Y20.481 F2220.000
G1 E8.00000 F9000.00000
G1 X44.980 Y21.001 E8.02179 F691.674
G1 X44.980 Y23.154 E8.11157
G1 X44.941 Y23.319 E8.11864
G1 X45.012 Y20.476 F2220.000
G1 X45.198 Y19.643 E8.19255 F691.674
G1 X45.060 Y19.017 E8.24809
G1 X45.033 Y18.769 E8.26967
G1 X45.033 Y18.769 F2220.000
G1 X44.980 Y18.264 E8.29084 F691.674
G1 X44.980 Y16.723 E8.35509
M106 S255
M104 S195 ; set temperature
G1 F1776
G1 X44.980 Y18.264 E0.93604
G1 F1776
G1 X44.984 Y18.301 E0.75509
G1 E0.35509 F9000.00000
G92 E0
G1 Z0.400 F2220.000
G1 X46.682 Y19.630 F2220.000
G1 E8.00000 F9000.00000
G1 X46.293 Y19.914 E8.01649 F600.000
G1 X46.009 Y20.305 E8.03301
G1 X45.823 Y20.903 E8.05445
G1 X45.817 Y23.354 E8.13826
G1 X44.980 Y25.027 E8.20225
G1 X44.144 Y23.355 E8.26618
G1 X44.144 Y15.994 E8.51797
G1 X45.816 Y15.994 E8.57515
G1 X45.816 Y18.177 E8.64983
G1 X45.891 Y18.628 E8.66545
G1 X46.036 Y18.992 E8.67885
G1 X46.293 Y19.346 E8.69381
G1 X46.622 Y19.586 E8.70773
G1 X46.273 Y15.537 F2220.000
G1 X46.273 Y18.139 E8.79675 F600.000
G1 X46.334 Y18.504 E8.80940
G1 X46.440 Y18.770 E8.81917
G1 X46.621 Y19.019 E8.82971
G1 X46.902 Y19.225 E8.84164
G1 X47.200 Y19.293 E8.85207
G1 X53.548 Y19.289 E9.06923
G1 X66.215 Y19.321 E9.50252
G1 X66.264 Y19.630 E9.51322
G1 X66.215 Y19.939 E9.52391
G1 X53.548 Y19.971 E9.95720
G1 X47.200 Y19.967 E10.17436
G1 X46.902 Y20.035 E10.18479
G1 X46.621 Y20.241 E10.19672
G1 X46.423 Y20.513 E10.20821
G1 X46.280 Y20.974 E10.22472
G1 X46.273 Y23.462 E10.30984
G1 X44.980 Y26.049 E10.40877
G1 X43.687 Y23.463 E10.50766
G1 X43.687 Y15.537 E10.77877
G1 X46.198 Y15.537 E10.86466
G1 F1776
G1 X46.243 Y17.115 E3.26466
G1 E2.86466 F9000.00000
G92 E0
G1 X47.096 Y18.800 F2220.000
G1 E8.00000 F9000.00000
G1 X47.252 Y18.836 E8.00545 F600.000
G1 X53.549 Y18.832 E8.22084
G1 X66.520 Y18.865 E8.66452
G1 X66.651 Y19.151 E8.67529
G1 X66.727 Y19.630 E8.69188
G1 X66.651 Y20.109 E8.70848
G1 X66.520 Y20.395 E8.71924
G1 X53.549 Y20.428 E9.16293
G1 X47.252 Y20.424 E9.37832
G1 X47.096 Y20.460 E9.38377
G1 X46.948 Y20.568 E9.39004
G1 X46.837 Y20.721 E9.39650
G1 X46.737 Y21.044 E9.40808
G1 X46.730 Y23.571 E9.49451
G1 X45.354 Y26.297 E9.59898
G1 X45.239 Y26.368 E9.60361
G1 X45.154 Y26.380 E9.60654
G1 X44.721 Y26.368 E9.62134
G1 X44.606 Y26.297 E9.62597
G1 X44.558 Y26.226 E9.62890
G1 X43.230 Y23.571 E9.73045
G1 X43.230 Y15.234 E10.01564
G1 X43.384 Y15.080 E10.02306
G1 X46.576 Y15.080 E10.13228
G1 X46.730 Y15.234 E10.13971
G1 X46.730 Y18.102 E10.23781
G1 X46.777 Y18.381 E10.24748
G1 X46.843 Y18.547 E10.25362
G1 X46.948 Y18.692 E10.25975
G1 X47.036 Y18.756 E10.26346
G1 X47.122 Y18.958 F2220.000
G1 X46.860 Y19.462 F2220.000
G1 X47.109 Y19.576 E10.27285 F600.000
G1 X47.289 Y19.738 E10.28112
G1 X46.860 Y19.798 F2220.000
G1 X47.109 Y19.684 E10.29051 F600.000
G1 X47.178 Y19.630 E10.29350
G1 X65.951 Y19.630 E10.93563
G1 X53.048 Y19.630 E11.37699
G1 F1776
G1 X54.626 Y19.630 E3.77699
G1 E3.37699 F9000.00000
G92 E0
G1 X44.416 Y16.500 F2220.000
G1 E8.00000 F9000.00000
G1 X44.650 Y16.266 E8.01200 F600.000
G1 X45.335 Y16.266 E8.03684
G1 X44.416 Y17.185 E8.08398
G1 X44.416 Y17.870 E8.10882
G1 X45.544 Y16.741 E8.16670
G1 X45.544 Y17.427 E8.19155
G1 X44.416 Y18.555 E8.24942
G1 X44.416 Y19.241 E8.27427
G1 X45.544 Y18.112 E8.33215
G1 X45.654 Y18.688 E8.35340
G1 X44.416 Y19.926 E8.41690
G1 X44.416 Y20.611 E8.44174
G1 X45.869 Y19.158 E8.51625
G1 X46.041 Y19.671 E8.53588
G1 X44.416 Y21.296 E8.61922
G1 X44.416 Y21.982 E8.64407
G1 X45.551 Y20.846 E8.70230
G1 X45.549 Y21.533 E8.72721
G1 X44.416 Y22.667 E8.78535
G1 X44.416 Y23.352 E8.81019
G1 X45.548 Y22.220 E8.86824
G1 X45.546 Y22.907 E8.89315
G1 X44.640 Y23.813 E8.93962
G1 X45.122 Y24.016 E8.95859
G1 X44.883 Y24.255 E8.97083
G1 F1776
G1 X45.122 Y24.016 E7.34607
G1 F1776
G1 X44.640 Y23.813 E4.82788
G1 F1776
G1 X45.147 Y23.305 E1.37082
G1 E0.97083 F9000.00000
G92 E0
G1 Z0.600 F2220.000
G1 X45.817 Y15.794 F2220.000
G1 E8.00000 F9000.00000
G1 X45.823 Y18.162 E8.08098 F600.000
G1 X45.933 Y18.557 E8.09502
G1 X46.134 Y18.913 E8.10901
G1 X46.455 Y19.230 E8.12442
G1 X46.948 Y19.470 E8.14319
G1 X61.864 Y19.493 E8.65339
G1 X61.864 Y19.767 E8.66275
G1 X46.948 Y19.790 E9.17295
G1 X46.455 Y20.030 E9.19172
G1 X46.134 Y20.347 E9.20713
G1 X45.933 Y20.703 E9.22112
G1 X45.823 Y21.098 E9.23515
G1 X45.817 Y23.354 E9.31230
G1 X44.980 Y25.027 E9.37629
G1 X44.144 Y23.355 E9.44022
G1 X44.144 Y15.794 E9.69885
G1 X45.742 Y15.794 E9.75352
G1 X46.274 Y15.424 F2220.000
G1 X46.280 Y18.098 E9.84501 F600.000
G1 X46.358 Y18.380 E9.85503
G1 X46.501 Y18.633 E9.86493
G1 X46.723 Y18.852 E9.87559
G1 X47.054 Y19.013 E9.88820
G1 X66.273 Y19.043 E10.54560
G1 X66.273 Y20.217 E10.58577
G1 X47.054 Y20.247 E11.24317
G1 X46.723 Y20.408 E11.25577
G1 X46.501 Y20.627 E11.26644
G1 X46.358 Y20.880 E11.27634
G1 X46.280 Y21.161 E11.28635
G1 X46.273 Y23.462 E11.36505
G1 X44.980 Y26.049 E11.46398
G1 X43.687 Y23.463 E11.56287
G1 X43.687 Y15.423 E11.83789
G1 X43.773 Y15.337 E11.84204
G1 X46.187 Y15.337 E11.92462
G1 X46.221 Y15.371 E11.92624
G1 X44.721 Y26.368 F2220.000
G1 X44.606 Y26.297 E11.93086 F600.000
G1 X44.558 Y26.226 E11.93380
G1 X43.230 Y23.571 E12.03535
G1 X43.230 Y15.234 E12.32053
G1 X43.584 Y14.880 E12.33764
G1 X46.376 Y14.880 E12.43317
G1 X46.730 Y15.234 E12.45028
G1 X46.737 Y18.035 E12.54611
G1 X46.784 Y18.204 E12.55210
G1 X46.867 Y18.352 E12.55792
G1 X46.990 Y18.474 E12.56384
G1 X47.160 Y18.556 E12.57028
G1 X66.551 Y18.586 E13.23358
G1 X66.609 Y18.666 E13.23695
G1 X66.730 Y18.930 E13.24689
G1 X66.730 Y20.330 E13.29476
G1 X66.609 Y20.594 E13.30470
G1 X66.551 Y20.674 E13.30807
G1 X47.160 Y20.704 E13.97137
G1 X46.990 Y20.786 E13.97782
G1 X46.867 Y20.908 E13.98373
G1 X46.784 Y21.056 E13.98955
G1 X46.737 Y21.225 E13.99554
G1 X46.730 Y23.571 E14.07579
G1 X45.354 Y26.297 E14.18025
G1 X45.239 Y26.368 E14.18488
G1 X44.796 Y26.379 E14.20004
G1 X44.701 Y26.234 F2220.000
G1 X44.838 Y24.016 F2220.000
G1 X45.077 Y24.255 E14.21161 F600.000
G1 X45.308 Y23.838 E14.22796
G1 X44.416 Y22.946 E14.27124
G1 X44.416 Y22.298 E14.29346
G1 X45.524 Y23.406 E14.34721
G1 X45.547 Y22.781 E14.36867
G1 X44.416 Y21.650 E14.42353
G1 X44.416 Y21.001 E14.44576
G1 X45.549 Y22.134 E14.50071
G1 X45.550 Y21.488 E14.52287
G1 X44.416 Y20.353 E14.57791
G1 X44.416 Y19.705 E14.60014
G1 X45.618 Y20.907 E14.65843
G1 X45.806 Y20.447 E14.67547
G1 X44.416 Y19.057 E14.74290
G1 X44.416 Y18.409 F2220.000
G1 X46.081 Y20.074 E14.82367 F600.000
G1 X46.431 Y19.776 E14.83943
G1 X44.416 Y17.761 E14.93718
G1 X45.551 Y18.248 F2220.000
G1 X44.416 Y17.113 E14.99225 F600.000
G1 X44.416 Y16.465 E15.01448
G1 X45.550 Y17.599 E15.06948
G1 X45.548 Y16.949 E15.09175
G1 X44.665 Y16.066 E15.13461
G1 X45.313 Y16.066 E15.15683
G1 X45.547 Y16.300 E15.16818
G1 F1776
G1 X45.313 Y16.066 E13.57525
G1 F1776
G1 X44.665 Y16.066 E10.45520
G1 F1776
G1 X45.089 Y16.490 E7.56818
G1 E7.16818 F9000.00000
G92 E0
G1 X62.092 Y19.630 F2220.000
G1 E8.00000 F9000.00000
G1 X66.044 Y19.630 E8.28307 F600.000
G1 F1776
G1 X64.466 Y19.630 E0.68307
G1 E0.28307 F9000.00000
G92 E0
G1 Z0.800 F2220.000
G1 X44.980 Y25.027 F2220.000
G1 E8.00000 F9000.00000
G1 X44.144 Y23.355 E8.06393 F600.000
G1 X44.144 Y15.794 E8.32256
G1 X45.817 Y15.794 E8.37980
G1 X45.823 Y17.984 E8.45472
G1 X45.933 Y18.380 E8.46876
G1 X46.134 Y18.736 E8.48275
G1 X46.455 Y19.052 E8.49816
G1 X46.949 Y19.293 E8.51695
G1 X65.816 Y19.300 E9.16231
G1 X65.816 Y19.960 E9.18487
G1 X46.949 Y19.967 E9.83024
G1 X46.455 Y20.208 E9.84903
G1 X46.134 Y20.524 E9.86444
G1 X45.933 Y20.880 E9.87843
G1 X45.823 Y21.275 E9.89245
G1 X45.817 Y23.354 E9.96355
G1 X45.014 Y24.960 E10.02497
G1 X44.980 Y26.049 F2220.000
G1 X43.687 Y23.463 E10.12386 F600.000
G1 X43.687 Y15.423 E10.39888
G1 X43.773 Y15.337 E10.40303
G1 X46.187 Y15.337 E10.48562
G1 X46.274 Y15.424 E10.48980
G1 X46.280 Y17.921 E10.57524
G1 X46.358 Y18.203 E10.58525
G1 X46.501 Y18.455 E10.59516
G1 X46.723 Y18.674 E10.60582
G1 X47.054 Y18.836 E10.61844
G1 X66.273 Y18.843 E11.27583
G1 X66.273 Y20.417 E11.32964
G1 X47.054 Y20.424 E11.98703
G1 X46.723 Y20.586 E11.99965
G1 X46.501 Y20.805 E12.01031
G1 X46.358 Y21.057 E12.02021
G1 X46.280 Y21.338 E12.03022
G1 X46.273 Y23.462 E12.10286
G1 X45.014 Y25.982 E12.19923
G1 X44.721 Y26.368 F2220.000
G1 X44.606 Y26.297 E12.20386 F600.000
G1 X44.558 Y26.226 E12.20679
G1 X43.230 Y23.571 E12.30834
G1 X43.230 Y15.234 E12.59353
G1 X43.584 Y14.880 E12.61063
G1 X46.376 Y14.880 E12.70616
G1 X46.730 Y15.234 E12.72328
G1 X46.737 Y17.858 E12.81305
G1 X46.784 Y18.027 E12.81904
G1 X46.867 Y18.175 E12.82485
G1 X46.990 Y18.296 E12.83077
G1 X47.160 Y18.379 E12.83722
G1 X66.551 Y18.386 E13.50052
G1 X66.730 Y18.636 E13.51101
G1 X66.730 Y20.624 E13.57903
G1 X66.551 Y20.874 E13.58952
G1 X47.160 Y20.881 E14.25282
G1 X46.990 Y20.964 E14.25927
G1 X46.867 Y21.085 E14.26519
G1 X46.784 Y21.233 E14.27100
G1 X46.737 Y21.402 E14.27699
G1 X46.730 Y23.571 E14.35118
G1 X45.354 Y26.297 E14.45565
G1 X45.239 Y26.368 E14.46028
G1 X44.796 Y26.379 E14.47544
G1 X44.701 Y26.234 F2220.000
G1 X44.883 Y24.255 F2220.000
G1 X45.122 Y24.016 E14.48701 F632.168
G1 X44.652 Y23.838 E14.50423
G1 X45.546 Y22.944 E14.54757
G1 X45.548 Y22.294 E14.56985
G1 X44.436 Y23.406 E14.62376
G1 X44.416 Y22.779 E14.64528
G1 X45.550 Y21.644 E14.70028
G1 X45.603 Y20.944 E14.72437
G1 X44.416 Y22.131 E14.78192
G1 X44.416 Y21.483 E14.80413
G1 X46.539 Y19.359 E14.90710
G1 X46.162 Y19.089 E14.92302
G1 X44.416 Y20.835 E15.00770
G1 X44.416 Y20.187 E15.02991
G1 X45.864 Y18.739 E15.10015
G1 X45.653 Y18.302 E15.11678
G1 X44.416 Y19.539 E15.17676
G1 X44.416 Y18.891 E15.19898
G1 X45.551 Y17.756 E15.25402
G1 X45.549 Y17.110 E15.27618
G1 X44.416 Y18.243 E15.33114
G1 X44.416 Y17.595 E15.35336
G1 X45.548 Y16.463 E15.40825
G1 X45.298 Y16.066 E15.42436
G1 X44.416 Y16.948 E15.46711
G1 X44.416 Y16.300 E15.48933
G1 X44.650 Y16.066 E15.50067
G1 X46.946 Y19.533 F2220.000
G1 X47.143 Y19.579 E15.50758 F600.000
G1 X47.402 Y19.738 E15.51798
G1 X46.946 Y19.727 F2220.000
G1 X47.143 Y19.681 E15.52488 F600.000
G1 X47.226 Y19.630 E15.52822
G1 X65.587 Y19.630 E16.15628
G1 F1776
G1 X64.009 Y19.630 E8.55627
G1 E8.15628 F9000.00000
G92 E0
G1 Z1.000 F2220.000
G1 X44.980 Y25.027 F2220.000
G1 E8.00000 F9000.00000
G1 X44.144 Y23.355 E8.06393 F600.000
G1 X44.144 Y15.794 E8.32256
G1 X45.816 Y15.794 E8.37974
G1 X45.816 Y17.765 E8.44716
G1 X45.932 Y18.265 E8.46470
G1 X46.202 Y18.659 E8.48106
G1 X46.538 Y18.933 E8.49590
G1 X46.992 Y19.116 E8.51264
G1 X65.816 Y19.137 E9.15651
G1 X65.816 Y20.123 E9.19026
G1 X46.992 Y20.144 E9.83412
G1 X46.538 Y20.327 E9.85087
G1 X46.202 Y20.601 E9.86570
G1 X45.965 Y20.947 E9.88007
G1 X45.823 Y21.367 E9.89522
G1 X45.817 Y23.353 E9.96317
G1 X45.014 Y24.960 E10.02460
