; generated by Slic3r 1.2.9 on 2016-07-07 at 07:58:47

; external perimeters extrusion width = 0.50mm
; perimeters extrusion width = 0.50mm
; infill extrusion width = 0.60mm
; solid infill extrusion width = 0.50mm
; top infill extrusion width = 0.50mm

M107
M104 S200 ; set temperature
G28 ; home all axes

M109 S200 ; wait for temperature to be reached
G21 ; set units to millimeters
G90 ; use absolute coordinates
M82 ; use absolute distances for extrusion
G92 E0
G1 E-8.00000 F9000.00000
G92 E0
G1 Z0.200 F2220.000
G1 X78.675 Y37.085 F2220.000
G1 E8.00000 F9000.00000
G1 X79.279 Y36.008 E8.05144 F864.000
G1 X80.626 Y34.212 E8.14505
G1 X81.491 Y33.331 E8.19650
G1 X83.143 Y32.042 E8.28387
G1 X83.261 Y31.950 E8.29011
G1 X84.326 Y31.327 E8.34155
G1 X86.396 Y30.458 E8.43516
G1 X87.587 Y30.134 E8.48660
G1 X89.813 Y29.838 E8.58021
G1 X91.047 Y29.838 E8.63166
G1 X93.273 Y30.134 E8.72527
G1 X94.464 Y30.458 E8.77671 F864.000
G1 X94.602 Y30.515 E8.78295
G1 X96.534 Y31.327 E8.87032
G1 X97.599 Y31.950 E8.92176
G1 X99.369 Y33.331 E9.01537
G1 X100.234 Y34.212 E9.06682
G1 X101.581 Y36.008 E9.16043
G1 X102.185 Y37.085 E9.21187
G1 X103.014 Y39.171 E9.30548
G1 X103.241 Y39.916 E9.33793
G1 X103.318 Y40.362 E9.35682
G1 X103.557 Y42.295 E9.43800
G1 X103.592 Y42.868 E9.46195
G1 X103.592 Y49.968 E9.75795
G1 X103.568 Y50.515 E9.78077
G1 X103.437 Y51.952 E9.84091
G1 X103.278 Y52.799 E9.87685
G1 X102.849 Y54.308 E9.94224
G1 X102.538 Y55.111 E9.97817
G1 X101.838 Y56.516 E10.04357
G1 X101.385 Y57.248 E10.07950
G1 X100.439 Y58.500 E10.14490
G1 X99.859 Y59.137 E10.18083
G1 X98.699 Y60.194 E10.24622
G1 X98.011 Y60.713 E10.28216
G1 X96.678 Y61.539 E10.34755
G1 X95.906 Y61.923 E10.38349
G1 X94.444 Y62.490 E10.44888
G1 X93.614 Y62.726 E10.48482
G1 X92.073 Y63.014 E10.55021
G1 X91.214 Y63.094 E10.58615
G1 X89.646 Y63.094 E10.65154
G1 X88.787 Y63.014 E10.68748
G1 X87.246 Y62.726 E10.75287
G1 X86.416 Y62.490 E10.78881
G1 X84.954 Y61.923 E10.85420
G1 X84.182 Y61.539 E10.89013
G1 X82.849 Y60.713 E10.95553
G1 X82.161 Y60.194 E10.99146
G1 X81.001 Y59.137 E11.05686
G1 X80.421 Y58.500 E11.09279
G1 X79.475 Y57.248 E11.15818
G1 X79.022 Y56.516 E11.19412
G1 X78.407 Y55.281 E11.25163
G1 X78.322 Y55.111 E11.25951
G1 X78.011 Y54.308 E11.29545
G1 X77.582 Y52.799 E11.36084
G1 X77.423 Y51.952 E11.39678
G1 X77.274 Y50.242 E11.46832
G1 X77.268 Y42.868 E11.77573
G1 X77.303 Y42.295 E11.79968
G1 X77.542 Y40.362 E11.88087
G1 X77.619 Y39.916 E11.89976
G1 X77.846 Y39.171 E11.93220
G1 X78.648 Y37.154 E12.02269
G1 X79.193 Y37.290 F2220.000
G1 X79.725 Y36.342 E12.06800 F864.000
G1 X81.072 Y34.546 E12.16161
G1 X81.833 Y33.770 E12.20691
G1 X83.486 Y32.482 E12.29428
G1 X83.604 Y32.390 E12.30052
G1 X84.541 Y31.840 E12.34583
G1 X86.612 Y30.971 E12.43944
G1 X87.661 Y30.687 E12.48475
G1 X89.887 Y30.390 E12.57836
G1 X90.973 Y30.390 E12.62367
G1 X93.199 Y30.687 E12.71728
G1 X94.248 Y30.971 E12.76259 F864.000
G1 X94.386 Y31.029 E12.76883
G1 X96.318 Y31.840 E12.85620
G1 X97.256 Y32.390 E12.90151
G1 X99.027 Y33.770 E12.99512
G1 X99.788 Y34.546 E13.04043
G1 X101.135 Y36.342 E13.13404
G1 X101.667 Y37.290 E13.17934
G1 X102.497 Y39.377 E13.27295
G1 X102.696 Y40.033 E13.30153
G1 X102.765 Y40.430 E13.31836
G1 X103.004 Y42.363 E13.39955
G1 X103.035 Y42.868 E13.42064
G1 X103.025 Y50.298 E13.73038
G1 X102.882 Y51.900 E13.79745
G1 X102.742 Y52.647 E13.82910
G1 X102.313 Y54.155 E13.89449
G1 X102.039 Y54.863 E13.92614
G1 X101.340 Y56.267 E13.99153
G1 X100.940 Y56.913 E14.02318
G1 X99.995 Y58.165 E14.08858
G1 X99.483 Y58.726 E14.12023
G1 X98.324 Y59.782 E14.18562
G1 X97.718 Y60.240 E14.21727
G1 X96.385 Y61.066 E14.28266
G1 X95.705 Y61.404 E14.31431
G1 X94.242 Y61.971 E14.37971
G1 X93.512 Y62.178 E14.41136
G1 X91.970 Y62.467 E14.47675
G1 X91.214 Y62.537 E14.50840
G1 X89.646 Y62.537 E14.57379
G1 X88.890 Y62.467 E14.60544
G1 X87.348 Y62.178 E14.67083
G1 X86.618 Y61.971 E14.70249
G1 X85.155 Y61.404 E14.76788
G1 X84.475 Y61.066 E14.79953
G1 X83.142 Y60.240 E14.86492
G1 X82.536 Y59.782 E14.89657
G1 X81.377 Y58.726 E14.96197
G1 X80.865 Y58.165 E14.99361
G1 X79.920 Y56.913 E15.05901
G1 X79.520 Y56.267 E15.09066
G1 X78.905 Y55.033 E15.14816
G1 X78.821 Y54.863 E15.15605
G1 X78.547 Y54.155 E15.18770
G1 X78.118 Y52.647 E15.25309
G1 X77.978 Y51.900 E15.28475
G1 X77.828 Y50.151 E15.35792
G1 X77.825 Y42.868 E15.66155
G1 X77.856 Y42.363 E15.68265
G1 X78.095 Y40.430 E15.76383
G1 X78.164 Y40.033 E15.78066
G1 X78.363 Y39.377 E15.80924
G1 X79.165 Y37.360 E15.89972
G1 X79.711 Y37.496 F2220.000
G1 X80.170 Y36.677 E15.93890 F864.000
G1 X81.518 Y34.880 E16.03251
G1 X82.176 Y34.210 E16.07168
G1 X83.828 Y32.921 E16.15905
G1 X83.946 Y32.829 E16.16529
G1 X84.757 Y32.354 E16.20446
G1 X86.828 Y31.485 E16.29807
G1 X87.734 Y31.239 E16.33725
G1 X89.960 Y30.942 E16.43086
G1 X90.900 Y30.942 E16.47003
G1 X93.126 Y31.239 E16.56364
G1 X94.032 Y31.485 E16.60281 F864.000
G1 X94.170 Y31.543 E16.60905
G1 X96.103 Y32.354 E16.69642
G1 X96.914 Y32.829 E16.73560
G1 X98.684 Y34.210 E16.82921
G1 X99.342 Y34.880 E16.86838
G1 X100.690 Y36.677 E16.96199
G1 X101.149 Y37.496 E17.00116
G1 X101.979 Y39.583 E17.09477
G1 X102.152 Y40.150 E17.11948
G1 X102.212 Y40.499 E17.13425
G1 X102.451 Y42.432 E17.21544
G1 X102.478 Y42.868 E17.23367
G1 X102.469 Y50.263 E17.54197
G1 X102.327 Y51.849 E17.60834
G1 X102.207 Y52.494 E17.63570
G1 X101.777 Y54.003 E17.70109
G1 X101.540 Y54.615 E17.72846
G1 X100.841 Y56.019 E17.79385
G1 X100.495 Y56.577 E17.82122
G1 X99.550 Y57.829 E17.88661
G1 X99.108 Y58.314 E17.91397
G1 X97.949 Y59.371 E17.97937
G1 X97.425 Y59.766 E18.00673
G1 X96.091 Y60.592 E18.07212
G1 X95.504 Y60.885 E18.09949
G1 X94.041 Y61.451 E18.16488
G1 X93.410 Y61.631 E18.19225
G1 X91.868 Y61.919 E18.25764
G1 X91.214 Y61.980 E18.28500
G1 X89.646 Y61.980 E18.35040
G1 X88.992 Y61.919 E18.37776
G1 X87.450 Y61.631 E18.44315
G1 X86.819 Y61.451 E18.47052
G1 X85.356 Y60.885 E18.53591
G1 X84.769 Y60.592 E18.56327
G1 X83.435 Y59.766 E18.62867
G1 X82.911 Y59.371 E18.65603
G1 X81.752 Y58.314 E18.72143
G1 X81.310 Y57.829 E18.74879
G1 X80.365 Y56.577 E18.81418
G1 X80.019 Y56.019 E18.84155
G1 X79.404 Y54.784 E18.89905
G1 X79.320 Y54.615 E18.90694
G1 X79.083 Y54.003 E18.93431
G1 X78.653 Y52.494 E18.99970
G1 X78.533 Y51.849 E19.02706
G1 X78.385 Y50.133 E19.09886
G1 X78.382 Y42.868 E19.40173
G1 X78.409 Y42.432 E19.41996
G1 X78.648 Y40.499 E19.50115
G1 X78.708 Y40.150 E19.51592
G1 X78.881 Y39.583 E19.54063
G1 X79.683 Y37.566 E19.63111
G1 F1776
G1 X80.170 Y36.677 E14.74934
G1 F1776
G1 X80.509 Y36.225 E12.03111
G1 E11.63111 F9000.00000
G92 E0
G1 X97.507 Y44.409 F2220.000
G1 E8.00000 F9000.00000
G1 X96.391 Y43.121 E8.07107 F864.000
G1 X94.168 Y41.696 E8.18115
G1 X91.727 Y40.983 E8.28717
G1 X89.187 Y40.977 E8.39306
G1 X86.819 Y41.657 E8.49577
G1 X86.464 Y41.831 E8.51225
G1 X84.507 Y43.089 E8.60921
G1 X83.354 Y44.409 E8.68229
G1 X83.353 Y42.956 E8.74285
G1 X83.567 Y41.252 E8.81444
G1 X84.260 Y39.509 E8.89267
G1 X85.381 Y38.014 E8.97057
G1 X86.855 Y36.865 E9.04847
G1 X88.578 Y36.142 E9.12637
G1 X90.430 Y35.895 E9.20426
G1 X92.282 Y36.142 E9.28216
G1 X94.005 Y36.865 E9.36006
G1 X95.479 Y38.014 E9.43796
G1 X96.600 Y39.509 E9.51586
G1 X97.293 Y41.252 E9.59409
G1 X97.507 Y42.956 E9.66569
G1 X97.507 Y44.334 E9.72313
G1 X98.064 Y45.751 F2220.000
G1 X97.800 Y45.808 E9.73439 F864.000
G1 X97.562 Y45.324 E9.75686
G1 X96.022 Y43.546 E9.85490
G1 X93.935 Y42.208 E9.95828
G1 X91.647 Y41.540 E10.05766
G1 X89.265 Y41.534 E10.15696
G1 X87.020 Y42.179 E10.25432
G1 X86.738 Y42.317 E10.26741
G1 X84.875 Y43.515 E10.35974
G1 X83.357 Y45.252 E10.45592
G1 X83.231 Y45.432 E10.46509
G1 X83.060 Y45.807 E10.48226
G1 X82.797 Y45.750 E10.49349
G1 X82.796 Y42.922 E10.61141
G1 X83.023 Y41.113 E10.68741
G1 X83.770 Y39.234 E10.77170
G1 X84.980 Y37.620 E10.85579
G1 X86.571 Y36.380 E10.93988
G1 X88.431 Y35.599 E11.02396
G1 X90.430 Y35.333 E11.10805
G1 X92.429 Y35.599 E11.19214
G1 X94.289 Y36.380 E11.27623
G1 X95.880 Y37.620 E11.36031
G1 X97.090 Y39.234 E11.44440
G1 X97.837 Y41.113 E11.52869
G1 X98.064 Y42.922 E11.60470
G1 X98.064 Y45.676 E11.71952
G1 X98.311 Y49.437 F2220.000
G1 X98.070 Y47.766 E11.78990 F691.200
G1 X97.170 Y45.766 E11.88133
G1 X97.103 Y45.645 E11.88711
G1 X95.654 Y43.972 E11.97938
G1 X93.702 Y42.720 E12.07607
G1 X91.566 Y42.097 E12.16881
G1 X89.342 Y42.092 E12.26152
G1 X87.221 Y42.701 E12.35353
G1 X87.012 Y42.803 E12.36323
G1 X85.242 Y43.941 E12.45093
G1 X83.796 Y45.595 E12.54254
G1 X83.717 Y45.709 E12.54832
G1 X82.802 Y47.719 E12.64039
G1 X82.551 Y49.429 E12.71244
G1 X82.241 Y49.407 E12.72540
G1 X82.239 Y42.887 E12.99720
G1 X82.479 Y40.973 E13.07763
G1 X83.280 Y38.959 E13.16797
G1 X84.579 Y37.227 E13.25825
G1 X86.287 Y35.895 E13.34853
G1 X88.284 Y35.057 E13.43880
G1 X90.430 Y34.771 E13.52908
G1 X92.576 Y35.057 E13.61936
G1 X94.573 Y35.895 E13.70963
G1 X96.281 Y37.227 E13.79991
G1 X97.580 Y38.959 E13.89019
G1 X98.381 Y40.973 E13.98053
G1 X98.621 Y42.887 E14.06096
G1 X98.621 Y49.415 E14.33311
G1 X98.386 Y49.432 E14.34295
G1 X98.508 Y48.977 F2220.000
G1 X98.532 Y49.722 F2220.000
G1 X98.334 Y51.438 E14.41495 F691.200
G1 X98.184 Y52.144 E14.44505
G1 X97.928 Y52.864 E14.47689
G1 X97.238 Y54.292 E14.54303
G1 X96.372 Y55.376 E14.60086
G1 X95.763 Y56.001 E14.63726
G1 X95.281 Y56.383 E14.66288
G1 X94.025 Y57.178 E14.72487
G1 X93.691 Y57.333 E14.74022
G1 X92.630 Y57.693 E14.78689
G1 X91.524 Y57.949 E14.83424
G1 X91.173 Y57.981 E14.84892
G1 X89.686 Y57.983 E14.91091
G1 X89.229 Y57.931 E14.93010
G1 X88.230 Y57.692 E14.97294
G1 X87.017 Y57.269 E15.02648
G1 X86.836 Y57.177 E15.03496
G1 X85.578 Y56.384 E15.09696
G1 X85.133 Y56.032 E15.12060
G1 X84.491 Y55.373 E15.15897
G1 X83.595 Y54.253 E15.21876
G1 X82.928 Y52.865 E15.28295
G1 X82.689 Y52.191 E15.31278
G1 X82.527 Y51.437 E15.34493
G1 X82.324 Y49.713 E15.41727
G1 X82.533 Y47.602 F2220.000
G1 X82.870 Y46.051 E15.48344 F720.000
G1 X83.688 Y43.010 F2220.000
G1 X83.959 Y43.280 E15.49975 F1080.000
G1 X84.337 Y42.853 E15.52408
G1 X83.762 Y42.278 E15.55874
G1 X83.852 Y41.562 E15.58949
G1 X84.828 Y42.538 E15.64830
G1 X85.318 Y42.223 E15.67315
G1 X84.020 Y40.925 E15.75140
G1 X84.249 Y40.349 E15.77784
G1 X85.808 Y41.908 E15.87183
G1 X86.299 Y41.593 E15.89667
G1 X84.478 Y39.772 E16.00641
G1 X84.792 Y39.280 E16.03128
G1 X86.843 Y41.331 E16.15490
G1 X87.468 Y41.151 E16.18265
G1 X85.137 Y38.820 E16.32318
G1 X85.482 Y38.360 E16.34771
G1 X88.094 Y40.971 E16.50515
G1 X88.720 Y40.792 E16.53291
G1 X85.901 Y37.973 E16.70281
G1 X86.354 Y37.620 E16.72727
G1 X89.376 Y40.642 E16.90944
G1 X90.183 Y40.644 E16.94385
G1 X86.807 Y37.267 E17.14740
G1 X87.333 Y36.988 E17.17280
G1 X90.991 Y40.646 E17.39329
G1 X91.798 Y40.647 E17.42770
G1 X87.900 Y36.750 E17.66265
G1 X88.468 Y36.512 E17.68888
G1 X92.890 Y40.934 E17.95544
G1 X94.028 Y41.266 E18.00597
G1 X89.150 Y36.389 E18.29998
G1 X89.861 Y36.294 E18.33055
G1 X95.836 Y42.269 E18.69072
G1 X97.128 Y42.756 F2220.000
G1 X90.652 Y36.279 E19.08111 F1080.000
G1 X91.581 Y36.403 E19.12107
G1 X97.013 Y41.834 E19.44848
G1 X96.639 Y40.655 E19.50121
G1 X92.741 Y36.757 E19.73617
G1 X94.904 Y38.115 F2220.000
G1 X95.356 Y38.567 E19.76339 F1080.000
G1 X97.990 Y46.052 F2220.000
G1 X98.328 Y47.626 E19.83051 F720.000
M106 S255
M104 S195 ; set temperature
G1 F1776
G1 X97.997 Y46.082 E12.23051
G1 E11.83051 F9000.00000
G92 E0
G1 Z0.400 F2220.000
G1 X98.269 Y49.443 F2220.000
G1 E8.00000 F9000.00000
G1 X98.331 Y49.968 E8.01809 F600.000
G1 X98.043 Y52.066 E8.09051
G1 X97.947 Y52.372 E8.10147
G1 X97.198 Y54.011 E8.16312
G1 X97.043 Y54.291 E8.17408
G1 X95.660 Y55.889 E8.24634
G1 X95.407 Y56.085 E8.25730
G1 X93.891 Y57.059 E8.31896
G1 X93.603 Y57.200 E8.32993
G1 X91.568 Y57.788 E8.40238
G1 X89.452 Y57.803 E8.47475
G1 X89.135 Y57.754 E8.48574
G1 X87.405 Y57.246 E8.54739
G1 X87.105 Y57.135 E8.55834
G1 X85.326 Y55.997 E8.63060
G1 X85.093 Y55.776 E8.64157
G1 X83.913 Y54.413 E8.70322
G1 X83.730 Y54.150 E8.71420
G1 X82.858 Y52.226 E8.78645
G1 X82.794 Y51.912 E8.79740
G1 X82.537 Y50.128 E8.85905
G1 X82.537 Y49.808 E8.87001
G1 X82.794 Y48.024 E8.93166
G1 X82.858 Y47.710 E8.94261
G1 X83.730 Y45.786 E9.01487
G1 X83.913 Y45.523 E9.02584
G1 X85.093 Y44.161 E9.08749
G1 X85.326 Y43.940 E9.09846
G1 X87.105 Y42.801 E9.17072
G1 X87.405 Y42.690 E9.18167
G1 X89.135 Y42.182 E9.24333
G1 X89.452 Y42.133 E9.25431 F600.000
G1 X91.568 Y42.148 E9.32669
G1 X93.603 Y42.736 E9.39913
G1 X93.891 Y42.877 E9.41011
G1 X95.407 Y43.852 E9.47176
G1 X95.660 Y44.048 E9.48272
G1 X97.043 Y45.645 E9.55498
G1 X97.198 Y45.925 E9.56594
G1 X97.947 Y47.565 E9.62759
G1 X98.043 Y47.870 E9.63855
G1 X98.258 Y49.369 E9.69033
G1 X98.730 Y49.637 F2220.000
G1 X97.739 Y45.053 F2220.000
G1 X96.292 Y43.381 E9.76598 F722.280
G1 X95.935 Y43.104 E9.78143
G1 X94.341 Y42.080 E9.84625
G1 X93.933 Y41.880 E9.86177
G1 X91.700 Y41.235 E9.94127
G1 X89.386 Y41.219 E10.02045
G1 X88.936 Y41.288 E10.03602
G1 X87.117 Y41.822 E10.10084
G1 X86.695 Y41.978 E10.11625
G1 X84.759 Y43.217 E10.19486
G1 X84.431 Y43.529 E10.21034
G1 X83.123 Y45.038 E10.27865
G1 X83.121 Y42.743 E10.35717
G1 X83.322 Y41.192 E10.41065
G1 X84.040 Y39.385 E10.47716
G1 X85.201 Y37.837 E10.54335
G1 X86.727 Y36.647 E10.60954
G1 X88.512 Y35.898 E10.67574
G1 X90.430 Y35.643 E10.74193
G1 X92.348 Y35.898 E10.80813
G1 X94.133 Y36.647 E10.87432
G1 X95.659 Y37.837 E10.94051
G1 X96.820 Y39.385 E11.00671
G1 X97.538 Y41.192 E11.07321
G1 X97.739 Y42.743 E11.12672
G1 X97.739 Y44.978 E11.20315
G1 X98.196 Y46.490 F2220.000
G1 X97.980 Y46.537 E11.21071 F722.280
G1 X97.607 Y45.719 E11.24149
G1 X97.419 Y45.382 E11.25468
G1 X95.976 Y43.714 E11.33012
G1 X95.671 Y43.478 E11.34332
G1 X94.116 Y42.478 E11.40656
G1 X93.768 Y42.308 E11.41981
G1 X91.634 Y41.692 E11.49578
G1 X89.419 Y41.676 E11.57156
G1 X89.035 Y41.735 E11.58484
G1 X87.261 Y42.256 E11.64808
G1 X86.900 Y42.389 E11.66125
G1 X85.042 Y43.578 E11.73669
G1 X84.762 Y43.845 E11.74991
G1 X83.552 Y45.242 E11.81315
G1 X83.330 Y45.559 E11.82639
G1 X82.884 Y46.545 E11.86340
G1 X82.668 Y46.499 E11.87097
G1 X82.664 Y42.713 E12.00044
G1 X82.876 Y41.076 E12.05691
G1 X83.638 Y39.160 E12.12745
G1 X84.872 Y37.514 E12.19781
G1 X86.494 Y36.249 E12.26818
G1 X88.391 Y35.453 E12.33854
G1 X90.430 Y35.181 E12.40890
G1 X92.469 Y35.453 E12.47926
G1 X94.366 Y36.249 E12.54962
G1 X95.988 Y37.514 E12.61998
G1 X97.222 Y39.160 E12.69034
G1 X97.984 Y41.076 E12.76089
G1 X98.196 Y42.714 E12.81736
G1 X98.196 Y46.415 E12.94398
G1 X98.653 Y46.490 F2220.000
G1 X98.653 Y49.959 E13.06261 F600.000
G1 X98.538 Y51.456 E13.11398
G1 X98.122 Y52.920 E13.16605
G1 X97.443 Y54.283 E13.21811
G1 X96.526 Y55.497 E13.27018
G1 X95.401 Y56.523 E13.32225
G1 X94.107 Y57.324 E13.37432
G1 X92.687 Y57.874 E13.42639
G1 X91.191 Y58.154 E13.47846
G1 X89.669 Y58.154 E13.53053
G1 X88.173 Y57.874 E13.58260
G1 X86.753 Y57.324 E13.63466
G1 X85.459 Y56.523 E13.68673
G1 X84.334 Y55.497 E13.73880
G1 X83.417 Y54.283 E13.79087
G1 X82.738 Y52.920 E13.84294
G1 X82.322 Y51.455 E13.89504
G1 X82.215 Y50.180 E13.93879
G1 X82.207 Y42.684 E14.19520
G1 X82.430 Y40.961 E14.25465
G1 X83.236 Y38.934 E14.32924
G1 X84.543 Y37.191 E14.40377
G1 X86.261 Y35.851 E14.47829
G1 X88.270 Y35.008 E14.55282
G1 X90.430 Y34.720 E14.62735
G1 X92.178 Y34.953 E14.68765
G1 X92.590 Y35.008 E14.70188 F600.000
G1 X94.599 Y35.851 E14.77640
G1 X96.317 Y37.191 E14.85093
G1 X97.624 Y38.934 E14.92546
G1 X98.430 Y40.961 E15.00005
G1 X98.653 Y42.684 E15.05950
G1 X98.653 Y46.415 E15.18713
G1 X98.220 Y46.740 F2220.000
G1 X98.137 Y46.737 F2220.000
G1 X98.287 Y47.425 E15.21121 F601.900
G1 X98.344 Y47.795 E15.22402
G1 X98.411 Y48.726 E15.25594
G1 X97.240 Y44.121 F2220.000
G1 X97.468 Y43.893 E15.26717 F902.850
