; generated by Slic3r 1.2.9 on 2016-07-12 at 07:02:24

; external perimeters extrusion width = 0.50mm
; perimeters extrusion width = 0.50mm
; infill extrusion width = 0.60mm
; solid infill extrusion width = 0.50mm
; top infill extrusion width = 0.50mm

M107
M104 S200 ; set temperature
G28 ; home all axes

M109 S200 ; wait for temperature to be reached
G21 ; set units to millimeters
G90 ; use absolute coordinates
M82 ; use absolute distances for extrusion
G92 E0
G1 E-8.00000 F9000.00000
G92 E0
G1 Z0.200 F2220.000
G1 X28.424 Y9.898 F2220.000
G1 E8.00000 F9000.00000
G1 X29.545 Y8.336 E8.08016 F864.000
G1 X31.199 Y7.356 E8.16032
G1 X32.700 Y7.109 E8.22372
G1 X47.700 Y7.109 E8.84906
G1 X49.582 Y7.504 E8.92922
G1 X51.144 Y8.625 E9.00938 F864.000
G1 X52.124 Y10.279 E9.08954
G1 X52.371 Y11.780 E9.15295
G1 X52.371 Y26.780 E9.77828
G1 X51.976 Y28.662 E9.85844
G1 X50.855 Y30.224 E9.93860
G1 X49.201 Y31.204 E10.01876
G1 X47.700 Y31.451 E10.08217
G1 X32.700 Y31.451 E10.70751
G1 X30.818 Y31.056 E10.78766
G1 X29.256 Y29.935 E10.86782
G1 X28.276 Y28.281 E10.94798
G1 X28.029 Y26.780 E11.01139
G1 X28.029 Y11.780 E11.63673
G1 X28.409 Y9.972 E11.71376
G1 X28.980 Y10.023 F2220.000
G1 X30.090 Y8.599 E11.78903 F864.000
G1 X31.701 Y7.789 E11.86420
G1 X32.700 Y7.666 E11.90615
G1 X47.700 Y7.666 E12.53149
G1 X49.459 Y8.061 E12.60666
G1 X50.881 Y9.170 E12.68184 F864.000
G1 X51.691 Y10.781 E12.75701
G1 X51.814 Y11.780 E12.79896
G1 X51.814 Y26.780 E13.42430
G1 X51.419 Y28.539 E13.49947
G1 X50.310 Y29.961 E13.57464
G1 X48.699 Y30.771 E13.64981
G1 X47.700 Y30.894 E13.69176
G1 X32.700 Y30.894 E14.31710
G1 X30.941 Y30.499 E14.39227
G1 X29.519 Y29.390 E14.46745
G1 X28.709 Y27.779 E14.54262
G1 X28.586 Y26.780 E14.58457
G1 X28.586 Y11.780 E15.20991
G1 X28.964 Y10.096 E15.28184
G1 X29.536 Y10.158 F2220.000
G1 X30.633 Y8.885 E15.35189 F864.000
G1 X32.700 Y8.223 E15.44238
G1 X47.700 Y8.223 E16.06772
G1 X49.328 Y8.617 E16.13755
G1 X50.595 Y9.713 E16.20738 F864.000
G1 X51.257 Y11.780 E16.29786
G1 X51.257 Y26.780 E16.92320
G1 X50.863 Y28.408 E16.99303
G1 X49.767 Y29.675 E17.06286
G1 X47.700 Y30.337 E17.15335
G1 X32.700 Y30.337 E17.77869
G1 X31.072 Y29.943 E17.84852
G1 X29.805 Y28.847 E17.91835
G1 X29.143 Y26.780 E18.00883
G1 X29.143 Y11.780 E18.63417
G1 X29.518 Y10.231 E18.70063
G1 F1776
G1 X30.525 Y9.015 E11.10063
G1 E10.70063 F9000.00000
G92 E0
G1 X46.286 Y22.787 F2220.000
G1 E8.00000 F9000.00000
G1 X46.286 Y25.366 E8.10752 F691.200
G1 X43.864 Y25.366 E8.20848
G1 X43.864 Y22.367 E8.33351
G1 X44.252 Y22.596 E8.35229
G1 X45.279 Y22.845 E8.39633
G1 X46.211 Y22.791 E8.43527
G1 X43.307 Y21.623 F2220.000
G1 X42.557 Y21.623 E8.46653 F691.200
G1 X42.557 Y20.435 E8.51604
G1 X42.818 Y20.377 E8.52718
G1 X43.097 Y20.964 E8.55430
G1 X43.698 Y21.621 E8.59142
G1 X44.464 Y22.075 E8.62853
G1 X45.329 Y22.284 E8.66564
G1 X46.218 Y22.233 E8.70275
G1 X46.843 Y22.001 E8.73053
G1 X46.843 Y25.923 E8.89402
G1 X43.307 Y25.923 E9.04143
G1 X43.307 Y21.698 E9.21756
G1 F1776
G1 X42.557 Y21.623 E5.58891
G1 F1776
G1 X42.557 Y20.798 E1.61756
G1 E1.21756 F9000.00000
G92 E0
G1 X43.864 Y16.193 F2220.000
G1 E8.00000 F9000.00000
G1 X43.864 Y13.194 E8.12502 F691.200
G1 X46.286 Y13.194 E8.22598
G1 X46.286 Y15.773 E8.33351
G1 X45.279 Y15.715 E8.37557
G1 X44.252 Y15.964 E8.41961
G1 X43.929 Y16.155 E8.43527
G1 X43.307 Y16.937 F2220.000
G1 X43.307 Y12.637 E8.61453 F691.200
G1 X46.843 Y12.637 E8.76194
G1 X46.843 Y16.559 E8.92542
G1 X46.218 Y16.327 E8.95321
G1 X45.329 Y16.276 E8.99032
G1 X44.464 Y16.485 E9.02743
G1 X43.698 Y16.939 E9.06454
G1 X43.097 Y17.596 E9.10165
G1 X42.818 Y18.183 E9.12878
G1 X42.557 Y18.125 E9.13992
G1 X42.557 Y16.937 E9.18942
G1 X43.232 Y16.937 E9.21756
G1 X42.750 Y16.380 F2220.000
G1 X42.750 Y12.080 E9.39683 F691.200
G1 X47.400 Y12.080 E9.59068
G1 X47.400 Y17.601 E9.82083
G1 X46.781 Y17.130 E9.85324
G1 X46.103 Y16.879 E9.88342
G1 X45.380 Y16.837 E9.91360
G1 X44.676 Y17.007 E9.94378
G1 X44.053 Y17.376 E9.97397
G1 X43.565 Y17.910 E10.00415
G1 X43.254 Y18.564 E10.03433
G1 X43.147 Y19.280 E10.06451
G1 X43.254 Y19.996 E10.09469
G1 X43.565 Y20.650 E10.12488
G1 X44.053 Y21.184 E10.15506
G1 X44.676 Y21.553 E10.18524
G1 X45.380 Y21.723 E10.21542
G1 X46.103 Y21.681 E10.24560
G1 X46.781 Y21.430 E10.27578
G1 X47.400 Y20.959 E10.30819
G1 X47.400 Y26.480 E10.53834
G1 X42.750 Y26.480 E10.73219
G1 X42.750 Y22.180 E10.91146
G1 X42.000 Y22.180 E10.94273
G1 X42.000 Y16.380 E11.18452
G1 X42.675 Y16.380 E11.21266
G1 X43.250 Y16.380 F2220.000
G1 X44.199 Y15.318 F2220.000
G1 X44.472 Y15.590 E11.22932 F1080.000
G1 X45.129 Y15.431 E11.25848
G1 X44.199 Y14.502 E11.31521
G1 X44.199 Y13.686 E11.35041
G1 X45.917 Y15.403 E11.45524
G1 X45.951 Y14.622 E11.48902
G1 X44.858 Y13.529 E11.55568
G1 X45.674 Y13.529 E11.59088
G1 X45.951 Y13.806 E11.60775
G1 X42.633 Y18.427 F2220.000
G1 X42.573 Y19.236 E11.67801 F720.000
G1 X42.633 Y20.133 E11.75579
G1 X45.951 Y23.427 F2220.000
G1 X45.675 Y23.151 E11.77692 F1080.000
G1 X44.541 Y23.044 E11.83878
G1 X45.951 Y24.453 E11.94700
G1 X45.502 Y25.031 E11.98671
G1 X44.199 Y23.728 E12.08674
G1 X44.199 Y24.754 E12.14246
G1 X44.476 Y25.031 E12.16368
G1 F1776
G1 X44.199 Y24.754 E10.28224
G1 F1776
G1 X44.199 Y23.728 E5.34211
G1 F1776
G1 X44.314 Y23.842 E4.56368
G1 E4.16368 F9000.00000
G92 E0
G1 X36.536 Y22.367 F2220.000
G1 E8.00000 F9000.00000
G1 X36.536 Y25.366 E8.12502 F691.200
G1 X34.114 Y25.366 E8.22598
G1 X34.114 Y22.787 E8.33351
G1 X35.121 Y22.845 E8.37557
G1 X36.148 Y22.596 E8.41961
G1 X36.471 Y22.405 E8.43527
G1 X37.093 Y21.623 F2220.000
G1 X37.093 Y25.923 E8.61453 F691.200
G1 X33.557 Y25.923 E8.76194
G1 X33.557 Y22.001 E8.92542
G1 X34.182 Y22.233 E8.95321
G1 X35.071 Y22.284 E8.99032
G1 X35.936 Y22.075 E9.02743
G1 X36.702 Y21.621 E9.06454
G1 X37.303 Y20.964 E9.10165
G1 X37.582 Y20.377 E9.12878
G1 X37.843 Y20.435 E9.13992
G1 X37.843 Y21.623 E9.18942
G1 X37.168 Y21.623 E9.21756
G1 F1776
G1 X37.140 Y23.201 E1.61757
G1 E1.21756 F9000.00000
G92 E0
G1 X36.536 Y16.193 F2220.000
G1 E8.00000 F9000.00000
G1 X36.148 Y15.964 E8.01879 F691.200
G1 X35.121 Y15.715 E8.06283
G1 X34.114 Y15.773 E8.10489
G1 X34.114 Y13.194 E8.21241
G1 X36.536 Y13.194 E8.31337
G1 X36.536 Y16.118 E8.43527
G1 X37.093 Y16.937 F2220.000
G1 X37.843 Y16.937 E8.46653 F691.200
G1 X37.843 Y18.125 E8.51604
G1 X37.582 Y18.183 E8.52718
G1 X37.303 Y17.596 E8.55430
G1 X36.702 Y16.939 E8.59142
G1 X35.936 Y16.485 E8.62853
G1 X35.071 Y16.276 E8.66564
G1 X34.182 Y16.327 E8.70275
G1 X33.557 Y16.559 E8.73053
G1 X33.557 Y12.637 E8.89402
G1 X37.093 Y12.637 E9.04143
G1 X37.093 Y16.862 E9.21756
G1 X37.650 Y16.380 F2220.000
G1 X38.400 Y16.380 E9.24883 F691.200
G1 X38.400 Y22.180 E9.49063
G1 X37.650 Y22.180 E9.52190
G1 X37.650 Y26.480 E9.70116
G1 X33.000 Y26.480 E9.89501
G1 X33.000 Y20.959 E10.12517
G1 X33.618 Y21.430 E10.15757
G1 X34.297 Y21.681 E10.18775
G1 X35.020 Y21.723 E10.21793
G1 X35.724 Y21.553 E10.24812
G1 X36.347 Y21.184 E10.27830
G1 X36.835 Y20.650 E10.30848
G1 X37.146 Y19.996 E10.33866
G1 X37.253 Y19.280 E10.36884
G1 X37.146 Y18.564 E10.39902
G1 X36.835 Y17.910 E10.42921
G1 X36.347 Y17.376 E10.45939
G1 X35.724 Y17.007 E10.48957
G1 X35.020 Y16.837 E10.51975
G1 X34.297 Y16.879 E10.54993
G1 X33.619 Y17.130 E10.58012
G1 X33.000 Y17.601 E10.61252
G1 X33.000 Y12.080 E10.84267
G1 X37.650 Y12.080 E11.03653
G1 X37.650 Y16.305 E11.21266
G1 X37.650 Y16.880 F2220.000
G1 X37.767 Y18.427 F2220.000
G1 X37.827 Y19.236 E11.28292 F720.000
G1 X37.767 Y20.133 E11.36070
G1 X36.201 Y23.242 F2220.000
G1 X35.928 Y22.970 E11.37735 F1080.000
G1 X35.271 Y23.129 E11.40651
G1 X36.201 Y24.058 E11.46324
G1 X36.201 Y24.874 E11.49845
G1 X34.483 Y23.157 E11.60327
G1 X34.449 Y23.938 E11.63705
G1 X35.542 Y25.031 E11.70371
G1 X34.726 Y25.031 E11.73892
G1 X34.449 Y24.754 E11.75579
G1 F1776
G1 X34.726 Y25.031 E9.87436
G1 F1776
G1 X35.542 Y25.031 E5.94752
G1 F1776
G1 X35.278 Y24.767 E4.15578
G1 E3.75579 F9000.00000
G92 E0
G1 X34.725 Y15.409 F2220.000
G1 E8.00000 F9000.00000
G1 X34.449 Y15.133 E8.02114 F1080.000
G1 X34.449 Y14.107 E8.07686
G1 X35.859 Y15.516 E8.18508
G1 X36.201 Y14.832 E8.22662
G1 X34.898 Y13.529 E8.32664
G1 X35.924 Y13.529 E8.38237
G1 X36.201 Y13.806 E8.40359
M106 S255
M104 S195 ; set temperature
G1 F1776
G1 X35.924 Y13.529 E6.52212
G1 F1776
G1 X34.898 Y13.529 E1.58200
G1 F1776
G1 X35.012 Y13.644 E0.80359
G1 E0.40359 F9000.00000
G92 E0
G1 Z0.400 F2220.000
G1 X43.614 Y21.929 F2220.000
G1 E8.00000 F9000.00000
G1 X44.347 Y22.362 E8.02913 F600.000
G1 X45.301 Y22.594 E8.06272
G1 X46.281 Y22.536 E8.09630
G1 X46.536 Y22.442 E8.10558
G1 X46.536 Y25.616 E8.21413
G1 X43.614 Y25.616 E8.31407
G1 X43.614 Y22.004 E8.43763
G1 F1776
G1 X44.347 Y22.362 E4.50899
G1 F1776
G1 X45.088 Y22.542 E0.83763
G1 E0.43763 F9000.00000
G92 E0
G1 X43.614 Y16.631 F2220.000
G1 E8.00000 F9000.00000
G1 X43.614 Y12.944 E8.12613 F600.000
G1 X46.536 Y12.944 E8.22606
G1 X46.536 Y16.118 E8.33461
G1 X46.281 Y16.023 E8.34389
G1 X45.301 Y15.966 E8.37748
G1 X44.347 Y16.198 E8.41106
G1 X43.679 Y16.593 E8.43763
G1 X43.157 Y16.787 F2220.000
G1 X43.157 Y12.487 E8.58471 F657.018
G1 X46.993 Y12.487 E8.71592
G1 X46.993 Y16.774 E8.86256
G1 X46.187 Y16.476 E8.89196
G1 X45.343 Y16.427 E8.92088
G1 X44.521 Y16.626 E8.94980
G1 X43.794 Y17.056 E8.97871
G1 X43.223 Y17.680 E9.00763
G1 X42.860 Y18.444 E9.03655
G1 X42.735 Y19.280 E9.06547
G1 X42.860 Y20.116 E9.09439
G1 X43.223 Y20.880 E9.12331
G1 X43.794 Y21.504 E9.15223
G1 X44.521 Y21.934 E9.18114
G1 X45.343 Y22.133 E9.21006
G1 X46.187 Y22.084 E9.23898
G1 X46.993 Y21.786 E9.26838
G1 X46.993 Y26.073 E9.41502
G1 X43.157 Y26.073 E9.54623
G1 X43.157 Y21.773 E9.69331
G1 X42.407 Y21.773 E9.71897
G1 X42.407 Y16.787 E9.88951
G1 X43.082 Y16.787 E9.91260
G1 X42.700 Y16.330 F2220.000
G1 X42.700 Y12.030 E10.05969 F600.000
G1 X47.450 Y12.030 E10.22216
G1 X47.450 Y17.530 E10.41029
G1 X47.225 Y17.530 E10.41800
G1 X46.757 Y17.174 E10.43810
G1 X46.092 Y16.928 E10.46235
G1 X45.384 Y16.887 E10.48661
G1 X44.695 Y17.054 E10.51086
G1 X44.085 Y17.415 E10.53511
G1 X43.607 Y17.938 E10.55937
G1 X43.302 Y18.579 E10.58362
G1 X43.197 Y19.280 E10.60787
G1 X43.302 Y19.981 E10.63213
G1 X43.607 Y20.622 E10.65638
G1 X44.085 Y21.145 E10.68064
G1 X44.695 Y21.506 E10.70489
G1 X45.384 Y21.673 E10.72914
G1 X46.092 Y21.632 E10.75340
G1 X46.757 Y21.386 E10.77765
G1 X47.225 Y21.030 E10.79774
G1 X47.450 Y21.030 E10.80545
G1 X47.450 Y26.530 E10.99359
G1 X42.700 Y26.530 E11.15606
G1 X42.700 Y22.230 E11.30315
G1 X41.950 Y22.230 E11.32880
G1 X41.950 Y16.330 E11.53061
G1 X42.625 Y16.330 E11.55370
G1 X43.200 Y16.330 F2220.000
G1 X43.031 Y17.551 F2220.000
G1 X42.718 Y18.017 E11.57289 F600.000
G1 X42.647 Y18.331 E11.58392
G1 X42.647 Y20.229 F2220.000
G1 X42.718 Y20.543 E11.59495 F600.000
G1 X43.031 Y21.009 E11.61413
G1 X43.886 Y22.727 F2220.000
G1 X44.114 Y22.498 E11.62577 F821.272
G1 X44.608 Y22.684 E11.64478
G1 X43.886 Y23.407 E11.68158
G1 X43.886 Y24.087 E11.70607
G1 X45.156 Y22.817 E11.77075
G1 X45.812 Y22.842 E11.79437
G1 X43.886 Y24.768 E11.89243
G1 X43.989 Y25.344 E11.91352
G1 X46.264 Y23.069 E12.02934
G1 X46.264 Y23.750 E12.05383
G1 X44.670 Y25.344 E12.13502
G1 X45.350 Y25.344 E12.15951
G1 X46.264 Y24.430 E12.20606
G1 X46.264 Y25.110 E12.23055
G1 X46.030 Y25.344 E12.24246
G1 F1776
G1 X46.264 Y25.110 E10.64984
G1 F1776
G1 X46.264 Y24.430 E7.37461
G1 F1776
G1 X45.863 Y24.831 E4.64246
G1 E4.24246 F9000.00000
G92 E0
G1 X46.031 Y15.742 F2220.000
G1 E8.00000 F9000.00000
G1 X46.264 Y15.510 E8.01289 F821.272
G1 X46.264 Y14.770 E8.04185
G1 X45.332 Y15.702 E8.09344
G1 X44.420 Y15.874 E8.12980
G1 X46.264 Y14.030 E8.23190
G1 X46.264 Y13.290 E8.26086
G1 X43.886 Y15.669 E8.39254
G1 X43.886 Y14.929 E8.42150
G1 X45.599 Y13.216 E8.51636
G1 X44.859 Y13.216 E8.54531
G1 X43.886 Y14.189 E8.59922
G1 X43.886 Y13.450 E8.62818
G1 X44.120 Y13.216 E8.64113
G1 F1776
G1 X43.886 Y13.450 E7.04856
G1 F1776
G1 X43.886 Y14.189 E3.48721
G1 F1776
G1 X44.245 Y13.830 E1.04113
G1 E0.64113 F9000.00000
G92 E0
G1 X36.786 Y21.929 F2220.000
G1 E8.00000 F9000.00000
G1 X36.786 Y25.616 E8.12613 F600.000
G1 X33.864 Y25.616 E8.22606
G1 X33.864 Y22.442 E8.33462
G1 X34.119 Y22.536 E8.34389
G1 X35.099 Y22.594 E8.37748
G1 X36.053 Y22.362 E8.41106
G1 X36.721 Y21.967 E8.43763
G1 F1776
G1 X36.749 Y23.545 E0.83763
G1 E0.43763 F9000.00000
G92 E0
G1 X36.786 Y16.631 F2220.000
G1 E8.00000 F9000.00000
G1 X36.053 Y16.198 E8.02913 F600.000
G1 X35.099 Y15.966 E8.06272
G1 X34.119 Y16.023 E8.09630
G1 X33.864 Y16.118 E8.10558
G1 X33.864 Y12.944 E8.21413
G1 X36.786 Y12.944 E8.31406
G1 X36.786 Y16.556 E8.43763
G1 X37.243 Y16.787 F2220.000
G1 X37.993 Y16.787 E8.46328 F657.018
G1 X37.993 Y21.773 E8.63382
G1 X37.243 Y21.773 E8.65948
G1 X37.243 Y26.073 E8.80656
G1 X33.407 Y26.073 E8.93777
G1 X33.407 Y21.786 E9.08441
G1 X34.213 Y22.084 E9.11381
G1 X35.057 Y22.133 E9.14273
G1 X35.879 Y21.934 E9.17165
G1 X36.606 Y21.504 E9.20057
G1 X37.177 Y20.880 E9.22949
G1 X37.540 Y20.116 E9.25840
G1 X37.665 Y19.280 E9.28732
G1 X37.540 Y18.444 E9.31624
G1 X37.177 Y17.680 E9.34516
G1 X36.606 Y17.056 E9.37408
G1 X35.879 Y16.626 E9.40300
G1 X35.057 Y16.427 E9.43192
G1 X34.213 Y16.476 E9.46083
G1 X33.407 Y16.774 E9.49023
G1 X33.407 Y12.487 E9.63687
G1 X37.243 Y12.487 E9.76808
G1 X37.243 Y16.712 E9.91260
G1 X37.700 Y16.330 F2220.000
G1 X38.450 Y16.330 E9.93826 F600.000
G1 X38.450 Y22.230 E10.14007
G1 X37.700 Y22.230 E10.16572
G1 X37.700 Y26.530 E10.31281
G1 X32.950 Y26.530 E10.47529
G1 X32.950 Y21.030 E10.66342
G1 X33.175 Y21.030 E10.67113
G1 X33.643 Y21.386 E10.69122
G1 X34.308 Y21.632 E10.71547
G1 X35.016 Y21.673 E10.73973
G1 X35.705 Y21.506 E10.76398
G1 X36.315 Y21.145 E10.78824
G1 X36.793 Y20.622 E10.81249
G1 X37.098 Y19.981 E10.83674
G1 X37.203 Y19.280 E10.86100
G1 X37.098 Y18.579 E10.88525
G1 X36.793 Y17.938 E10.90950
G1 X36.315 Y17.415 E10.93376
G1 X35.705 Y17.054 E10.95801
G1 X35.016 Y16.887 E10.98226
G1 X34.308 Y16.928 E11.00652
G1 X33.643 Y17.174 E11.03077
G1 X33.175 Y17.530 E11.05087
G1 X32.950 Y17.530 E11.05858
G1 X32.950 Y12.030 E11.24671
G1 X37.700 Y12.030 E11.40918
G1 X37.700 Y16.255 E11.55370
G1 X37.700 Y16.830 F2220.000
G1 X37.369 Y17.551 F2220.000
G1 X37.682 Y18.017 E11.57289 F600.000
G1 X37.753 Y18.331 E11.58392
G1 X37.753 Y20.229 F2220.000
G1 X37.682 Y20.543 E11.59495 F600.000
G1 X37.369 Y21.009 E11.61413
G1 X34.369 Y22.818 F2220.000
G1 X34.136 Y23.050 E11.62703 F821.272
G1 X34.136 Y23.790 E11.65598
G1 X35.068 Y22.858 E11.70757
G1 X35.980 Y22.686 E11.74393
G1 X34.136 Y24.530 E11.84604
G1 X34.136 Y25.270 E11.87500
G1 X36.514 Y22.891 E12.00668
G1 X36.514 Y23.631 E12.03563
G1 X34.801 Y25.344 E12.13049
G1 X35.541 Y25.344 E12.15945
G1 X36.514 Y24.371 E12.21335
G1 X36.514 Y25.110 E12.24231
G1 X36.280 Y25.344 E12.25526
G1 F1776
G1 X36.514 Y25.110 E10.66265
G1 F1776
G1 X36.514 Y24.371 E7.10130
G1 F1776
G1 X36.155 Y24.730 E4.65526
G1 E4.25526 F9000.00000
G92 E0
G1 X36.286 Y16.062 F2220.000
G1 E8.00000 F9000.00000
G1 X36.514 Y15.833 E8.01163 F821.272
G1 X36.514 Y15.153 E8.03613
G1 X35.792 Y15.876 E8.07293
G1 X35.244 Y15.743 E8.09321
G1 X36.514 Y14.473 E8.15788
G1 X36.514 Y13.792 E8.18237
G1 X34.588 Y15.718 E8.28043
G1 X34.136 Y15.491 E8.29867
G1 X36.411 Y13.216 E8.41449
G1 X35.730 Y13.216 E8.43899
G1 X34.136 Y14.810 E8.52017
G1 X34.136 Y14.130 E8.54466
G1 X35.050 Y13.216 E8.59121
G1 X34.370 Y13.216 E8.61570
G1 X34.136 Y13.450 E8.62761
G1 F1776
G1 X34.370 Y13.216 E7.03504
G1 F1776
G1 X35.050 Y13.216 E3.75980
G1 F1776
G1 X34.649 Y13.617 E1.02761
G1 E0.62761 F9000.00000
G92 E0
G1 Z0.600 F2220.000
G1 X43.614 Y21.929 F2220.000
G1 E8.00000 F9000.00000
G1 X44.347 Y22.362 E8.02913 F600.000
