; generated by Slic3r 1.2.9 on 2016-07-06 at 15:02:02

; external perimeters extrusion width = 0.50mm
; perimeters extrusion width = 0.50mm
; infill extrusion width = 0.60mm
; solid infill extrusion width = 0.50mm
; top infill extrusion width = 0.50mm

M107
M104 S200 ; set temperature
G28 ; home all axes

M109 S200 ; wait for temperature to be reached
G21 ; set units to millimeters
G90 ; use absolute coordinates
M82 ; use absolute distances for extrusion
G92 E0
G1 E-8.00000 F9000.00000
G92 E0
G1 Z0.200 F2220.000
G1 X16.788 Y37.786 F2220.000
G1 E8.00000 F9000.00000
G1 X18.251 Y37.551 E8.06174 F864.000
G1 X18.453 Y37.551 E8.07016
G1 X19.712 Y37.724 E8.12316
G1 X62.309 Y49.649 E9.96728 F864.000
G1 X64.015 Y50.538 E10.04744
G1 X65.298 Y52.204 E10.13511
G1 X65.666 Y53.420 E10.18808
G1 X65.764 Y54.039 E10.21421
G1 X65.764 Y55.500 E10.27514
G1 X65.666 Y56.118 E10.30120
G1 X65.298 Y57.335 E10.35423
G1 X64.149 Y58.887 E10.43470
G1 X62.255 Y59.905 E10.52436
G1 X19.687 Y71.271 E12.36116
G1 X18.452 Y71.429 E12.41307
G1 X17.748 Y71.424 E12.44242
G1 X15.869 Y71.017 E12.52258
G1 X14.313 Y69.886 E12.60274
G1 X13.345 Y68.225 E12.68290
G1 X13.131 Y67.229 E12.72535
G1 X11.903 Y55.246 E13.22756
G1 X11.904 Y54.289 E13.26746
G1 X13.161 Y42.140 E13.77662
G1 X13.748 Y40.310 E13.85678
G1 X14.682 Y39.150 E13.91884
G1 X15.125 Y38.751 E13.94372
G1 X16.723 Y37.823 E14.02075
G1 X17.068 Y38.282 F2220.000
G1 X18.251 Y38.108 E14.07061 F864.000
G1 X18.453 Y38.108 E14.07903
G1 X19.562 Y38.260 E14.12570
G1 X62.159 Y50.186 E15.96983 F864.000
G1 X63.747 Y51.041 E16.04500
G1 X64.791 Y52.436 E16.11767
G1 X65.115 Y53.507 E16.16432
G1 X65.214 Y54.126 E16.19045
G1 X65.214 Y55.413 E16.24411
G1 X65.116 Y56.031 E16.27017
G1 X64.791 Y57.103 E16.31688
G1 X63.695 Y58.543 E16.39235
G1 X62.111 Y59.367 E16.46675
G1 X19.543 Y70.733 E18.30355
G1 X18.455 Y70.872 E18.34927
G1 X17.751 Y70.867 E18.37862
G1 X15.995 Y70.461 E18.45379
G1 X14.581 Y69.342 E18.52896
G1 X13.685 Y67.173 E18.62680
G1 X12.457 Y55.189 E19.12901
G1 X12.458 Y54.346 E19.16415
G1 X13.715 Y42.198 E19.67331
G1 X14.289 Y40.489 E19.74848
G1 X15.055 Y39.564 E19.79852
G1 X15.498 Y39.165 E19.82339
G1 X17.002 Y38.319 E19.89533
G1 X17.339 Y38.785 F2220.000
G1 X18.251 Y38.665 E19.93366 F864.000
G1 X18.453 Y38.665 E19.94208
G1 X19.412 Y38.797 E19.98243
G1 X62.009 Y50.722 E21.82656 F864.000
G1 X63.470 Y51.541 E21.89639
G1 X64.285 Y52.668 E21.95438
G1 X64.565 Y53.594 E21.99472
G1 X64.663 Y54.213 E22.02084
G1 X64.663 Y55.326 E22.06723
G1 X64.565 Y55.944 E22.09329
G1 X64.285 Y56.871 E22.13368
G1 X63.244 Y58.192 E22.20379
G1 X61.968 Y58.829 E22.26326
G1 X19.400 Y70.194 E24.10006
G1 X18.459 Y70.315 E24.13959
G1 X17.755 Y70.310 E24.16894
G1 X16.130 Y69.905 E24.23877
G1 X14.870 Y68.801 E24.30860
G1 X14.239 Y67.116 E24.38363
G1 X13.011 Y55.132 E24.88583
G1 X13.012 Y54.404 E24.91621
G1 X14.269 Y42.255 E25.42537
G1 X14.829 Y40.676 E25.49520
G1 X15.427 Y39.978 E25.53355
G1 X15.871 Y39.579 E25.55842
G1 X17.273 Y38.821 E25.62488
G1 F1776
G1 X18.251 Y38.665 E20.85974
G1 F1776
G1 X18.453 Y38.665 E19.88739
G1 F1776
G1 X18.836 Y38.718 E18.02488
G1 E17.62488 F9000.00000
G92 E0
G1 X19.736 Y55.080 F2220.000
G1 E8.00000 F9000.00000
G1 X18.564 Y55.080 E8.04885 F691.200
G1 X18.564 Y54.460 E8.07468
G1 X19.736 Y54.460 E8.12353
G1 X19.736 Y55.005 E8.14624
G1 X18.945 Y53.903 F2220.000
G1 X20.293 Y53.903 E8.20244 F691.200
G1 X20.293 Y55.637 E8.27473
G1 X18.007 Y55.637 E8.37002
G1 X18.007 Y53.354 E8.46519
G1 X18.096 Y51.209 E8.55469
G1 X18.391 Y51.185 E8.56703
G1 X18.930 Y53.829 E8.67952
G1 X19.400 Y53.346 F2220.000
G1 X20.850 Y53.346 E8.73998 F691.200
G1 X20.850 Y54.448 E8.78592
G1 X60.794 Y54.448 E10.45117
G1 X60.846 Y54.770 E10.46479
G1 X60.796 Y55.087 E10.47817
G1 X20.850 Y55.092 E12.14348
G1 X20.850 Y56.194 E12.18942
G1 X18.770 Y56.194 E12.27611
G1 X18.292 Y64.781 E12.63465
G1 X17.975 Y64.780 E12.64785
G1 X17.540 Y56.470 E12.99477
G1 X17.450 Y56.470 E12.99851
G1 X17.450 Y55.092 E13.05595
G1 X16.906 Y55.092 E13.07864
G1 X16.854 Y54.770 E13.09224
G1 X16.906 Y54.448 E13.10585
G1 X17.450 Y54.448 E13.12854
G1 X17.450 Y53.070 E13.18598
G1 X17.682 Y47.708 E13.40974
G1 X18.096 Y42.765 E13.61652
G1 X18.341 Y42.545 E13.63022
G1 X18.506 Y42.727 E13.64045
G1 X18.383 Y46.258 E13.78776
G1 X18.700 Y49.917 E13.94086
G1 X19.385 Y53.272 E14.08363
G1 X19.433 Y53.845 F2220.000
G1 X18.133 Y65.080 F2220.000
G1 X18.130 Y66.756 E14.15347 F691.200
G1 X18.138 Y62.235 F2220.000
G1 X18.142 Y59.397 E14.27177 F720.000
G1 X18.142 Y59.397 F2220.000
G1 X18.148 Y55.915 E14.57327 F720.000
G1 X18.499 Y54.181 F2220.000
G1 X18.340 Y52.413 E14.64730 F720.000
G1 X18.221 Y50.919 F2220.000
G1 X18.146 Y49.981 E14.72883 F720.000
G1 X18.107 Y48.253 E14.87851
G1 X18.107 Y48.253 F2220.000
G1 X18.093 Y46.334 E14.95849 F720.000
G1 F1776
G1 X18.105 Y47.913 E7.35850
G1 E6.95849 F9000.00000
G92 E0
G1 X20.571 Y54.770 F2220.000
G1 E8.00000 F9000.00000
G1 X60.564 Y54.767 E9.66724 F720.000
M106 S255
M104 S195 ; set temperature
G1 F1776
G1 X58.985 Y54.767 E2.06724
G1 E1.66724 F9000.00000
G92 E0
G1 Z0.400 F2220.000
G1 X19.986 Y54.018 F2220.000
G1 E8.00000 F9000.00000
G1 X19.986 Y55.521 E8.05142 F600.000
G1 X18.314 Y55.525 E8.10860
G1 X18.314 Y53.644 E8.17296
G1 X18.561 Y53.619 E8.18146
G1 X18.640 Y54.013 E8.19519
G1 X19.911 Y54.017 E8.23866
G1 X20.443 Y54.462 F2220.000
G1 X60.585 Y54.462 E9.61176 F693.280
G1 X60.634 Y54.770 E9.62241
G1 X60.585 Y55.077 E9.63306
G1 X20.443 Y55.077 E11.00616
G1 X20.443 Y55.977 E11.03693
G1 X18.375 Y55.982 E11.10768
G1 X18.275 Y57.768 E11.16887
G1 X18.015 Y57.768 E11.17776
G1 X17.926 Y56.063 E11.23617
G1 X17.857 Y56.063 E11.23852
G1 X17.857 Y55.077 E11.27222
G1 X17.115 Y55.077 E11.29762
G1 X17.066 Y54.770 E11.30827
G1 X17.115 Y54.462 E11.31892
G1 X17.857 Y54.462 E11.34432
G1 X17.857 Y53.351 E11.38233
G1 X18.010 Y49.640 E11.50937
G1 X18.267 Y49.634 E11.51817
G1 X18.297 Y49.974 E11.52983
G1 X19.015 Y53.557 E11.65483
G1 X20.443 Y53.562 E11.70368
G1 X20.443 Y54.387 E11.73190
G1 X20.900 Y54.005 F2220.000
G1 X60.890 Y54.005 E13.09977 F600.000
G1 X61.021 Y54.290 E13.11052
G1 X61.097 Y54.770 E13.12712
G1 X61.021 Y55.249 E13.14371
G1 X60.890 Y55.534 E13.15446
G1 X20.900 Y55.534 E14.52234
G1 X20.900 Y56.433 E14.55306
G1 X18.807 Y56.438 E14.62465
G1 X18.261 Y66.232 E14.96018
G1 X18.001 Y66.231 E14.96907
G1 X17.492 Y56.520 E15.30172
G1 X17.400 Y56.520 E15.30487
G1 X17.400 Y55.534 E15.33857
G1 X16.810 Y55.534 E15.35875
G1 X16.679 Y55.249 E15.36949
G1 X16.603 Y54.770 E15.38609
G1 X16.679 Y54.290 E15.40269
G1 X16.810 Y54.005 E15.41343
G1 X17.400 Y54.005 E15.43361
G1 X17.400 Y53.020 E15.46731
G1 X17.413 Y53.020 E15.46776
G1 X17.632 Y47.704 E15.64973
G1 X18.048 Y42.741 E15.82011
G1 X18.344 Y42.474 E15.83372
G1 X18.556 Y42.708 E15.84452
G1 X18.433 Y46.257 E15.96597
G1 X18.750 Y49.909 E16.09138
G1 X19.390 Y53.101 E16.20275
G1 X20.900 Y53.107 E16.25440
G1 X20.900 Y53.930 E16.28257
G1 X20.900 Y54.505 F2220.000
G1 X20.214 Y54.770 F2220.000
G1 X60.403 Y54.770 E17.65724 F600.000
G1 X19.480 Y55.250 F2220.000
G1 X19.714 Y55.016 E17.67147 F866.601
G1 X19.630 Y54.288 E17.70305
G1 X18.665 Y55.252 E17.76177
G1 X18.586 Y54.519 E17.79353
G1 X18.820 Y54.285 E17.80776
G1 X18.414 Y53.404 F2220.000
G1 X18.284 Y51.746 E17.92686 F600.000
G1 X18.284 Y51.746 F2220.000
G1 X18.206 Y50.752 E17.96097 F600.000
G1 X18.133 Y49.409 F2220.000
G1 X18.095 Y47.733 E18.08100 F600.000
G1 X18.094 Y46.579 E18.16369
G1 X18.094 Y46.259 E18.17464 F600.000
G1 X18.297 Y42.824 E18.29232
G1 X18.145 Y57.997 F2220.000
G1 X18.138 Y61.774 E18.56289 F600.000
G1 X18.138 Y61.774 F2220.000
G1 X18.134 Y64.139 E18.64378 F600.000
G1 F1776
G1 X18.137 Y62.560 E11.04378
G1 E10.64378 F9000.00000
G92 E0
G1 Z0.600 F2220.000
G1 X19.986 Y53.945 F2220.000
G1 E8.00000 F9000.00000
G1 X19.986 Y55.594 E8.05641 F600.000
G1 X18.314 Y55.599 E8.11359
G1 X18.314 Y53.668 E8.17965
G1 X18.561 Y53.643 E8.18815
G1 X18.620 Y53.938 E8.19843
G1 X19.911 Y53.944 E8.24258
G1 X20.443 Y54.183 F2220.000
G1 X60.643 Y54.183 E9.61765 F695.268
G1 X60.643 Y55.356 E9.65777
G1 X20.443 Y55.356 E11.03284
G1 X20.443 Y56.049 E11.05654
G1 X18.370 Y56.056 E11.12743
G1 X18.275 Y57.768 E11.18610
G1 X18.015 Y57.768 E11.19498
G1 X17.926 Y56.063 E11.25339
G1 X17.857 Y56.063 E11.25574
G1 X17.857 Y55.356 E11.27991
G1 X17.057 Y55.356 E11.30727
G1 X17.057 Y54.183 E11.34740
G1 X17.857 Y54.183 E11.37476
G1 X17.857 Y53.351 E11.40323
G1 X18.010 Y49.640 E11.53027
G1 X18.267 Y49.634 E11.53907
G1 X18.297 Y49.974 E11.55072
G1 X18.996 Y53.483 E11.67312
G1 X20.443 Y53.489 E11.72263
G1 X20.443 Y54.108 E11.74379
G1 X20.900 Y53.726 F2220.000
G1 X60.922 Y53.726 E13.11275 F600.000
G1 X60.979 Y53.806 E13.11611
G1 X61.100 Y54.070 E13.12605
G1 X61.100 Y55.470 E13.17392
G1 X60.979 Y55.733 E13.18386
G1 X60.922 Y55.813 E13.18722
G1 X20.900 Y55.813 E14.55618
G1 X20.900 Y56.505 E14.57983
G1 X18.803 Y56.512 E14.65157
G1 X18.261 Y66.232 E14.98457
G1 X18.001 Y66.231 E14.99346
G1 X17.492 Y56.520 E15.32611
G1 X17.400 Y56.520 E15.32926
G1 X17.400 Y55.813 E15.35342
G1 X16.778 Y55.813 E15.37468
G1 X16.721 Y55.733 E15.37804
G1 X16.600 Y55.470 E15.38798
G1 X16.600 Y54.070 E15.43585
G1 X16.721 Y53.806 E15.44579
G1 X16.778 Y53.726 E15.44915
G1 X17.400 Y53.726 E15.47041
G1 X17.400 Y53.020 E15.49457
G1 X17.413 Y53.020 E15.49502
G1 X17.632 Y47.704 E15.67699
G1 X18.048 Y42.741 E15.84737
G1 X18.344 Y42.474 E15.86099
G1 X18.556 Y42.708 E15.87178
G1 X18.433 Y46.257 E15.99324
G1 X18.750 Y49.909 E16.11864
G1 X19.371 Y53.028 E16.22741
G1 X20.900 Y53.034 E16.27971
G1 X20.900 Y53.651 E16.30080
G1 X20.900 Y54.226 F2220.000
G1 X20.214 Y54.770 F2220.000
G1 X60.414 Y54.770 E19.18006 F600.000
G1 X19.714 Y54.448 F2220.000
G1 X19.480 Y54.214 E19.19558 F869.085
G1 X18.608 Y54.228 E19.23650
G1 X19.689 Y55.309 E19.30819
G1 X18.820 Y55.326 E19.34896
G1 X18.586 Y55.092 E19.36447
G1 X18.414 Y53.428 F2220.000
G1 X18.284 Y51.756 E19.48459 F600.000
G1 X18.206 Y50.756 E19.51891 F600.000
G1 X18.133 Y49.409 F2220.000
G1 X18.095 Y47.733 E19.63893 F600.000
G1 X18.094 Y46.579 E19.72163
G1 X18.094 Y46.259 E19.73258 F600.000
G1 X18.297 Y42.824 E19.85026
G1 X18.145 Y57.997 F2220.000
G1 X18.138 Y61.774 E20.12083 F600.000
G1 X18.138 Y61.774 F2220.000
G1 X18.134 Y64.139 E20.20172 F600.000
G1 F1776
G1 X18.137 Y62.560 E12.60172
G1 E12.20172 F9000.00000
G92 E0
G1 Z0.800 F2220.000
G1 X19.986 Y54.440 F2220.000
G1 E8.00000 F9000.00000
G1 X60.186 Y54.440 E9.37507 F855.264
G1 X60.186 Y55.099 E9.39761
G1 X19.986 Y55.099 E10.77268
G1 X19.986 Y55.606 E10.79000
G1 X18.314 Y55.606 E10.84718
G1 X18.314 Y55.099 E10.86450
G1 X17.514 Y55.099 E10.89186
G1 X17.514 Y54.440 E10.91440
G1 X18.314 Y54.440 E10.94177
G1 X18.314 Y53.670 E10.96810
G1 X18.562 Y53.646 E10.97660
G1 X18.619 Y53.934 E10.98664
G1 X19.986 Y53.934 E11.03340
G1 X19.986 Y54.365 E11.04816
G1 X20.443 Y53.983 F2220.000
G1 X60.643 Y53.983 E12.42322 F855.264
G1 X60.643 Y55.556 E12.47703
G1 X20.443 Y55.556 E13.85210
G1 X20.443 Y56.063 E13.86942
G1 X18.370 Y56.063 E13.94032
G1 X18.275 Y57.768 E13.99876
G1 X18.015 Y57.768 E14.00765
G1 X17.926 Y56.063 E14.06605
G1 X17.857 Y56.063 E14.06840
G1 X17.857 Y55.556 E14.08573
G1 X17.057 Y55.556 E14.11309
G1 X17.057 Y53.983 E14.16690
G1 X17.857 Y53.983 E14.19426
G1 X17.857 Y53.351 E14.21589
G1 X18.010 Y49.640 E14.34293
G1 X18.267 Y49.634 E14.35173
G1 X18.297 Y49.974 E14.36338
G1 X18.994 Y53.477 E14.48556
G1 X20.443 Y53.477 E14.53512
G1 X20.443 Y53.908 E14.54988
G1 X20.900 Y53.526 F2220.000
G1 X60.922 Y53.526 E15.91884 F684.211
G1 X61.100 Y53.775 E15.92933
G1 X61.100 Y55.764 E15.99735
G1 X60.922 Y56.013 E16.00784
G1 X20.900 Y56.013 E17.37681
G1 X20.900 Y56.520 E17.39413
G1 X18.802 Y56.520 E17.46588
G1 X18.261 Y66.232 E17.79860
G1 X18.001 Y66.231 E17.80749
G1 X17.492 Y56.520 E18.14014
G1 X17.400 Y56.520 E18.14329
G1 X17.400 Y56.013 E18.16061
G1 X16.778 Y56.013 E18.18187
G1 X16.600 Y55.764 E18.19236
G1 X16.600 Y53.775 E18.26038
G1 X16.778 Y53.526 E18.27087
G1 X17.400 Y53.526 E18.29213
G1 X17.400 Y53.020 E18.30945
G1 X17.413 Y53.020 E18.30990
G1 X17.632 Y47.704 E18.49187
G1 X18.048 Y42.741 E18.66225
G1 X18.344 Y42.474 E18.67587
G1 X18.556 Y42.708 E18.68666
G1 X18.433 Y46.257 E18.80812
G1 X18.750 Y49.909 E18.93352
G1 X19.369 Y53.020 E19.04201
G1 X20.900 Y53.020 E19.09438
G1 X20.900 Y53.451 E19.10914
G1 X20.900 Y54.026 F2220.000
G1 X19.757 Y54.770 F2220.000
G1 X59.957 Y54.770 E20.48421 F712.720
G1 X19.252 Y55.334 F2220.000
G1 X19.486 Y55.100 E20.49787 F1069.080
G1 X19.486 Y54.320 E20.53010
G1 X18.586 Y55.220 E20.58266
G1 X18.586 Y54.439 E20.61489
G1 X18.820 Y54.205 E20.62855
G1 X18.414 Y53.431 F2220.000
G1 X18.284 Y51.757 E20.74879 F712.720
G1 X18.284 Y51.757 F2220.000
G1 X18.206 Y50.756 E20.78313 F712.720
G1 X18.133 Y49.409 F2220.000
G1 X18.095 Y47.733 E20.90315 F712.720
G1 X18.094 Y46.579 E20.98585
G1 X18.094 Y46.579 F2220.000
G1 X18.094 Y46.259 E20.99679 F712.720
G1 X18.297 Y42.824 E21.11448
G1 X18.145 Y57.997 F2220.000
G1 X18.138 Y61.774 E21.38505 F712.720
G1 X18.138 Y61.774 F2220.000
G1 X18.134 Y64.139 E21.46593 F712.720
G1 F1776
G1 X18.137 Y62.560 E13.86593
G1 E13.46593 F9000.00000
G92 E0
G1 Z1.000 F2220.000
G1 X19.986 Y54.277 F2220.000
G1 E8.00000 F9000.00000
G1 X60.186 Y54.277 E9.37507 F857.390
G1 X60.186 Y55.262 E9.40875
G1 X19.986 Y55.262 E10.78382
G1 X19.986 Y55.606 E10.79557
G1 X18.314 Y55.606 E10.85275
G1 X18.314 Y55.262 E10.86450
G1 X17.514 Y55.262 E10.89186
G1 X17.514 Y54.277 E10.92555
G1 X18.314 Y54.277 E10.95291
G1 X18.314 Y53.670 E10.97367
G1 X18.562 Y53.646 E10.98217
G1 X18.619 Y53.934 E10.99221
G1 X19.986 Y53.934 E11.03897
G1 X19.986 Y54.202 E11.04815
G1 X20.443 Y53.820 F2220.000
G1 X60.643 Y53.820 E12.42322 F857.390
G1 X60.643 Y55.719 E12.48818
G1 X20.443 Y55.719 E13.86325
G1 X20.443 Y56.063 E13.87499
G1 X18.370 Y56.063 E13.94590
G1 X18.275 Y57.768 E14.00433
G1 X18.015 Y57.768 E14.01322
G1 X17.926 Y56.063 E14.07163
G1 X17.857 Y56.063 E14.07398
G1 X17.857 Y55.719 E14.08573
G1 X17.057 Y55.719 E14.11309
G1 X17.057 Y53.820 E14.17804
G1 X17.857 Y53.820 E14.20541
G1 X17.857 Y53.351 E14.22147
G1 X18.010 Y49.640 E14.34850
G1 X18.267 Y49.634 E14.35730
G1 X18.297 Y49.974 E14.36895
G1 X18.994 Y53.477 E14.49113
G1 X20.443 Y53.477 E14.54070
G1 X20.443 Y53.745 E14.54988
G1 X20.900 Y53.363 F2220.000
G1 X60.948 Y53.363 E15.91975 F685.912
G1 X61.100 Y53.575 E15.92868
G1 X61.100 Y55.964 E16.01038
G1 X60.948 Y56.176 E16.01931
G1 X20.900 Y56.176 E17.38918
G1 X20.900 Y56.520 E17.40093
G1 X18.802 Y56.520 E17.47268
G1 X18.261 Y66.232 E17.80541
G1 X18.001 Y66.231 E17.81430
G1 X17.492 Y56.520 E18.14695
G1 X17.400 Y56.520 E18.15010
G1 X17.400 Y56.176 E18.16185
G1 X16.752 Y56.176 E18.18401
G1 X16.600 Y55.964 E18.19294
G1 X16.600 Y53.575 E18.27465
G1 X16.752 Y53.363 E18.28357
G1 X17.400 Y53.363 E18.30574
G1 X17.400 Y53.020 E18.31749
G1 X17.413 Y53.020 E18.31794
G1 X17.632 Y47.704 E18.49991
G1 X18.048 Y42.741 E18.67029
G1 X18.344 Y42.474 E18.68391
G1 X18.556 Y42.708 E18.69470
G1 X18.433 Y46.257 E18.81616
G1 X18.750 Y49.909 E18.94156
G1 X19.369 Y53.020 E19.05005
G1 X20.900 Y53.020 E19.10242
G1 X20.900 Y53.288 E19.11160
G1 X20.900 Y53.863 F2220.000
G1 X19.486 Y54.439 F2220.000
G1 X19.252 Y54.205 E19.12337 F1071.738
G1 X18.586 Y54.212 E19.14708
G1 X19.486 Y55.112 E19.19237
G1 X19.036 Y55.334 E19.21024
G1 X18.250 Y54.549 E19.24975
G1 X18.020 Y54.991 E19.26748
G1 X17.786 Y54.757 E19.27925
G1 X18.414 Y53.431 F2220.000
G1 X18.284 Y51.757 E19.39949 F714.492
G1 X18.206 Y50.756 E19.43383 F714.492
G1 X18.133 Y49.409 F2220.000
G1 X18.095 Y47.733 E19.55385 F714.492
G1 X18.094 Y46.579 E19.63655
G1 X18.094 Y46.259 E19.64750 F714.492
G1 X18.297 Y42.824 E19.76518
