; generated by Slic3r 1.2.9 on 2016-07-06 at 12:52:08

; external perimeters extrusion width = 0.50mm
; perimeters extrusion width = 0.50mm
; infill extrusion width = 0.60mm
; solid infill extrusion width = 0.50mm
; top infill extrusion width = 0.50mm

M107
M104 S200 ; set temperature
G28 ; home all axes

M109 S200 ; wait for temperature to be reached
G21 ; set units to millimeters
G90 ; use absolute coordinates
M82 ; use absolute distances for extrusion
G92 E0
G1 E-8.00000 F9000.00000
G92 E0
G1 Z0.200 F2220.000
G1 X30.984 Y39.888 F2220.000
G1 E8.00000 F9000.00000
G1 X32.660 Y38.945 E8.08016 F864.000
G1 X34.064 Y38.729 E8.13938
G1 X47.738 Y38.735 E8.70946
G1 X87.738 Y40.735 E10.37911 F864.000
G1 X88.235 Y40.786 E10.39996
G1 X88.853 Y40.884 E10.42602
G1 X90.070 Y41.252 E10.47904
G1 X91.623 Y42.401 E10.55956
G1 X92.575 Y44.072 E10.63971
G1 X92.798 Y45.500 E10.69998
G1 X92.798 Y54.500 E11.07518
G1 X92.403 Y56.382 E11.15534
G1 X91.282 Y57.944 E11.23550
G1 X90.077 Y58.745 E11.29582
G1 X88.853 Y59.116 E11.34915
G1 X88.236 Y59.214 E11.37520
G1 X87.738 Y59.265 E11.39605
G1 X47.738 Y61.265 E13.06571
G1 X34.064 Y61.271 E13.63578
G1 X32.182 Y60.876 E13.71594
G1 X30.619 Y59.755 E13.79610
G1 X29.830 Y58.574 E13.85532
G1 X28.858 Y56.489 E13.95125
G1 X28.579 Y55.724 E13.98519
G1 X27.984 Y53.501 E14.08112
G1 X27.842 Y52.699 E14.11506
G1 X27.642 Y50.407 E14.21099
G1 X27.642 Y49.593 E14.24493
G1 X27.842 Y47.301 E14.34085
G1 X27.984 Y46.499 E14.37480
G1 X28.579 Y44.276 E14.47072
G1 X28.858 Y43.511 E14.50467
G1 X29.830 Y41.426 E14.60059
G1 X30.939 Y39.948 E14.67762
G1 X31.435 Y40.236 F2220.000
G1 X33.043 Y39.414 E14.75289 F864.000
G1 X34.064 Y39.286 E14.79579
G1 X47.710 Y39.291 E15.36470
G1 X87.710 Y41.291 E17.03436 F864.000
G1 X88.148 Y41.336 E17.05272
G1 X88.766 Y41.434 E17.07878
G1 X89.838 Y41.758 E17.12548
G1 X91.279 Y42.856 E17.20099
G1 X92.107 Y44.458 E17.27616
G1 X92.241 Y45.500 E17.31997
G1 X92.241 Y54.500 E17.69517
G1 X91.846 Y56.259 E17.77034
G1 X90.736 Y57.681 E17.84552
G1 X89.844 Y58.239 E17.88938
G1 X88.766 Y58.566 E17.93637
G1 X88.148 Y58.664 E17.96243
G1 X87.710 Y58.709 E17.98079
G1 X47.710 Y60.709 E19.65045
G1 X34.064 Y60.714 E20.21936
G1 X32.304 Y60.319 E20.29453
G1 X30.883 Y59.210 E20.36971
G1 X30.335 Y58.339 E20.41260
G1 X29.363 Y56.253 E20.50852
G1 X29.117 Y55.579 E20.53842
G1 X28.522 Y53.357 E20.63434
G1 X28.397 Y52.651 E20.66424
G1 X28.197 Y50.359 E20.76016
G1 X28.197 Y49.641 E20.79006
G1 X28.397 Y47.349 E20.88598
G1 X28.522 Y46.643 E20.91588
G1 X29.117 Y44.420 E21.01180
G1 X29.363 Y43.747 E21.04170
G1 X30.335 Y41.661 E21.13762
G1 X31.389 Y40.295 E21.20956
G1 X31.882 Y40.593 F2220.000
G1 X34.064 Y39.843 E21.30575 F864.000
G1 X47.682 Y39.847 E21.87350
G1 X87.682 Y41.847 E23.54316 F864.000
G1 X88.061 Y41.887 E23.55903
G1 X88.679 Y41.984 E23.58509
G1 X89.606 Y42.265 E23.62547
G1 X90.927 Y43.306 E23.69562
G1 X91.684 Y45.500 E23.79236
G1 X91.684 Y54.500 E24.16756
G1 X91.290 Y56.128 E24.23739
G1 X89.612 Y57.732 E24.33417
G1 X88.679 Y58.016 E24.37483
G1 X88.061 Y58.113 E24.40089
G1 X87.682 Y58.153 E24.41676
G1 X47.682 Y60.153 E26.08641
G1 X34.064 Y60.157 E26.65417
G1 X32.436 Y59.763 E26.72400
G1 X30.840 Y58.103 E26.81998
G1 X29.867 Y56.018 E26.91591
G1 X29.655 Y55.435 E26.94175
G1 X29.060 Y53.213 E27.03768
G1 X28.952 Y52.602 E27.06353
G1 X28.752 Y50.310 E27.15945
G1 X28.752 Y49.690 E27.18530
G1 X28.952 Y47.398 E27.28122
G1 X29.060 Y46.787 E27.30707
G1 X29.655 Y44.565 E27.40299
G1 X29.867 Y43.982 E27.42884
G1 X30.840 Y41.897 E27.52477
G1 X31.835 Y40.651 E27.59122
G1 F1776
G1 X33.319 Y40.113 E19.99122
G1 E19.59122 F9000.00000
G92 E0
G1 X46.091 Y55.186 F2220.000
G1 E8.00000 F9000.00000
G1 X34.965 Y55.186 E8.46384 F864.000
G1 X34.425 Y54.029 E8.51704
G1 X33.894 Y52.046 E8.60265
G1 X33.715 Y50.000 E8.68826
G1 X33.894 Y47.954 E8.77387
G1 X34.425 Y45.971 E8.85947
G1 X34.965 Y44.814 E8.91268
G1 X46.091 Y44.814 E9.37652
G1 X46.091 Y55.111 E9.80578
G1 X46.648 Y55.743 F2220.000
G1 X34.610 Y55.743 E10.30764 F864.000
G1 X33.900 Y54.220 E10.37767
G1 X33.343 Y52.143 E10.46734
G1 X33.156 Y50.000 E10.55701
G1 X33.343 Y47.857 E10.64668
G1 X33.900 Y45.780 E10.73635
G1 X34.610 Y44.257 E10.80639
G1 X46.648 Y44.257 E11.30825
G1 X46.648 Y55.668 E11.78396
G1 X47.205 Y50.322 F2220.000
G1 X47.205 Y56.300 E12.03317 F691.200
G1 X34.255 Y56.300 E12.57304
G1 X33.374 Y54.412 E12.65990
G1 X32.792 Y52.240 E12.75364
G1 X32.596 Y50.000 E12.84737
G1 X32.792 Y47.760 E12.94111
G1 X33.374 Y45.588 E13.03484
G1 X34.255 Y43.700 E13.12170
G1 X47.205 Y43.700 E13.66158
G1 X47.205 Y49.678 E13.91079
G1 X87.183 Y49.678 E15.57744
G1 X87.183 Y45.756 E15.74095
G1 X87.505 Y45.704 E15.75455
G1 X87.827 Y45.756 E15.76816
G1 X87.827 Y54.244 E16.12205
G1 X87.505 Y54.296 E16.13565
G1 X87.183 Y54.244 E16.14925
G1 X87.183 Y50.322 E16.31277
G1 X47.280 Y50.322 E17.97628
G1 X46.705 Y50.322 F2220.000
G1 X46.926 Y50.000 F2220.000
G1 X87.548 Y50.000 E19.66979 F720.000
G1 X87.505 Y54.014 F2220.000
G1 X87.505 Y45.986 E20.00447 F720.000
G1 F1776
G1 X87.505 Y47.565 E12.40448
G1 E12.00447 F9000.00000
G92 E0
G1 X45.755 Y45.426 F2220.000
G1 E8.00000 F9000.00000
G1 X45.479 Y45.149 E8.01636 F1080.000
G1 X44.688 Y45.149 E8.04947
G1 X45.755 Y46.217 E8.11266
G1 X45.755 Y47.008 E8.14577
G1 X43.897 Y45.149 E8.25578
G1 X43.106 Y45.149 E8.28889
G1 X45.755 Y47.799 E8.44573
G1 X45.755 Y48.590 E8.47884
G1 X42.315 Y45.149 E8.68250
G1 X41.524 Y45.149 E8.71561
G1 X45.755 Y49.381 E8.96610
G1 X45.755 Y50.172 E8.99921
G1 X40.733 Y45.149 E9.29653
G1 X39.942 Y45.149 E9.32964
G1 X45.755 Y50.963 E9.67378
G1 X45.755 Y51.754 E9.70689
G1 X39.151 Y45.149 E10.09786
G1 X38.360 Y45.149 E10.13097
G1 X45.755 Y52.545 E10.56876
G1 X45.755 Y53.336 E10.60187
G1 X37.569 Y45.149 E11.08649
G1 X36.778 Y45.149 E11.11960
G1 X45.755 Y54.127 E11.65105
G1 X45.688 Y54.851 E11.68146
G1 X35.987 Y45.149 E12.25573
G1 X35.196 Y45.149 E12.28884
G1 X44.897 Y54.851 E12.86311
G1 X44.106 Y54.851 E12.89622
G1 X34.903 Y45.648 E13.44099
G1 X34.679 Y46.215 E13.46652
G1 X43.315 Y54.851 E13.97770
G1 X42.524 Y54.851 E14.01081
G1 X34.512 Y46.839 E14.48506
G1 X34.345 Y47.463 E14.51210
G1 X41.733 Y54.851 E14.94941
G1 X40.942 Y54.851 E14.98253
G1 X34.206 Y48.115 E15.38123
G1 X34.143 Y48.843 E15.41179
G1 X40.151 Y54.851 E15.76743
G1 X39.360 Y54.851 E15.80054
G1 X34.079 Y49.570 E16.11313
G1 X34.095 Y50.377 E16.14692
G1 X38.568 Y54.851 E16.41172
G1 X37.777 Y54.851 E16.44484
G1 X34.171 Y51.244 E16.65833
G1 X34.312 Y52.176 E16.69776
G1 X36.986 Y54.851 E16.85611
G1 X36.195 Y54.851 E16.88922
G1 X34.601 Y53.256 E16.98360
G1 X35.107 Y54.553 F2220.000
G1 X35.404 Y54.851 E17.00122 F1080.000
M106 S255
M104 S195 ; set temperature
G1 F1776
G1 X35.107 Y54.553 E14.97473
G1 E9.00122 F9000.00000
G92 E0
G1 Z0.400 F2220.000
G1 X46.341 Y55.636 F2220.000
G1 E8.00000 F9000.00000
G1 X34.459 Y55.636 E8.40642 F1366.797
G1 X33.814 Y54.252 E8.45866
G1 X33.253 Y52.159 E8.53278
G1 X33.064 Y50.000 E8.60690
G1 X33.253 Y47.841 E8.68103
G1 X33.813 Y45.748 E8.75515
G1 X34.459 Y44.364 E8.80738
G1 X46.341 Y44.364 E9.21381
G1 X46.341 Y55.561 E9.59680
G1 X46.798 Y50.308 F2220.000
G1 X46.798 Y56.093 E9.79469 F1366.797
G1 X34.168 Y56.093 E10.22671
G1 X33.382 Y54.409 E10.29027
G1 X32.801 Y52.238 E10.36713
G1 X32.605 Y50.000 E10.44399
G1 X32.801 Y47.762 E10.52084
G1 X33.382 Y45.591 E10.59770
G1 X34.168 Y43.907 E10.66127
G1 X46.798 Y43.907 E11.09328
G1 X46.798 Y49.692 E11.29117
G1 X87.197 Y49.692 E12.67307
G1 X87.197 Y45.965 E12.80058
G1 X87.505 Y45.916 E12.81123
G1 X87.812 Y45.965 E12.82188
G1 X87.812 Y54.035 E13.09795
G1 X87.505 Y54.084 E13.10860
G1 X87.197 Y54.035 E13.11926
G1 X87.197 Y50.308 E13.24677
G1 X46.873 Y50.308 E14.62609
G1 X47.255 Y50.765 F2220.000
G1 X47.255 Y56.550 E14.82398 F1093.438
G1 X33.877 Y56.550 E15.28160
G1 X32.951 Y54.566 E15.35649
G1 X32.349 Y52.318 E15.43608
G1 X32.146 Y50.000 E15.51568
G1 X32.349 Y47.682 E15.59527
G1 X32.951 Y45.434 E15.67486
G1 X33.877 Y43.450 E15.74976
G1 X47.255 Y43.450 E16.20737
G1 X47.255 Y49.235 E16.40526
G1 X86.740 Y49.235 E17.75588
G1 X86.740 Y45.660 E17.87817
G1 X87.026 Y45.529 E17.88892
G1 X87.505 Y45.453 E17.90551
G1 X87.984 Y45.529 E17.92211
G1 X88.270 Y45.660 E17.93286
G1 X88.270 Y54.340 E18.22975
G1 X87.984 Y54.471 E18.24049
G1 X87.505 Y54.547 E18.25709
G1 X87.026 Y54.471 E18.27369
G1 X86.740 Y54.340 E18.28443
G1 X86.740 Y50.765 E18.40672
G1 X47.330 Y50.765 E19.75478
G1 X46.755 Y50.765 F2220.000
G1 X46.569 Y50.000 F2220.000
G1 X87.584 Y50.000 E21.15771 F1138.998
G1 X87.505 Y46.147 F2220.000
G1 X87.505 Y49.921 E21.28679 F1138.998
G1 X87.485 Y50.000 E21.28958
G1 X87.505 Y50.079 E21.29237
G1 X87.505 Y53.853 E21.42145
G1 F1776
G1 X87.505 Y52.274 E13.82145
G1 E13.42145 F9000.00000
G92 E0
G1 X45.835 Y55.364 F2220.000
G1 E8.00000 F9000.00000
G1 X46.069 Y55.130 E8.01153 F1708.497
G1 X46.069 Y54.472 E8.03450
G1 X45.176 Y55.364 E8.07851
G1 X44.518 Y55.364 E8.10148
G1 X46.069 Y53.813 E8.17797
G1 X46.069 Y53.154 E8.20094
G1 X43.859 Y55.364 E8.30991
G1 X43.200 Y55.364 E8.33288
G1 X46.069 Y52.495 E8.47433
G1 X46.069 Y51.836 E8.49730
G1 X42.541 Y55.364 E8.67123
G1 X41.882 Y55.364 E8.69420
G1 X46.069 Y51.178 E8.90061
G1 X46.069 Y50.519 E8.92358
G1 X41.224 Y55.364 E9.16247
G1 X40.565 Y55.364 E9.18544
G1 X46.069 Y49.860 E9.45681
G1 X46.069 Y49.201 E9.47978
G1 X39.906 Y55.364 E9.78363
G1 X39.247 Y55.364 E9.80660
G1 X46.069 Y48.542 E10.14293
G1 X46.069 Y47.884 E10.16590
G1 X38.588 Y55.364 E10.53471
G1 X37.930 Y55.364 E10.55768
G1 X46.069 Y47.225 E10.95897
G1 X46.069 Y46.566 E10.98194
G1 X37.271 Y55.364 E11.41571
G1 X36.612 Y55.364 E11.43868
G1 X46.069 Y45.907 E11.90493
G1 X46.069 Y45.248 E11.92790
G1 X35.953 Y55.364 E12.42664
G1 X35.294 Y55.364 E12.44960
G1 X46.023 Y44.636 E12.97854
G1 X45.364 Y44.636 E13.00151
G1 X34.636 Y55.364 E13.53045
G1 X34.400 Y54.942 E13.54733
G1 X44.705 Y44.636 E14.05542
G1 X44.047 Y44.636 E14.07839
G1 X34.190 Y54.492 E14.56433
G1 X34.009 Y54.015 E14.58213
G1 X43.388 Y44.636 E15.04454
G1 X42.729 Y44.636 E15.06751
G1 X33.869 Y53.495 E15.50430
G1 X33.730 Y52.976 E15.52306
G1 X42.070 Y44.636 E15.93423
G1 X41.411 Y44.636 E15.95720
G1 X33.591 Y52.456 E16.34276
G1 X33.494 Y51.894 E16.36264
G1 X40.753 Y44.636 E16.72050
G1 X40.094 Y44.636 E16.74346
G1 X33.441 Y51.288 E17.07146
G1 X33.388 Y50.683 E17.09266
G1 X39.435 Y44.636 E17.39078
G1 X38.776 Y44.636 E17.41375
G1 X33.339 Y50.073 E17.68182
G1 X33.402 Y49.351 E17.70708
G1 X38.117 Y44.636 E17.93956
G1 X37.459 Y44.636 E17.96252
G1 X33.465 Y48.629 E18.15940
G1 X33.552 Y47.884 E18.18557
G1 X36.800 Y44.636 E18.34569
G1 X36.141 Y44.636 E18.36866
G1 X33.793 Y46.984 E18.48442
G1 X34.034 Y46.084 E18.51690
G1 X35.482 Y44.636 E18.58829
G1 X34.823 Y44.636 E18.61125
G1 X34.568 Y44.891 E18.62384
G1 F1776
G1 X34.823 Y44.636 E16.88625
G1 F1776
G1 X35.482 Y44.636 E13.71466
G1 F1776
G1 X35.087 Y45.031 E11.02383
G1 E10.62384 F9000.00000
G92 E0
G1 Z0.600 F2220.000
G1 X46.341 Y55.836 F2220.000
G1 E8.00000 F9000.00000
G1 X34.112 Y55.836 E8.41827 F1376.147
G1 X33.438 Y54.389 E8.47289
G1 X32.859 Y52.228 E8.54940
G1 X32.664 Y50.000 E8.62591
G1 X32.859 Y47.772 E8.70241
G1 X33.438 Y45.611 E8.77892
G1 X34.112 Y44.164 E8.83354
G1 X46.341 Y44.164 E9.25182
G1 X46.341 Y55.761 E9.64849
G1 X46.798 Y50.587 F2220.000
G1 X46.798 Y56.293 E9.84368 F1376.147
G1 X33.821 Y56.293 E10.28755
G1 X33.006 Y54.546 E10.35350
G1 X32.407 Y52.308 E10.43274
G1 X32.205 Y50.000 E10.51198
G1 X32.407 Y47.692 E10.59122
G1 X33.006 Y45.454 E10.67047
G1 X33.821 Y43.707 E10.73642
G1 X46.798 Y43.707 E11.18028
G1 X46.798 Y49.413 E11.37548
G1 X86.918 Y49.413 E12.74783
G1 X86.918 Y45.901 E12.86797
G1 X87.224 Y45.760 E12.87949
G1 X87.505 Y45.716 E12.88921
G1 X87.785 Y45.760 E12.89893
G1 X88.091 Y45.901 E12.91044
G1 X88.091 Y54.099 E13.19086
G1 X87.785 Y54.240 E13.20238
G1 X87.505 Y54.284 E13.21210
G1 X87.224 Y54.240 E13.22182
G1 X86.918 Y54.099 E13.23333
G1 X86.918 Y50.587 E13.35348
G1 X46.873 Y50.587 E14.72327
G1 X47.255 Y51.044 F2220.000
G1 X47.255 Y56.750 E14.91846 F1100.918
G1 X33.530 Y56.750 E15.38792
G1 X32.575 Y54.702 E15.46520
G1 X31.955 Y52.387 E15.54718
G1 X31.746 Y50.000 E15.62916
G1 X31.955 Y47.613 E15.71113
G1 X32.575 Y45.298 E15.79311
G1 X33.530 Y43.250 E15.87039
G1 X47.255 Y43.250 E16.33985
G1 X47.255 Y48.956 E16.53504
G1 X86.461 Y48.956 E17.87613
G1 X86.461 Y45.628 E17.98996
G1 X86.541 Y45.571 E17.99332
G1 X87.091 Y45.319 E18.01401
G1 X87.505 Y45.253 E18.02835
G1 X87.919 Y45.319 E18.04270
G1 X88.469 Y45.571 E18.06338
G1 X88.548 Y45.628 E18.06674
G1 X88.548 Y54.372 E18.36581
G1 X88.469 Y54.429 E18.36917
G1 X87.919 Y54.681 E18.38985
G1 X87.505 Y54.747 E18.40420
G1 X87.091 Y54.681 E18.41855
G1 X86.541 Y54.429 E18.43923
G1 X86.461 Y54.372 E18.44259
G1 X86.461 Y51.044 E18.55642
G1 X47.330 Y51.044 E19.89494
G1 X46.755 Y51.044 F2220.000
G1 X46.569 Y50.000 F2220.000
G1 X87.863 Y50.000 E22.85253 F1146.789
G1 X87.505 Y54.053 F2220.000
G1 X87.505 Y50.358 E23.11716 F1146.789
G1 X87.415 Y50.000 E23.14358
G1 X87.505 Y49.642 E23.17001
G1 X87.505 Y45.947 E23.43464
G1 F1776
G1 X87.505 Y47.526 E15.83465
G1 E15.43464 F9000.00000
G92 E0
G1 X46.069 Y44.870 F2220.000
G1 E8.00000 F9000.00000
G1 X45.835 Y44.636 E8.01153 F1720.184
G1 X45.176 Y44.636 E8.03450
G1 X46.069 Y45.528 E8.07851
G1 X46.069 Y46.187 E8.10148
G1 X44.518 Y44.636 E8.17797
G1 X43.859 Y44.636 E8.20094
G1 X46.069 Y46.846 E8.30991
G1 X46.069 Y47.505 E8.33288
G1 X43.200 Y44.636 E8.47433
G1 X42.541 Y44.636 E8.49730
G1 X46.069 Y48.164 E8.67123
G1 X46.069 Y48.822 E8.69420
G1 X41.882 Y44.636 E8.90061
G1 X41.224 Y44.636 E8.92357
G1 X46.069 Y49.481 E9.16247
G1 X46.069 Y50.140 E9.18543
G1 X40.565 Y44.636 E9.45681
G1 X39.906 Y44.636 E9.47977
G1 X46.069 Y50.799 E9.78362
G1 X46.069 Y51.458 E9.80659
G1 X39.247 Y44.636 E10.14292
G1 X38.588 Y44.636 E10.16589
G1 X46.069 Y52.116 E10.53470
G1 X46.069 Y52.775 E10.55767
G1 X37.930 Y44.636 E10.95896
G1 X37.271 Y44.636 E10.98193
G1 X46.069 Y53.434 E11.41570
G1 X46.069 Y54.093 E11.43866
G1 X36.612 Y44.636 E11.90492
G1 X35.953 Y44.636 E11.92788
G1 X46.069 Y54.752 E12.42661
G1 X46.023 Y55.364 E12.44803
G1 X35.294 Y44.636 E12.97697
G1 X34.636 Y44.636 E12.99993
G1 X45.364 Y55.364 E13.52887
G1 X44.705 Y55.364 E13.55184
G1 X34.400 Y45.058 E14.05993
G1 X34.190 Y45.508 E14.07721
G1 X44.047 Y55.364 E14.56315
G1 X43.388 Y55.364 E14.58612
G1 X34.009 Y45.985 E15.04853
G1 X33.869 Y46.505 E15.06728
G1 X42.729 Y55.364 E15.50407
G1 X42.070 Y55.364 E15.52704
G1 X33.730 Y47.024 E15.93821
G1 X33.591 Y47.544 E15.95696
G1 X41.411 Y55.364 E16.34252
G1 X40.753 Y55.364 E16.36549
G1 X33.494 Y48.106 E16.72335
G1 X33.441 Y48.712 E16.74455
G1 X40.094 Y55.364 E17.07254
G1 X39.435 Y55.364 E17.09550
G1 X33.388 Y49.317 E17.39363
G1 X33.339 Y49.927 E17.41495
G1 X38.776 Y55.364 E17.68302
G1 X38.117 Y55.364 E17.70598
G1 X33.402 Y50.649 E17.93846
G1 X33.465 Y51.371 E17.96372
G1 X37.459 Y55.364 E18.16060
G1 X36.800 Y55.364 E18.18357
G1 X33.552 Y52.116 E18.34369
G1 X33.793 Y53.016 E18.37617
G1 X36.141 Y55.364 E18.49193
G1 X35.482 Y55.364 E18.51490
G1 X34.034 Y53.916 E18.58628
G1 X34.568 Y55.109 F2220.000
G1 X34.823 Y55.364 E18.59887 F1720.184
M106 S234.6
G1 F1776
G1 X34.568 Y55.109 E16.86128
G1 E10.59887 F9000.00000
G92 E0
G1 Z0.800 F2220.000
G1 X46.341 Y50.329 F2220.000
G1 E8.00000 F9000.00000
G1 X46.341 Y56.036 E8.19519 F1440.000
G1 X33.766 Y56.036 E8.62531
G1 X33.062 Y54.525 E8.68232
G1 X32.465 Y52.298 E8.76121
G1 X32.264 Y50.000 E8.84010
G1 X32.465 Y47.702 E8.91899
G1 X33.062 Y45.475 E8.99789
G1 X33.766 Y43.964 E9.05489
G1 X46.341 Y43.964 E9.48501
G1 X46.341 Y49.671 E9.68021
G1 X87.175 Y49.671 E11.07699
G1 X87.175 Y46.164 E11.19692
