; generated by Slic3r 1.2.9 on 2016-07-06 at 14:24:02

; external perimeters extrusion width = 0.50mm
; perimeters extrusion width = 0.50mm
; infill extrusion width = 0.60mm
; solid infill extrusion width = 0.50mm
; top infill extrusion width = 0.50mm

M107
M104 S200 ; set temperature
G28 ; home all axes

M109 S200 ; wait for temperature to be reached
G21 ; set units to millimeters
G90 ; use absolute coordinates
M82 ; use absolute distances for extrusion
G92 E0
G1 E-8.00000 F9000.00000
G92 E0
G1 Z0.200 F2220.000
G1 X13.091 Y40.674 F2220.000
G1 E8.00000 F9000.00000
G1 X14.784 Y40.357 E8.07180 F864.000
G1 X20.019 Y40.363 E8.29006
G1 X59.219 Y42.341 E9.92636 F864.000
G1 X61.079 Y42.831 E10.00651
G1 X62.583 Y44.028 E10.08667
G1 X63.231 Y45.060 E10.13749
G1 X63.600 Y46.279 E10.19056
G1 X63.698 Y46.897 E10.21666
G1 X63.698 Y48.359 E10.27759
G1 X63.600 Y48.976 E10.30365
G1 X63.229 Y50.201 E10.35699
G1 X62.083 Y51.745 E10.43715
G1 X59.606 Y52.880 E10.55074
G1 X19.905 Y58.215 E12.22074
G1 X17.705 Y58.418 E12.31284
G1 X16.863 Y58.418 E12.34793
G1 X14.865 Y58.237 E12.43159
G1 X14.048 Y58.089 E12.46618
G1 X12.158 Y57.569 E12.54792
G1 X10.449 Y56.689 E12.62808
G1 X9.239 Y55.194 E12.70824
G1 X8.734 Y53.339 E12.78839
G1 X8.786 Y52.318 E12.83102
G1 X10.073 Y44.380 E13.16624
G1 X10.765 Y42.586 E13.24640
G1 X11.381 Y41.825 E13.28723
G1 X11.481 Y41.725 E13.29313
G1 X13.028 Y40.715 E13.37016
G1 X13.396 Y41.156 F2220.000
G1 X14.784 Y40.914 E13.42889 F864.000
G1 X19.991 Y40.919 E13.64598
G1 X59.191 Y42.897 E15.28228 F864.000
G1 X60.929 Y43.380 E15.35745
G1 X62.722 Y45.288 E15.46663
G1 X63.050 Y46.366 E15.51359
G1 X63.148 Y46.984 E15.53969
G1 X63.148 Y48.272 E15.59335
G1 X63.050 Y48.889 E15.61941
G1 X62.722 Y49.968 E15.66642
G1 X61.629 Y51.402 E15.74159
G1 X59.532 Y52.328 E15.83715
G1 X19.831 Y57.662 E17.50715
G1 X17.655 Y57.863 E17.59824
G1 X16.913 Y57.863 E17.62915
G1 X14.915 Y57.682 E17.71281
G1 X14.196 Y57.552 E17.74327
G1 X12.306 Y57.032 E17.82500
G1 X10.714 Y56.184 E17.90017
G1 X9.638 Y54.738 E17.97534
G1 X9.336 Y52.407 E18.07332
G1 X10.623 Y44.470 E18.40855
G1 X11.775 Y42.219 E18.51395
G1 X11.875 Y42.119 E18.51984
G1 X13.333 Y41.196 E18.59178
G1 X13.694 Y41.644 F2220.000
G1 X14.784 Y41.471 E18.63780 F864.000
G1 X19.963 Y41.476 E18.85372
G1 X59.163 Y43.453 E20.49002 F864.000
G1 X60.769 Y43.929 E20.55985
G1 X62.216 Y45.521 E20.64952
G1 X62.499 Y46.453 E20.69015
G1 X62.597 Y47.072 E20.71625
G1 X62.597 Y48.185 E20.76264
G1 X62.500 Y48.802 E20.78870
G1 X62.216 Y49.735 E20.82937
G1 X61.178 Y51.050 E20.89920
G1 X59.458 Y51.776 E20.97704
G1 X19.756 Y57.110 E22.64704
G1 X17.604 Y57.308 E22.73713
G1 X16.964 Y57.308 E22.76385
G1 X14.965 Y57.128 E22.84751
G1 X14.343 Y57.015 E22.87384
G1 X12.453 Y56.495 E22.95557
G1 X10.988 Y55.683 E23.02540
G1 X10.057 Y54.290 E23.09523
G1 X9.886 Y52.496 E23.17037
G1 X11.173 Y44.559 E23.50559
G1 X12.169 Y42.613 E23.59673
G1 X12.269 Y42.513 E23.60262
G1 X13.630 Y41.683 E23.66908
G1 F1776
G1 X14.784 Y41.471 E18.01914
G1 F1776
G1 X15.189 Y41.471 E16.06908
G1 E15.66908 F9000.00000
G92 E0
G1 X19.318 Y52.108 F2220.000
G1 E8.00000 F9000.00000
G1 X19.029 Y52.188 E8.01248 F691.200
G1 X17.284 Y52.346 E8.08554
G1 X15.539 Y52.188 E8.15860
G1 X15.250 Y52.108 E8.17107
G1 X16.098 Y49.778 E8.27445
G1 X16.098 Y46.442 E8.41353
G1 X18.470 Y46.442 E8.51240
G1 X18.470 Y49.778 E8.65149
G1 X19.292 Y52.038 E8.75173
G1 X20.048 Y52.485 F2220.000
G1 X19.129 Y52.738 E8.79146 F691.200
G1 X17.284 Y52.905 E8.86870
G1 X15.439 Y52.738 E8.94593
G1 X14.520 Y52.485 E8.98566
G1 X15.541 Y49.680 E9.11011
G1 X15.541 Y45.885 E9.26833
G1 X19.027 Y45.885 E9.41365
G1 X19.027 Y49.680 E9.57186
G1 X20.022 Y52.415 E9.69319
G1 X19.584 Y47.951 F2220.000
G1 X19.584 Y49.582 E9.76117 F691.200
G1 X20.778 Y52.862 E9.90671
G1 X19.229 Y53.289 E9.97368
G1 X17.284 Y53.464 E10.05510
G1 X15.339 Y53.289 E10.13651
G1 X13.790 Y52.862 E10.20349
G1 X14.984 Y49.582 E10.34902
G1 X14.984 Y45.328 E10.52636
G1 X19.584 Y45.328 E10.71814
G1 X19.584 Y47.305 E10.80055
G1 X58.728 Y47.306 E12.43245
G1 X58.780 Y47.628 E12.44605
G1 X58.728 Y47.950 E12.45966
G1 X19.659 Y47.951 E14.08843
G1 X19.084 Y47.951 F2220.000
G1 X19.306 Y47.628 F2220.000
G1 X58.498 Y47.628 E15.72233 F720.000
G1 X18.135 Y47.054 F2220.000
G1 X17.858 Y46.778 E15.74027 F1080.000
G1 X16.991 Y46.778 E15.78007
G1 X18.135 Y47.921 E15.85429
G1 X18.135 Y48.788 E15.89409
G1 X16.434 Y47.087 E16.00448
G1 X16.434 Y47.955 E16.04428
G1 X18.135 Y49.656 E16.15468
G1 X18.447 Y50.835 E16.21069
G1 X16.434 Y48.822 E16.34138
G1 X16.434 Y49.689 E16.38117
G1 X18.641 Y51.897 E16.52444
G1 X17.846 Y51.968 E16.56109
G1 X16.216 Y50.339 E16.66687
G1 X15.984 Y50.974 E16.69792
G1 X16.980 Y51.970 E16.76257
G1 X16.027 Y51.884 E16.80650
G1 X15.753 Y51.610 E16.82429
M106 S255
M104 S195 ; set temperature
G1 F1776
G1 X16.027 Y51.884 E14.95865
G1 F1776
G1 X16.980 Y51.970 E10.34964
G1 F1776
G1 X16.815 Y51.805 E9.22428
G1 E8.82429 F9000.00000
G92 E0
G1 Z0.400 F2220.000
G1 X18.920 Y45.992 F2220.000
G1 E8.00000 F9000.00000
G1 X18.920 Y50.284 E8.14680 F600.000
G1 X19.710 Y52.454 E8.22579
G1 X19.108 Y52.619 E8.24713
G1 X17.284 Y52.784 E8.30977
G1 X15.460 Y52.619 E8.37241
G1 X14.858 Y52.454 E8.39376
G1 X15.648 Y50.284 E8.47275
G1 X15.648 Y45.992 E8.61955
G1 X18.845 Y45.992 E8.72889
G1 X19.377 Y47.292 F2220.000
G1 X31.365 Y47.320 E9.13897 F694.328
G1 X58.519 Y47.320 E10.06779
G1 X58.568 Y47.628 E10.07844
G1 X58.519 Y47.935 E10.08908
G1 X32.514 Y47.914 E10.97863
G1 X19.377 Y47.952 E11.42798
G1 X19.377 Y50.203 E11.50500
G1 X20.309 Y52.763 E11.59818
G1 X19.190 Y53.071 E11.63788
G1 X17.284 Y53.243 E11.70333
G1 X15.378 Y53.071 E11.76878
G1 X14.259 Y52.763 E11.80847
G1 X15.191 Y50.203 E11.90166
G1 X15.191 Y45.535 E12.06133
G1 X19.377 Y45.535 E12.20451
G1 X19.377 Y47.217 E12.26203
G1 X19.834 Y46.836 F2220.000
G1 X31.366 Y46.863 E12.65649 F600.000
G1 X58.824 Y46.863 E13.59570
G1 X58.955 Y47.149 E13.60645
G1 X59.031 Y47.628 E13.62304
G1 X58.955 Y48.107 E13.63964
G1 X58.824 Y48.393 E13.65038
G1 X32.514 Y48.371 E14.55033
G1 X19.834 Y48.407 E14.98406
G1 X19.834 Y50.123 E15.04273
G1 X20.908 Y53.072 E15.15010
G1 X19.272 Y53.522 E15.20814
G1 X17.284 Y53.702 E15.27641
G1 X15.297 Y53.522 E15.34467
G1 X13.660 Y53.072 E15.40271
G1 X14.734 Y50.123 E15.51008
G1 X14.734 Y45.232 E15.67738
G1 X14.888 Y45.078 E15.68481
G1 X19.680 Y45.078 E15.84876
G1 X19.834 Y45.232 E15.85618
G1 X19.834 Y46.761 E15.90849
G1 X19.833 Y47.336 F2220.000
G1 X19.148 Y47.622 F2220.000
G1 X58.337 Y47.628 E17.24895 F600.000
G1 F1776
G1 X56.758 Y47.628 E9.64895
G1 E9.24895 F9000.00000
G92 E0
G1 X19.075 Y52.316 F2220.000
G1 E8.00000 F9000.00000
G1 X19.313 Y52.078 E8.01230 F867.910
G1 X19.129 Y51.572 E8.03198
G1 X18.290 Y52.411 E8.07533
G1 X17.531 Y52.480 E8.10317
G1 X18.945 Y51.066 E8.17622
G1 X18.761 Y50.560 E8.19589
G1 X16.841 Y52.480 E8.29507
G1 X16.208 Y52.423 E8.31829
G1 X18.648 Y49.982 E8.44438
G1 X18.648 Y49.292 E8.46960
G1 X15.575 Y52.365 E8.62839
G1 X15.414 Y51.836 E8.64861
G1 X18.648 Y48.601 E8.81570
G1 X18.648 Y47.911 E8.84092
G1 X15.809 Y50.750 E8.98761
G1 X15.920 Y49.949 E9.01715
G1 X18.648 Y47.221 E9.15811
G1 X18.648 Y46.530 E9.18333
G1 X15.920 Y49.259 E9.32429
G1 X15.920 Y48.569 E9.34950
G1 X18.225 Y46.264 E9.46857
G1 X17.534 Y46.264 E9.49378
G1 X15.920 Y47.878 E9.57719
G1 X15.920 Y47.188 E9.60241
G1 X16.844 Y46.264 E9.65015
G1 X16.154 Y46.264 E9.67537
G1 X15.920 Y46.498 E9.68745
G1 F1776
G1 X16.154 Y46.264 E8.09492
G1 F1776
G1 X16.844 Y46.264 E4.77164
G1 F1776
G1 X16.450 Y46.658 E2.08745
G1 E1.68745 F9000.00000
G92 E0
G1 Z0.600 F2220.000
G1 X19.120 Y47.468 F2220.000
G1 E8.00000 F9000.00000
G1 X48.971 Y47.491 E9.02107 F747.547
G1 X48.971 Y47.765 E9.03044
G1 X19.120 Y47.788 E10.05151
G1 X19.120 Y50.833 E10.15569
G1 X19.774 Y52.630 E10.22109
G1 X19.142 Y52.804 E10.24352
G1 X17.284 Y52.972 E10.30731
G1 X15.427 Y52.804 E10.37111
G1 X14.794 Y52.630 E10.39354
G1 X15.448 Y50.833 E10.45893
G1 X15.448 Y45.792 E10.63137
G1 X19.120 Y45.792 E10.75696
G1 X19.120 Y47.393 E10.81173
G1 X19.577 Y47.012 F2220.000
G1 X58.577 Y47.041 E12.14576 F747.547
G1 X58.577 Y48.215 E12.18590
G1 X19.577 Y48.244 E13.51992
G1 X19.577 Y50.753 E13.60572
G1 X20.373 Y52.939 E13.68531
G1 X19.223 Y53.255 E13.72609
G1 X17.284 Y53.431 E13.79270
G1 X15.345 Y53.255 E13.85930
G1 X14.195 Y52.939 E13.90008
G1 X14.991 Y50.753 E13.97967
G1 X14.991 Y45.421 E14.16205
G1 X15.077 Y45.335 E14.16620
G1 X19.491 Y45.335 E14.31719
G1 X19.577 Y45.421 E14.32134
G1 X19.577 Y46.937 E14.37319
G1 X20.034 Y46.555 F2220.000
G1 X58.855 Y46.584 E15.70110 F600.000
G1 X58.913 Y46.664 E15.70447
G1 X59.034 Y46.928 E15.71440
G1 X59.034 Y48.328 E15.76228
G1 X58.913 Y48.592 E15.77221
G1 X58.855 Y48.672 E15.77558
G1 X20.034 Y48.701 E17.10349
G1 X20.034 Y50.672 E17.17091
G1 X20.972 Y53.249 E17.26470
G1 X19.305 Y53.707 E17.32382
G1 X17.284 Y53.890 E17.39324
G1 X15.263 Y53.707 E17.46266
G1 X13.596 Y53.249 E17.52178
G1 X14.534 Y50.672 E17.61556
G1 X14.534 Y45.232 E17.80166
G1 X14.888 Y44.878 E17.81876
G1 X19.680 Y44.878 E17.98271
G1 X20.034 Y45.232 E17.99981
G1 X20.034 Y46.480 E18.04251
G1 X20.034 Y47.055 F2220.000
G1 X18.848 Y46.298 F2220.000
G1 X18.614 Y46.064 E18.05453 F934.434
G1 X17.928 Y46.064 E18.07949
G1 X18.848 Y46.984 E18.12680
G1 X18.848 Y47.671 E18.15176
G1 X17.241 Y46.064 E18.23436
G1 X16.554 Y46.064 E18.25932
G1 X18.848 Y48.358 E18.37721
G1 X18.848 Y49.045 E18.40217
G1 X15.868 Y46.064 E18.55536
G1 X15.720 Y46.603 E18.57567
G1 X18.848 Y49.731 E18.73645
G1 X18.848 Y50.418 E18.76141
G1 X15.720 Y47.289 E18.92219
G1 X15.720 Y47.976 E18.94714
G1 X18.911 Y51.167 E19.11115
G1 X19.304 Y52.247 F2220.000
G1 X15.720 Y48.663 E19.29535 F934.434
G1 X15.720 Y49.350 E19.32030
G1 X18.929 Y52.559 E19.48522
G1 X18.299 Y52.616 E19.50820
G1 X15.720 Y50.036 E19.64075
G1 X15.720 Y50.723 E19.66571
G1 X17.669 Y52.673 E19.76590
G1 X16.972 Y52.662 E19.79126
G1 X15.557 Y51.247 E19.86394
G1 X15.374 Y51.751 E19.88341
G1 X16.217 Y52.593 E19.92670
G1 X15.429 Y52.493 E19.95556
G1 X15.191 Y52.254 E19.96779
G1 F1776
G1 X15.429 Y52.493 E18.34660
G1 F1776
G1 X16.217 Y52.593 E14.52406
G1 F1776
G1 X15.900 Y52.277 E12.36779
G1 E11.96779 F9000.00000
G92 E0
G1 X49.199 Y47.628 F2220.000
G1 E8.00000 F9000.00000
G1 X58.348 Y47.628 E8.65529 F622.956
G1 F1776
G1 X56.770 Y47.628 E1.05529
G1 E0.65529 F9000.00000
G92 E0
G1 Z0.800 F2220.000
G1 X19.120 Y47.287 F2220.000
G1 E8.00000 F9000.00000
G1 X58.120 Y47.298 E9.33402 F864.220
G1 X58.120 Y47.958 E9.35658
G1 X19.120 Y47.969 E10.69060
G1 X19.120 Y50.833 E10.78857
G1 X19.838 Y52.806 E10.86038
G1 X19.175 Y52.988 E10.88389
G1 X17.284 Y53.159 E10.94884
G1 X15.393 Y52.988 E11.01380
G1 X14.730 Y52.806 E11.03730
G1 X15.448 Y50.833 E11.10911
G1 X15.448 Y45.792 E11.28155
G1 X19.120 Y45.792 E11.40714
G1 X19.120 Y47.212 E11.45570
G1 X19.577 Y46.830 F2220.000
G1 X58.577 Y46.841 E12.78973 F864.220
G1 X58.577 Y48.415 E12.84354
G1 X19.577 Y48.426 E14.17756
G1 X19.577 Y50.753 E14.25715
G1 X20.437 Y53.115 E14.34315
G1 X19.257 Y53.440 E14.38501
G1 X17.284 Y53.618 E14.45277
G1 X15.311 Y53.440 E14.52054
G1 X14.131 Y53.115 E14.56239
G1 X14.991 Y50.753 E14.64839
G1 X14.991 Y45.421 E14.83077
G1 X15.077 Y45.335 E14.83492
G1 X19.491 Y45.335 E14.98591
G1 X19.577 Y45.421 E14.99006
G1 X19.577 Y46.755 E15.03570
G1 X20.034 Y46.373 F2220.000
G1 X58.856 Y46.384 E16.36362 F691.376
G1 X59.034 Y46.634 E16.37411
G1 X59.034 Y48.622 E16.44213
G1 X58.856 Y48.872 E16.45262
G1 X20.034 Y48.883 E17.78053
G1 X20.034 Y50.672 E17.84173
G1 X21.036 Y53.425 E17.94193
G1 X19.339 Y53.891 E18.00213
G1 X17.284 Y54.077 E18.07271
G1 X15.229 Y53.891 E18.14328
G1 X13.532 Y53.425 E18.20348
G1 X14.534 Y50.672 E18.30368
G1 X14.534 Y45.232 E18.48978
G1 X14.888 Y44.878 E18.50688
G1 X19.680 Y44.878 E18.67082
G1 X20.034 Y45.232 E18.68792
G1 X20.034 Y46.298 E18.72441
G1 X20.034 Y46.873 F2220.000
G1 X18.891 Y47.628 F2220.000
G1 X57.891 Y47.628 E20.05843 F720.183
G1 F1776
G1 X56.313 Y47.628 E12.45843
G1 E12.05843 F9000.00000
G92 E0
G1 X19.203 Y52.669 F2220.000
G1 E8.00000 F9000.00000
G1 X19.441 Y52.431 E8.01171 F1080.275
G1 X19.266 Y51.949 E8.02953
G1 X18.442 Y52.773 E8.07003
G1 X17.720 Y52.838 E8.09524
G1 X19.091 Y51.467 E8.16264
G1 X18.915 Y50.986 E8.18046
G1 X17.029 Y52.872 E8.27320
G1 X16.427 Y52.817 E8.29423
G1 X18.848 Y50.396 E8.41329
G1 X18.848 Y49.739 E8.43613
G1 X15.824 Y52.763 E8.58481
G1 X15.242 Y52.688 E8.60522
G1 X18.848 Y49.082 E8.78252
G1 X18.848 Y48.425 E8.80536
G1 X15.400 Y51.873 E8.97488
G1 X15.720 Y50.896 F2220.000
G1 X18.620 Y47.996 E9.11746 F1080.275
G1 X18.620 Y47.339 E9.14029
G1 X15.720 Y50.239 E9.28287
G1 X15.720 Y49.582 E9.30571
G1 X18.848 Y46.454 E9.45952
G1 X18.581 Y46.064 E9.47596
G1 X15.720 Y48.926 E9.61665
G1 X15.720 Y48.269 E9.63949
G1 X17.925 Y46.064 E9.74788
G1 X17.268 Y46.064 E9.77072
G1 X15.720 Y47.612 E9.84682
G1 X15.720 Y46.955 E9.86966
G1 X16.611 Y46.064 E9.91346
G1 X15.954 Y46.064 E9.93630
G1 X15.720 Y46.298 E9.94779
G1 F1776
G1 X15.954 Y46.064 E8.35527
G1 F1776
G1 X16.611 Y46.064 E5.19255
G1 F1776
G1 X16.193 Y46.482 E2.34780
G1 E1.94779 F9000.00000
G92 E0
G1 Z1.000 F2220.000
G1 X19.120 Y47.136 F2220.000
G1 E8.00000 F9000.00000
G1 X58.120 Y47.136 E9.33402 F869.052
G1 X58.120 Y48.120 E9.36771
G1 X19.120 Y48.120 E10.70173
G1 X19.120 Y50.833 E10.79452
G1 X19.902 Y52.982 E10.87274
G1 X19.209 Y53.173 E10.89733
G1 X17.284 Y53.347 E10.96344
G1 X15.359 Y53.173 E11.02955
G1 X14.666 Y52.982 E11.05414
G1 X15.448 Y50.833 E11.13236
G1 X15.448 Y45.792 E11.30479
G1 X19.120 Y45.792 E11.43038
G1 X19.120 Y47.061 E11.47377
G1 X19.577 Y46.679 F2220.000
G1 X58.577 Y46.679 E12.80779 F869.052
G1 X58.577 Y48.578 E12.87275
G1 X19.577 Y48.578 E14.20677
G1 X19.577 Y50.753 E14.28118
G1 X20.501 Y53.292 E14.37359
G1 X19.291 Y53.624 E14.41652
G1 X17.284 Y53.806 E14.48544
G1 X15.277 Y53.624 E14.55436
G1 X14.067 Y53.292 E14.59730
G1 X14.991 Y50.753 E14.68971
G1 X14.991 Y45.421 E14.87209
G1 X15.077 Y45.335 E14.87624
G1 X19.491 Y45.335 E15.02723
G1 X19.577 Y45.421 E15.03138
G1 X19.577 Y46.604 E15.07184
G1 X20.034 Y46.222 F2220.000
G1 X58.882 Y46.222 E16.40066 F695.241
G1 X59.034 Y46.434 E16.40959
G1 X59.034 Y48.822 E16.49129
G1 X58.882 Y49.035 E16.50022
G1 X20.034 Y49.035 E17.82905
G1 X20.034 Y50.672 E17.88506
G1 X21.100 Y53.601 E17.99167
G1 X19.373 Y54.076 E18.05295
G1 X17.284 Y54.265 E18.12468
G1 X15.196 Y54.076 E18.19641
G1 X13.468 Y53.601 E18.25769
G1 X14.534 Y50.672 E18.36430
G1 X14.534 Y45.232 E18.55040
G1 X14.888 Y44.878 E18.56750
G1 X19.680 Y44.878 E18.73145
G1 X20.034 Y45.232 E18.74855
G1 X20.034 Y46.147 E18.77985
G1 X20.034 Y46.722 F2220.000
G1 X18.848 Y46.298 F2220.000
G1 X18.614 Y46.064 E18.79163 F1086.314
G1 X17.941 Y46.064 E18.81559
G1 X18.734 Y46.857 E18.85552
G1 X18.620 Y47.415 E18.87582
G1 X17.268 Y46.064 E18.94388
G1 X16.595 Y46.064 E18.96785
G1 X18.620 Y48.088 E19.06979
G1 X18.848 Y48.990 E19.10291
G1 X15.923 Y46.064 E19.25026
G1 X15.720 Y46.534 E19.26850
G1 X18.848 Y49.663 E19.42606
G1 X18.848 Y50.336 E19.45003
G1 X15.720 Y47.207 E19.60759
G1 X15.720 Y47.880 E19.63156
G1 X18.855 Y51.016 E19.78947
G1 X19.241 Y52.074 F2220.000
G1 X15.720 Y48.553 E19.96681 F1086.314
G1 X15.720 Y49.226 E19.99078
G1 X19.365 Y52.871 E20.17437
G1 X18.769 Y52.948 E20.19577
G1 X15.720 Y49.899 E20.34934
G1 X15.720 Y50.572 E20.37330
G1 X18.152 Y53.004 E20.49579
G1 X17.535 Y53.060 E20.51786
G1 X15.601 Y51.126 E20.61523
G1 X15.422 Y51.620 E20.63393
G1 X16.825 Y53.023 E20.70462
G1 X16.086 Y52.957 E20.73107
G1 X15.242 Y52.113 E20.77354
G1 X15.063 Y52.607 E20.79224
G1 X15.301 Y52.845 E20.80423
G1 X18.891 Y47.628 F2220.000
G1 X57.891 Y47.628 E23.59754 F724.210
G1 F1776
