; generated by Slic3r 1.2.9 on 2016-07-08 at 14:36:20

; external perimeters extrusion width = 0.50mm
; perimeters extrusion width = 0.50mm
; infill extrusion width = 0.60mm
; solid infill extrusion width = 0.50mm
; top infill extrusion width = 0.50mm

M107
M104 S200 ; set temperature
G28 ; home all axes

M109 S200 ; wait for temperature to be reached
G21 ; set units to millimeters
G90 ; use absolute coordinates
M82 ; use absolute distances for extrusion
G92 E0
G1 E-8.00000 F9000.00000
G92 E0
G1 Z0.200 F2220.000
G1 X29.982 Y26.313 F2220.000
G1 E8.00000 F9000.00000
G1 X30.350 Y25.894 E8.02322 F864.000
G1 X37.264 Y18.980 E8.43086
G1 X37.723 Y18.577 E8.45634
G1 X37.932 Y18.417 E8.46730
G1 X38.987 Y17.808 E8.51806
G1 X39.233 Y17.706 E8.52915
G1 X40.406 Y17.393 E8.57978
G1 X41.274 Y17.319 E8.61612
G1 X70.446 Y17.319 E9.83226
G1 X71.055 Y17.359 E9.85773
G1 X71.315 Y17.393 E9.86864 F864.000
G1 X72.492 Y17.708 E9.91946
G1 X72.733 Y17.808 E9.93034
G1 X73.789 Y18.418 E9.98117
G1 X73.997 Y18.577 E9.99206
G1 X74.456 Y18.980 E10.01753
G1 X81.370 Y25.894 E10.42518
G1 X81.938 Y26.568 E10.46191
G1 X82.542 Y27.616 E10.51235
G1 X82.641 Y27.857 E10.52320
G1 X82.957 Y29.036 E10.57408
G1 X83.031 Y29.904 E10.61042
G1 X83.031 Y59.076 E11.82656
G1 X82.957 Y59.944 E11.86290
G1 X82.642 Y61.122 E11.91374
G1 X82.542 Y61.364 E11.92462
G1 X81.932 Y62.419 E11.97545
G1 X81.370 Y63.086 E12.01180
G1 X74.456 Y70.000 E12.41944
G1 X73.780 Y70.569 E12.45627
G1 X72.733 Y71.172 E12.50662
G1 X72.490 Y71.272 E12.51760
G1 X71.314 Y71.587 E12.56834
G1 X70.446 Y71.661 E12.60468
G1 X41.274 Y71.661 E13.82082
G1 X40.406 Y71.587 E13.85716
G1 X39.228 Y71.272 E13.90800
G1 X38.987 Y71.172 E13.91888
G1 X37.931 Y70.562 E13.96972
G1 X37.723 Y70.403 E13.98060
G1 X37.264 Y70.000 E14.00608
G1 X30.350 Y63.086 E14.41373
G1 X29.785 Y62.415 E14.45028
G1 X29.178 Y61.363 E14.50090
G1 X29.078 Y61.122 E14.51178
G1 X28.763 Y59.944 E14.56262
G1 X28.689 Y59.076 E14.59896
G1 X28.689 Y29.904 E15.81510
G1 X28.763 Y29.036 E15.85144
G1 X29.078 Y27.858 E15.90228
G1 X29.179 Y27.615 E15.91324
G1 X29.788 Y26.561 E15.96400
G1 X29.934 Y26.370 E15.97401
G1 X30.400 Y26.679 F2220.000
G1 X30.744 Y26.288 E15.99572 F864.000
G1 X37.658 Y19.374 E16.40336
G1 X38.063 Y19.019 E16.42580
G1 X38.271 Y18.859 E16.43675
G1 X39.200 Y18.323 E16.48145
G1 X39.445 Y18.221 E16.49253
G1 X40.478 Y17.945 E16.53712
G1 X41.274 Y17.876 E16.57042
G1 X70.446 Y17.876 E17.78656
G1 X70.983 Y17.911 E17.80899
G1 X71.242 Y17.945 E17.81990 F864.000
G1 X72.279 Y18.223 E17.86465
G1 X72.520 Y18.323 E17.87554
G1 X73.450 Y18.860 E17.92031
G1 X73.657 Y19.019 E17.93119
G1 X74.062 Y19.374 E17.95363
G1 X80.976 Y26.288 E18.36127
G1 X81.495 Y26.906 E18.39492
G1 X82.027 Y27.830 E18.43935
G1 X82.127 Y28.070 E18.45019
G1 X82.405 Y29.108 E18.49501
G1 X82.474 Y29.904 E18.52831
G1 X82.474 Y59.076 E19.74445
G1 X82.405 Y59.872 E19.77776
G1 X82.127 Y60.909 E19.82254
G1 X82.027 Y61.150 E19.83342
G1 X81.490 Y62.080 E19.87819
G1 X80.976 Y62.692 E19.91149
G1 X74.062 Y69.606 E20.31914
G1 X73.442 Y70.126 E20.35287
G1 X72.520 Y70.657 E20.39722
G1 X72.277 Y70.758 E20.40818
G1 X71.242 Y71.035 E20.45288
G1 X70.446 Y71.104 E20.48618
G1 X41.274 Y71.104 E21.70232
G1 X40.478 Y71.035 E21.73562
G1 X39.441 Y70.757 E21.78040
G1 X39.200 Y70.657 E21.79128
G1 X38.270 Y70.120 E21.83605
G1 X38.063 Y69.961 E21.84694
G1 X37.658 Y69.606 E21.86937
G1 X30.744 Y62.692 E22.27702
G1 X30.227 Y62.077 E22.31051
G1 X29.693 Y61.150 E22.35509
G1 X29.593 Y60.909 E22.36598
G1 X29.315 Y59.872 E22.41075
G1 X29.246 Y59.076 E22.44406
G1 X29.246 Y29.904 E23.66020
G1 X29.315 Y29.108 E23.69350
G1 X29.593 Y28.071 E23.73828
G1 X29.694 Y27.828 E23.74923
G1 X30.230 Y26.900 E23.79393
G1 X30.354 Y26.738 E23.80242
G1 X30.832 Y27.030 F2220.000
G1 X31.138 Y26.682 E23.82171 F864.000
G1 X38.052 Y19.768 E24.22935
G1 X38.610 Y19.301 E24.25968
G1 X39.413 Y18.838 E24.29833
G1 X39.658 Y18.736 E24.30938
G1 X40.551 Y18.497 E24.34793
G1 X41.274 Y18.433 E24.37819
G1 X70.446 Y18.433 E25.59433
G1 X70.910 Y18.463 E25.61373
G1 X71.169 Y18.497 E25.62463 F864.000
G1 X72.066 Y18.738 E25.66333
G1 X72.307 Y18.838 E25.67421
G1 X73.111 Y19.302 E25.71292
G1 X73.318 Y19.461 E25.72380
G1 X73.668 Y19.768 E25.74320
G1 X80.582 Y26.682 E26.15085
G1 X81.052 Y27.245 E26.18141
G1 X81.512 Y28.043 E26.21982
G1 X81.612 Y28.283 E26.23067
G1 X81.853 Y29.181 E26.26942
G1 X81.917 Y29.904 E26.29969
G1 X81.917 Y59.076 E27.51583
G1 X81.853 Y59.799 E27.54609
G1 X81.612 Y60.696 E27.58481
G1 X81.512 Y60.937 E27.59569
G1 X81.048 Y61.741 E27.63440
G1 X80.582 Y62.298 E27.66466
G1 X73.668 Y69.212 E28.07231
G1 X73.318 Y69.519 E28.09171
G1 X73.104 Y69.683 E28.10296
G1 X72.307 Y70.142 E28.14130
G1 X72.064 Y70.243 E28.15226
G1 X71.169 Y70.483 E28.19090
G1 X70.446 Y70.547 E28.22117
G1 X41.274 Y70.547 E29.43731
G1 X40.551 Y70.483 E29.46757
G1 X39.654 Y70.242 E29.50628
G1 X39.413 Y70.142 E29.51717
G1 X38.609 Y69.678 E29.55588
G1 X38.402 Y69.519 E29.56676
G1 X38.052 Y69.212 E29.58616
G1 X31.138 Y62.298 E29.99381
G1 X30.670 Y61.738 E30.02424
G1 X30.208 Y60.937 E30.06278
G1 X30.108 Y60.696 E30.07366
G1 X29.867 Y59.799 E30.11238
G1 X29.803 Y59.076 E30.14264
G1 X29.803 Y29.904 E31.35878
G1 X29.867 Y29.181 E31.38905
G1 X30.108 Y28.284 E31.42776
G1 X30.208 Y28.042 E31.43871
G1 X30.672 Y27.239 E31.47736
G1 X30.787 Y27.089 E31.48522
G1 F1776
G1 X31.138 Y26.682 E28.89693
G1 F1776
G1 X31.874 Y25.946 E23.88521
G1 E23.48522 F9000.00000
G92 E0
G1 X45.886 Y56.507 F2220.000
G1 E8.00000 F9000.00000
G1 X46.044 Y57.504 E8.04209 F691.200
G1 X45.863 Y58.518 E8.08504
G1 X45.434 Y59.360 E8.12444
G1 X44.730 Y60.064 E8.16594
G1 X43.843 Y60.516 E8.20744
G1 X42.860 Y60.672 E8.24894
G1 X41.877 Y60.516 E8.29044
G1 X40.990 Y60.064 E8.33194
G1 X40.286 Y59.360 E8.37344
G1 X39.828 Y58.461 E8.41553
G1 X39.686 Y57.440 E8.45848
G1 X39.834 Y56.507 E8.49788
G1 X40.286 Y55.620 E8.53938
G1 X41.000 Y54.906 E8.58147
G1 X41.927 Y54.456 E8.62442
G1 X42.860 Y54.308 E8.66382 F691.200
G1 X43.843 Y54.464 E8.70532
G1 X44.730 Y54.916 E8.74682
G1 X45.434 Y55.620 E8.78832
G1 X45.852 Y56.440 E8.82669
G1 X45.350 Y56.681 F2220.000
G1 X45.479 Y57.498 E8.86119 F691.200
G1 X45.329 Y58.339 E8.89679
G1 X44.978 Y59.029 E8.92906
G1 X44.399 Y59.608 E8.96320
G1 X43.669 Y59.980 E8.99735
G1 X42.860 Y60.108 E9.03149
G1 X42.051 Y59.980 E9.06563
G1 X41.321 Y59.608 E9.09978
G1 X40.742 Y59.029 E9.13392
G1 X40.366 Y58.291 E9.16842
G1 X40.249 Y57.446 E9.20402
G1 X40.370 Y56.681 E9.23629
G1 X40.742 Y55.951 E9.27043
G1 X41.327 Y55.366 E9.30493
G1 X42.096 Y54.993 E9.34053
G1 X42.860 Y54.872 E9.37280 F691.200
G1 X43.669 Y55.000 E9.40694
G1 X44.399 Y55.372 E9.44108
G1 X44.978 Y55.951 E9.47523
G1 X45.316 Y56.614 E9.50625
G1 X44.813 Y56.855 F2220.000
G1 X44.914 Y57.493 E9.53316 F691.200
G1 X44.795 Y58.160 E9.56140
G1 X44.522 Y58.697 E9.58654
G1 X44.067 Y59.152 E9.61333
G1 X43.495 Y59.443 E9.64011
G1 X42.860 Y59.544 E9.66690
G1 X42.225 Y59.443 E9.69369
G1 X41.653 Y59.152 E9.72048
G1 X41.198 Y58.697 E9.74726
G1 X40.905 Y58.122 E9.77418
G1 X40.812 Y57.451 E9.80242
G1 X40.907 Y56.855 E9.82756
G1 X41.198 Y56.283 E9.85434
G1 X41.655 Y55.826 E9.88126
G1 X42.264 Y55.531 E9.90950
G1 X42.860 Y55.436 E9.93464 F691.200
G1 X43.495 Y55.537 E9.96143
G1 X44.067 Y55.828 E9.98821
G1 X44.522 Y56.283 E10.01500
G1 X44.779 Y56.789 E10.03866
G1 X45.296 Y56.985 F2220.000
G1 X65.678 Y57.490 F2220.000
G1 X65.834 Y56.507 E10.08016 F691.200
G1 X66.286 Y55.620 E10.12166
G1 X67.000 Y54.906 E10.16375
G1 X67.927 Y54.456 E10.20670
G1 X68.860 Y54.308 E10.24610 F691.200
G1 X69.843 Y54.464 E10.28760
G1 X70.730 Y54.916 E10.32910
G1 X71.434 Y55.620 E10.37060
G1 X71.886 Y56.507 E10.41210
G1 X72.042 Y57.490 E10.45360
G1 X71.886 Y58.473 E10.49510
G1 X71.434 Y59.360 E10.53660
G1 X70.730 Y60.064 E10.57811
G1 X69.843 Y60.516 E10.61961
G1 X68.860 Y60.672 E10.66111
G1 X67.877 Y60.516 E10.70261
G1 X66.990 Y60.064 E10.74411
G1 X66.286 Y59.360 E10.78561
G1 X65.834 Y58.473 E10.82711
G1 X65.690 Y57.564 E10.86549
G1 X66.242 Y57.490 F2220.000
G1 X66.370 Y56.681 E10.89963 F691.200
G1 X66.742 Y55.951 E10.93377
G1 X67.327 Y55.366 E10.96827
G1 X68.096 Y54.993 E11.00387
G1 X68.860 Y54.872 E11.03614 F691.200
G1 X69.669 Y55.000 E11.07028
G1 X70.399 Y55.372 E11.10443
G1 X70.978 Y55.951 E11.13857
G1 X71.350 Y56.681 E11.17271
G1 X71.478 Y57.490 E11.20686
G1 X71.350 Y58.299 E11.24100
G1 X70.978 Y59.029 E11.27515
G1 X70.399 Y59.608 E11.30929
G1 X69.669 Y59.980 E11.34344
G1 X68.860 Y60.108 E11.37758
G1 X68.051 Y59.980 E11.41172
G1 X67.321 Y59.608 E11.44587
G1 X66.742 Y59.029 E11.48001
G1 X66.370 Y58.299 E11.51416
G1 X66.254 Y57.564 E11.54517
G1 X66.806 Y57.490 F2220.000
G1 X66.907 Y56.855 E11.57196 F691.200
G1 X67.198 Y56.283 E11.59875
G1 X67.655 Y55.826 E11.62566
G1 X68.264 Y55.531 E11.65390
G1 X68.860 Y55.436 E11.67904 F691.200
G1 X69.495 Y55.537 E11.70583
G1 X70.067 Y55.828 E11.73262
G1 X70.522 Y56.283 E11.75940
G1 X70.813 Y56.855 E11.78619
G1 X70.914 Y57.490 E11.81298
G1 X70.813 Y58.125 E11.83977
G1 X70.522 Y58.697 E11.86655
G1 X70.067 Y59.152 E11.89334
G1 X69.495 Y59.443 E11.92013
G1 X68.860 Y59.544 E11.94692
G1 X68.225 Y59.443 E11.97370
G1 X67.653 Y59.152 E12.00049
G1 X67.198 Y58.697 E12.02728
G1 X66.907 Y58.125 E12.05407
G1 X66.818 Y57.564 E12.07773
G1 X66.387 Y57.218 F2220.000
G1 X63.983 Y54.125 F2220.000
G1 X63.043 Y54.914 E12.12889 F864.000
G1 X62.477 Y55.270 E12.15676
G1 X60.468 Y56.279 E12.25050
G1 X59.837 Y56.500 E12.27837
G1 X57.649 Y57.018 E12.37211
G1 X57.244 Y57.064 E12.38909
G1 X56.199 Y57.064 E12.43265
G1 X55.860 Y57.102 E12.44687
G1 X55.521 Y57.064 E12.46109
G1 X54.476 Y57.064 E12.50465
G1 X54.071 Y57.018 E12.52163
G1 X51.883 Y56.500 E12.61537
G1 X51.252 Y56.279 E12.64324
G1 X49.243 Y55.270 E12.73698
G1 X48.677 Y54.914 E12.76486
G1 X46.954 Y53.469 E12.85860
G1 X46.482 Y52.996 E12.88647
G1 X45.139 Y51.193 E12.98021
G1 X44.783 Y50.626 E13.00808
G1 X43.893 Y48.562 E13.10183
G1 X43.672 Y47.931 E13.12970
G1 X43.281 Y45.716 E13.22344
G1 X43.221 Y45.181 E13.24588
G1 X43.252 Y44.658 E13.26774
G1 X43.233 Y44.490 E13.27478
G1 X43.290 Y43.977 E13.29628
G1 X43.402 Y42.177 E13.37150
G1 X44.057 Y39.988 E13.46675
G1 X44.278 Y39.357 E13.49463
G1 X45.402 Y37.409 E13.58837
G1 X45.760 Y36.840 E13.61643
G1 X47.762 Y34.741 E13.73733
G1 X50.210 Y33.146 E13.85913
G1 X52.957 Y32.153 E13.98091
G1 X55.198 Y31.891 E14.07497
G1 X55.862 Y31.817 E14.10284 F864.000
G1 X58.762 Y32.153 E14.22455
G1 X61.510 Y33.146 E14.34635
G1 X63.958 Y34.741 E14.46815
G1 X65.960 Y36.840 E14.58905
G1 X66.318 Y37.409 E14.61711
G1 X67.442 Y39.357 E14.71085
G1 X67.663 Y39.988 E14.73873
G1 X68.308 Y42.142 E14.83248
G1 X68.339 Y42.417 E14.84401
G1 X68.430 Y43.980 E14.90928
G1 X68.487 Y44.490 E14.93067
G1 X68.468 Y44.658 E14.93772
G1 X68.499 Y45.181 E14.95957
G1 X68.439 Y45.716 E14.98201
G1 X68.048 Y47.931 E15.07575
G1 X67.827 Y48.562 E15.10363
G1 X66.937 Y50.626 E15.19737
G1 X66.581 Y51.193 E15.22525
G1 X65.238 Y52.996 E15.31899
G1 X64.766 Y53.469 E15.34686
G1 X64.041 Y54.077 E15.38631
G1 X63.625 Y53.699 F2220.000
G1 X62.714 Y54.463 E15.43588 F864.000
G1 X62.203 Y54.784 E15.46104
G1 X60.250 Y55.765 E15.55218
G1 X59.680 Y55.965 E15.57734
G1 X57.553 Y56.469 E15.66847
G1 X57.213 Y56.507 E15.68275
G1 X56.168 Y56.507 E15.72631
G1 X55.860 Y56.542 E15.73922
G1 X55.552 Y56.507 E15.75213
G1 X54.507 Y56.507 E15.79569
G1 X54.167 Y56.469 E15.80996
G1 X52.040 Y55.965 E15.90109
G1 X51.470 Y55.765 E15.92626
G1 X49.517 Y54.784 E16.01739
G1 X49.006 Y54.463 E16.04256
G1 X47.331 Y53.058 E16.13369
G1 X46.904 Y52.631 E16.15885
G1 X45.599 Y50.878 E16.24999
G1 X45.278 Y50.366 E16.27515
G1 X44.412 Y48.359 E16.36629
G1 X44.213 Y47.789 E16.39146
G1 X43.833 Y45.636 E16.48259
G1 X43.780 Y45.166 E16.50232
G1 X43.810 Y44.643 E16.52417
G1 X43.793 Y44.490 E16.53059
G1 X43.845 Y44.026 E16.55006
G1 X43.954 Y42.275 E16.62318
G1 X44.587 Y40.160 E16.71523
G1 X44.786 Y39.590 E16.74040
G1 X45.879 Y37.697 E16.83154
G1 X46.202 Y37.184 E16.85681
G1 X48.121 Y35.173 E16.97267
G1 X50.460 Y33.648 E17.08909
G1 X53.086 Y32.699 E17.20549
G1 X55.262 Y32.445 E17.29681
G1 X55.861 Y32.377 E17.32198 F864.000
G1 X58.634 Y32.699 E17.43833
G1 X61.260 Y33.648 E17.55474
G1 X63.599 Y35.173 E17.67116
G1 X65.518 Y37.184 E17.78702
G1 X65.841 Y37.697 E17.81230
G1 X66.934 Y39.590 E17.90343
G1 X67.133 Y40.160 E17.92860
G1 X67.760 Y42.254 E18.01974
G1 X67.875 Y44.027 E18.09382
G1 X67.927 Y44.490 E18.11322
G1 X67.910 Y44.643 E18.11963
G1 X67.940 Y45.166 E18.14149
G1 X67.887 Y45.636 E18.16122
G1 X67.507 Y47.789 E18.25235
G1 X67.308 Y48.359 E18.27752
G1 X66.442 Y50.366 E18.36865
G1 X66.121 Y50.878 E18.39382
G1 X64.816 Y52.631 E18.48495
G1 X64.389 Y53.058 E18.51012
G1 X63.682 Y53.651 E18.54856
G1 X63.267 Y53.272 F2220.000
G1 X62.385 Y54.012 E18.59653 F691.200
G1 X61.929 Y54.298 E18.61899
G1 X60.032 Y55.251 E18.70751
G1 X59.523 Y55.429 E18.72998
G1 X57.457 Y55.919 E18.81850
G1 X57.181 Y55.950 E18.83007
G1 X56.136 Y55.950 E18.87362
G1 X55.860 Y55.981 E18.88522
G1 X55.584 Y55.950 E18.89682
G1 X54.539 Y55.950 E18.94038
G1 X54.263 Y55.919 E18.95195
G1 X52.197 Y55.429 E19.04047
G1 X51.688 Y55.251 E19.06293
G1 X49.791 Y54.298 E19.15146
G1 X49.335 Y54.012 E19.17392
G1 X47.708 Y52.647 E19.26244
G1 X47.327 Y52.266 E19.28490
G1 X46.059 Y50.562 E19.37342
G1 X45.772 Y50.106 E19.39588
G1 X44.931 Y48.157 E19.48441
G1 X44.753 Y47.648 E19.50687
G1 X44.385 Y45.557 E19.59539
G1 X44.339 Y45.151 E19.61242
G1 X44.369 Y44.628 E19.63427
G1 X44.354 Y44.490 E19.64005
G1 X44.401 Y44.074 E19.65749
G1 X44.506 Y42.374 E19.72853
G1 X45.117 Y40.332 E19.81737
G1 X45.295 Y39.823 E19.83983
G1 X46.357 Y37.984 E19.92836
G1 X46.644 Y37.528 E19.95086
G1 X48.479 Y35.604 E20.06168
G1 X50.710 Y34.150 E20.17270
G1 X53.214 Y33.245 E20.28372
G1 X55.325 Y32.998 E20.37231
G1 X55.861 Y32.938 E20.39477 F691.200
G1 X58.505 Y33.245 E20.50578
G1 X61.010 Y34.150 E20.61680
G1 X63.241 Y35.604 E20.72782
G1 X65.076 Y37.528 E20.83865
G1 X65.363 Y37.984 E20.86115
G1 X66.425 Y39.823 E20.94967
G1 X66.603 Y40.332 E20.97213
G1 X67.212 Y42.366 E21.06066
G1 X67.319 Y44.075 E21.13203
G1 X67.366 Y44.490 E21.14945
G1 X67.351 Y44.628 E21.15523
G1 X67.381 Y45.151 E21.17708
G1 X67.335 Y45.557 E21.19410
G1 X66.967 Y47.648 E21.28263
G1 X66.789 Y48.157 E21.30509
G1 X65.948 Y50.106 E21.39361
G1 X65.661 Y50.562 E21.41607
G1 X64.393 Y52.266 E21.50460
G1 X64.012 Y52.647 E21.52706
G1 X63.324 Y53.224 E21.56448
G1 X63.354 Y53.764 F2220.000
G1 F1776
G1 X62.385 Y54.012 E15.66413
G1 F1776
G1 X62.087 Y54.199 E13.96448
G1 E13.56448 F9000.00000
G92 E0
G1 X67.832 Y34.493 F2220.000
G1 E8.00000 F9000.00000
G1 X66.990 Y34.064 E8.03939 F691.200
G1 X66.286 Y33.360 E8.08090
G1 X65.834 Y32.473 E8.12240
G1 X65.678 Y31.490 E8.16390
G1 X65.834 Y30.507 E8.20540
G1 X66.286 Y29.620 E8.24690
G1 X67.000 Y28.906 E8.28899
G1 X67.927 Y28.456 E8.33194
G1 X68.860 Y28.308 E8.37133 F691.200
G1 X69.843 Y28.464 E8.41284
G1 X70.730 Y28.916 E8.45434
G1 X71.434 Y29.620 E8.49584
G1 X71.886 Y30.507 E8.53734
G1 X72.042 Y31.490 E8.57884
G1 X71.886 Y32.473 E8.62034
G1 X71.434 Y33.360 E8.66184
G1 X70.730 Y34.064 E8.70334
G1 X69.843 Y34.516 E8.74484
G1 X68.846 Y34.674 E8.78693
G1 X67.906 Y34.506 E8.82676
G1 X68.011 Y33.959 F2220.000
G1 X67.321 Y33.608 E8.85903 F691.200
G1 X66.742 Y33.029 E8.89317
G1 X66.370 Y32.299 E8.92731
G1 X66.242 Y31.490 E8.96146
G1 X66.370 Y30.681 E8.99560
G1 X66.742 Y29.951 E9.02975
G1 X67.327 Y29.366 E9.06425
G1 X68.096 Y28.993 E9.09984
G1 X68.860 Y28.872 E9.13211 F691.200
G1 X69.669 Y29.000 E9.16626
G1 X70.399 Y29.372 E9.20040
G1 X70.978 Y29.951 E9.23454
G1 X71.350 Y30.681 E9.26869
G1 X71.478 Y31.490 E9.30283
G1 X71.350 Y32.299 E9.33698
