; generated by Slic3r 1.2.9 on 2016-07-12 at 11:49:56

; external perimeters extrusion width = 0.50mm
; perimeters extrusion width = 0.50mm
; infill extrusion width = 0.60mm
; solid infill extrusion width = 0.50mm
; top infill extrusion width = 0.50mm

M107
M104 S200 ; set temperature
G28 ; home all axes

M109 S200 ; wait for temperature to be reached
G21 ; set units to millimeters
G90 ; use absolute coordinates
M82 ; use absolute distances for extrusion
G92 E0
G1 E-8.00000 F9000.00000
G92 E0
G1 Z0.200 F2220.000
G1 X40.289 Y33.914 F2220.000
G1 E8.00000 F9000.00000
G1 X40.797 Y33.337 E8.03204 F864.000
G1 X41.363 Y32.793 E8.06479
G1 X42.005 Y32.272 E8.09925
G1 X42.655 Y31.831 E8.13200
G1 X43.326 Y31.453 E8.16408
G1 X44.036 Y31.128 E8.19666
G1 X44.809 Y30.850 E8.23090
G1 X45.563 Y30.648 E8.26343
G1 X46.322 Y30.512 E8.29558
G1 X47.053 Y30.439 E8.32621
G1 X48.382 Y30.423 E8.38161
G1 X67.568 Y30.680 E9.18154 F864.000
G1 X68.582 Y30.735 E9.22388
G1 X69.316 Y30.837 E9.25476
G1 X70.076 Y31.005 E9.28721
G1 X70.491 Y31.117 E9.30514
G1 X70.977 Y31.293 E9.32668
G1 X71.686 Y31.593 E9.35880
G1 X72.355 Y31.942 E9.39024
G1 X73.002 Y32.350 E9.42214
G1 X73.518 Y32.722 E9.44864
G1 X73.870 Y33.025 E9.46803
G1 X74.427 Y33.555 E9.50007
G1 X74.949 Y34.144 E9.53287
G1 X75.446 Y34.808 E9.56746
G1 X75.862 Y35.476 E9.60025
G1 X76.212 Y36.161 E9.63234
G1 X76.509 Y36.884 E9.66491
G1 X76.756 Y37.669 E9.69921
G1 X76.929 Y38.435 E9.73196
G1 X77.035 Y39.210 E9.76455
G1 X77.079 Y39.858 E9.79164
G1 X77.043 Y43.956 E9.96249
G1 X76.887 Y55.762 E10.45474
G1 X76.813 Y60.460 E10.65060
G1 X76.776 Y60.962 E10.67158
G1 X76.675 Y61.753 E10.70483
G1 X76.545 Y62.398 E10.73227
G1 X76.402 Y62.921 E10.75486
G1 X76.188 Y63.529 E10.78173
G1 X75.884 Y64.236 E10.81382
G1 X75.515 Y64.927 E10.84648
G1 X75.067 Y65.619 E10.88086
G1 X74.587 Y66.240 E10.91358
G1 X74.067 Y66.806 E10.94562
G1 X73.489 Y67.338 E10.97836
G1 X72.836 Y67.845 E11.01282
G1 X72.177 Y68.272 E11.04555
G1 X71.499 Y68.636 E11.07763
G1 X70.782 Y68.945 E11.11021
G1 X70.002 Y69.207 E11.14448
G1 X69.242 Y69.393 E11.17713
G1 X68.474 Y69.514 E11.20951
G1 X67.776 Y69.571 E11.23872
G1 X66.678 Y69.577 E11.28449
G1 X60.306 Y69.503 E11.55016
G1 X50.051 Y69.361 E11.97773
G1 X46.750 Y69.294 E12.11537
G1 X46.128 Y69.232 E12.14143
G1 X45.429 Y69.114 E12.17096
G1 X44.726 Y68.939 E12.20119
G1 X43.996 Y68.695 E12.23329
G1 X43.275 Y68.385 E12.26599
G1 X42.546 Y67.997 E12.30042
G1 X41.887 Y67.570 E12.33314
G1 X41.279 Y67.100 E12.36517
G1 X40.700 Y66.568 E12.39795
G1 X40.140 Y65.960 E12.43245
G1 X39.658 Y65.338 E12.46522
G1 X39.239 Y64.693 E12.49730
G1 X38.870 Y64.003 E12.52993
G1 X38.544 Y63.248 E12.56421
G1 X38.295 Y62.507 E12.59681
G1 X38.111 Y61.757 E12.62900
G1 X37.990 Y60.987 E12.66148
G1 X37.918 Y59.782 E12.71179
G1 X38.112 Y44.525 E13.34789
G1 X38.186 Y39.688 E13.54959
G1 X38.208 Y39.307 E13.56549
G1 X38.288 Y38.508 E13.59898
G1 X38.403 Y37.844 E13.62707
G1 X38.541 Y37.288 E13.65097
G1 X38.745 Y36.659 E13.67853
G1 X39.035 Y35.945 E13.71062
G1 X39.389 Y35.247 E13.74326
G1 X39.822 Y34.545 E13.77765
G1 X40.244 Y33.974 E13.80726
G1 X40.707 Y34.282 F2220.000
G1 X41.215 Y33.705 E13.83930 F864.000
G1 X41.714 Y33.226 E13.86814
G1 X42.356 Y32.705 E13.90261
G1 X42.928 Y32.316 E13.93144
G1 X43.599 Y31.939 E13.96353
G1 X44.225 Y31.652 E13.99222
G1 X44.998 Y31.374 E14.02646
G1 X45.662 Y31.197 E14.05512
G1 X46.420 Y31.060 E14.08726
G1 X47.064 Y30.996 E14.11424
G1 X48.376 Y30.980 E14.16894
G1 X67.560 Y31.237 E14.96876 F864.000
G1 X68.549 Y31.291 E15.01007
G1 X69.196 Y31.381 E15.03726
G1 X70.321 Y31.648 E15.08549
G1 X70.760 Y31.806 E15.10493
G1 X71.469 Y32.106 E15.13705
G1 X72.058 Y32.413 E15.16474
G1 X72.705 Y32.821 E15.19664
G1 X73.176 Y33.162 E15.22084
G1 X73.486 Y33.429 E15.23792
G1 X74.043 Y33.959 E15.26996
G1 X74.503 Y34.477 E15.29885
G1 X74.999 Y35.142 E15.33344
G1 X75.366 Y35.730 E15.36232
G1 X75.716 Y36.415 E15.39440
G1 X75.977 Y37.052 E15.42309
G1 X76.225 Y37.836 E15.45738
G1 X76.377 Y38.511 E15.48624
G1 X76.483 Y39.286 E15.51882
G1 X76.522 Y39.857 E15.54268
G1 X76.486 Y43.949 E15.71331
G1 X76.330 Y55.755 E16.20551
G1 X76.256 Y60.449 E16.40123
G1 X76.224 Y60.891 E16.41972
G1 X76.122 Y61.682 E16.45297
G1 X76.008 Y62.251 E16.47713
G1 X75.865 Y62.773 E16.49972
G1 X75.677 Y63.309 E16.52339
G1 X75.372 Y64.016 E16.55548
G1 X75.047 Y64.624 E16.58424
G1 X74.599 Y65.317 E16.61862
G1 X74.176 Y65.864 E16.64745
G1 X73.656 Y66.430 E16.67948
G1 X73.148 Y66.898 E16.70832
G1 X72.495 Y67.405 E16.74277
G1 X71.914 Y67.781 E16.77160
G1 X71.236 Y68.144 E16.80369
G1 X70.604 Y68.417 E16.83238
G1 X69.825 Y68.679 E16.86665
G1 X69.155 Y68.843 E16.89541
G1 X68.388 Y68.964 E16.92778
G1 X67.773 Y69.014 E16.95351
G1 X66.684 Y69.020 E16.99891
G1 X60.313 Y68.946 E17.26450
G1 X50.060 Y68.804 E17.69202
G1 X46.768 Y68.737 E17.82926
G1 X46.220 Y68.682 E17.85221
G1 X45.522 Y68.565 E17.88174
G1 X44.902 Y68.410 E17.90837
G1 X44.172 Y68.167 E17.94046
G1 X43.537 Y67.894 E17.96926
G1 X42.809 Y67.505 E18.00369
G1 X42.228 Y67.130 E18.03251
G1 X41.620 Y66.659 E18.06455
G1 X41.110 Y66.191 E18.09342
G1 X40.550 Y65.582 E18.12791
G1 X40.126 Y65.035 E18.15678
G1 X39.707 Y64.390 E18.18886
G1 X39.381 Y63.782 E18.21760
G1 X39.055 Y63.027 E18.25187
G1 X38.836 Y62.374 E18.28059
G1 X38.653 Y61.624 E18.31278
G1 X38.546 Y60.946 E18.34138
G1 X38.475 Y59.788 E18.38978
G1 X38.669 Y44.533 E19.02578
G1 X38.743 Y39.698 E19.22740
G1 X38.763 Y39.362 E19.24139
G1 X38.842 Y38.563 E19.27489
G1 X38.943 Y37.978 E19.29963
G1 X39.082 Y37.422 E19.32352
G1 X39.262 Y36.868 E19.34780
G1 X39.551 Y36.155 E19.37989
G1 X39.863 Y35.540 E19.40864
G1 X40.296 Y34.838 E19.44303
G1 X40.663 Y34.342 E19.46873
G1 X41.126 Y34.650 F2220.000
G1 X41.633 Y34.073 E19.50077 F864.000
G1 X42.065 Y33.658 E19.52571
G1 X42.707 Y33.138 E19.56017
G1 X43.202 Y32.802 E19.58511
G1 X43.872 Y32.424 E19.61719
G1 X44.413 Y32.177 E19.64200
G1 X45.186 Y31.899 E19.67624
G1 X45.760 Y31.745 E19.70101
G1 X46.519 Y31.608 E19.73315
G1 X47.076 Y31.553 E19.75648
G1 X48.371 Y31.537 E19.81048
G1 X67.552 Y31.794 E20.61020 F864.000
G1 X68.517 Y31.847 E20.65047
G1 X69.075 Y31.925 E20.67398
G1 X69.835 Y32.093 E20.70643
G1 X70.152 Y32.178 E20.72009
G1 X70.543 Y32.319 E20.73741
G1 X71.252 Y32.619 E20.76953
G1 X71.761 Y32.885 E20.79347
G1 X72.409 Y33.293 E20.82537
G1 X72.834 Y33.601 E20.84728
G1 X73.659 Y34.362 E20.89407
G1 X74.057 Y34.810 E20.91904
G1 X74.553 Y35.475 E20.95364
G1 X74.870 Y35.983 E20.97861
G1 X75.220 Y36.669 E21.01069
G1 X75.446 Y37.219 E21.03550
G1 X75.693 Y38.004 E21.06979
G1 X75.825 Y38.587 E21.09473
G1 X75.932 Y39.362 E21.12732
G1 X75.965 Y39.855 E21.14795
G1 X75.929 Y43.943 E21.31835
G1 X75.773 Y55.747 E21.81051
G1 X75.699 Y60.438 E22.00610
G1 X75.671 Y60.820 E22.02208
G1 X75.570 Y61.611 E22.05533
G1 X75.471 Y62.103 E22.07622
G1 X75.327 Y62.625 E22.09881
G1 X75.165 Y63.089 E22.11928
G1 X74.861 Y63.796 E22.15137
G1 X74.580 Y64.322 E22.17623
G1 X74.132 Y65.014 E22.21061
G1 X73.766 Y65.487 E22.23553
G1 X73.246 Y66.053 E22.26757
G1 X72.806 Y66.458 E22.29250
G1 X72.153 Y66.965 E22.32696
G1 X71.652 Y67.290 E22.35188
G1 X70.973 Y67.653 E22.38396
G1 X70.427 Y67.889 E22.40877
G1 X69.648 Y68.151 E22.44304
G1 X69.068 Y68.293 E22.46791
G1 X68.301 Y68.414 E22.50028
G1 X67.769 Y68.457 E22.52253
G1 X66.689 Y68.463 E22.56756
G1 X60.321 Y68.389 E22.83306
G1 X50.068 Y68.247 E23.26052
G1 X46.786 Y68.180 E23.39738
G1 X46.313 Y68.133 E23.41722
G1 X45.614 Y68.016 E23.44675
G1 X45.078 Y67.882 E23.46977
G1 X44.348 Y67.638 E23.50186
G1 X43.799 Y67.402 E23.52676
G1 X43.071 Y67.014 E23.56120
G1 X42.569 Y66.689 E23.58611
G1 X41.961 Y66.219 E23.61815
G1 X41.520 Y65.814 E23.64311
G1 X40.960 Y65.205 E23.67760
G1 X40.593 Y64.732 E23.70256
G1 X40.174 Y64.086 E23.73464
G1 X39.893 Y63.561 E23.75949
G1 X39.567 Y62.806 E23.79377
G1 X39.377 Y62.242 E23.81859
G1 X39.194 Y61.492 E23.85078
G1 X39.101 Y60.906 E23.87551
G1 X39.032 Y59.793 E23.92199
G1 X39.226 Y44.541 E24.55790
G1 X39.317 Y39.418 E24.77151
G1 X39.396 Y38.618 E24.80501
G1 X39.484 Y38.112 E24.82640
G1 X39.622 Y37.556 E24.85029
G1 X39.778 Y37.078 E24.87128
G1 X40.067 Y36.364 E24.90337
G1 X40.337 Y35.832 E24.92823
G1 X40.770 Y35.130 E24.96262
G1 X41.081 Y34.710 E24.98442
G1 F1776
G1 X41.633 Y34.073 E20.92483
G1 F1776
G1 X42.065 Y33.658 E18.04509
G1 F1776
G1 X42.171 Y33.572 E17.38441
G1 E16.98442 F9000.00000
G92 E0
G1 X70.392 Y61.604 F2220.000
G1 E8.00000 F9000.00000
G1 X70.342 Y61.721 E8.00529 F864.000
G1 X70.023 Y62.213 E8.02974
G1 X69.665 Y62.603 E8.05183
G1 X69.200 Y62.964 E8.07635
G1 X68.731 Y63.215 E8.09851
G1 X68.177 Y63.401 E8.12287
G1 X67.633 Y63.486 E8.14585
G1 X66.728 Y63.492 E8.18356
G1 X60.386 Y63.418 E8.44797
G1 X50.148 Y63.276 E8.87482
G1 X47.035 Y63.214 E9.00464
G1 X46.547 Y63.132 E9.02525
G1 X46.035 Y62.960 E9.04779
G1 X45.516 Y62.684 E9.07229
G1 X45.097 Y62.360 E9.09437
G1 X44.699 Y61.926 E9.11892
G1 X44.409 Y61.481 E9.14106
G1 X44.178 Y60.944 E9.16543
G1 X44.050 Y60.424 E9.18774
G1 X44.004 Y59.785 E9.21446
G1 X44.268 Y39.928 E10.04238
G1 X44.334 Y39.207 E10.07255
G1 X44.422 Y38.853 E10.08777
G1 X44.629 Y38.342 E10.11072
G1 X44.938 Y37.843 E10.13518
G1 X45.287 Y37.445 E10.15727
G1 X45.744 Y37.075 E10.18179
G1 X46.208 Y36.814 E10.20395
G1 X46.757 Y36.617 E10.22830
G1 X47.284 Y36.522 E10.25062
G1 X48.336 Y36.508 E10.29448
G1 X67.451 Y36.764 E11.09143
G1 X68.105 Y36.803 E11.11876 F864.000
G1 X68.718 Y36.944 E11.14497
G1 X69.209 Y37.152 E11.16720
G1 X69.726 Y37.482 E11.19278
G1 X70.145 Y37.881 E11.21689
G1 X70.499 Y38.354 E11.24152
G1 X70.741 Y38.827 E11.26367
G1 X70.916 Y39.385 E11.28804
G1 X70.993 Y39.937 E11.31128
G1 X70.887 Y49.498 E11.70990
G1 X70.730 Y60.268 E12.15894
G1 X70.651 Y60.881 E12.18470
G1 X70.560 Y61.213 E12.19904
G1 X70.421 Y61.535 E12.21368
G1 X70.903 Y61.824 F2220.000
G1 X70.835 Y61.984 E12.22092 F864.000
G1 X70.465 Y62.555 E12.24928
G1 X70.043 Y63.015 E12.27529
G1 X69.504 Y63.433 E12.30372
G1 X68.953 Y63.728 E12.32979
G1 X68.310 Y63.944 E12.35806
G1 X67.678 Y64.043 E12.38474
G1 X66.727 Y64.049 E12.42441
G1 X60.379 Y63.975 E12.68905
G1 X50.139 Y63.833 E13.11599
G1 X46.983 Y63.770 E13.24759
G1 X46.412 Y63.674 E13.27172
G1 X45.814 Y63.474 E13.29802
G1 X45.213 Y63.153 E13.32643
G1 X44.719 Y62.771 E13.35244
G1 X44.257 Y62.269 E13.38090
G1 X43.917 Y61.745 E13.40696
G1 X43.648 Y61.122 E13.43523
G1 X43.498 Y60.512 E13.46143
G1 X43.446 Y59.802 E13.49111
G1 X43.712 Y39.898 E14.32093
G1 X43.784 Y39.114 E14.35378
G1 X43.891 Y38.680 E14.37242
G1 X44.131 Y38.090 E14.39897
G1 X44.488 Y37.511 E14.42734
G1 X44.900 Y37.042 E14.45335
G1 X45.430 Y36.613 E14.48179
G1 X45.975 Y36.306 E14.50786
G1 X46.613 Y36.077 E14.53611
G1 X47.231 Y35.965 E14.56230
G1 X48.336 Y35.951 E14.60838
G1 X67.471 Y36.207 E15.40616
G1 X68.185 Y36.249 E15.43598 F864.000
G1 X68.890 Y36.413 E15.46617
G1 X69.467 Y36.657 E15.49229
G1 X70.090 Y37.059 E15.52320
G1 X70.563 Y37.510 E15.55044
G1 X70.973 Y38.059 E15.57899
G1 X71.258 Y38.615 E15.60505
G1 X71.462 Y39.262 E15.63333
G1 X71.550 Y39.902 E15.66025
G1 X71.444 Y49.505 E16.06064
G1 X71.286 Y60.308 E16.51103
G1 X71.199 Y60.991 E16.53974
G1 X71.087 Y61.398 E16.55733
G1 X70.933 Y61.755 E16.57357
G1 X71.415 Y62.045 F2220.000
G1 X71.328 Y62.247 E16.58277 F691.200
G1 X70.907 Y62.897 E16.61504
G1 X70.422 Y63.426 E16.64497
G1 X69.809 Y63.902 E16.67732
G1 X69.175 Y64.241 E16.70730
G1 X68.443 Y64.487 E16.73946
G1 X67.723 Y64.600 E16.76985
G1 X66.725 Y64.606 E16.81147
G1 X60.372 Y64.532 E17.07634
G1 X50.130 Y64.390 E17.50338
G1 X46.931 Y64.326 E17.63676
G1 X46.277 Y64.216 E17.66440
G1 X45.593 Y63.988 E17.69446
G1 X44.909 Y63.623 E17.72679
G1 X44.341 Y63.183 E17.75671
G1 X43.815 Y62.612 E17.78910
G1 X43.424 Y62.009 E17.81908
G1 X43.118 Y61.300 E17.85125
G1 X42.946 Y60.599 E17.88135
G1 X42.889 Y59.818 E17.91397
G1 X43.155 Y39.869 E18.74571
G1 X43.233 Y39.021 E18.78124
G1 X43.360 Y38.507 E18.80329
G1 X43.632 Y37.837 E18.83344
G1 X44.039 Y37.178 E18.86572
G1 X44.513 Y36.639 E18.89565
G1 X45.116 Y36.150 E18.92801
G1 X45.743 Y35.797 E18.95799
G1 X46.468 Y35.537 E18.99013
G1 X47.178 Y35.409 E19.02019
G1 X48.336 Y35.394 E19.06850
G1 X67.491 Y35.650 E19.86711
G1 X68.265 Y35.696 E19.89942 F691.200
G1 X69.063 Y35.881 E19.93358
G1 X69.726 Y36.161 E19.96360
G1 X70.340 Y36.548 E19.99387
G1 X70.981 Y37.139 E20.03020
G1 X71.448 Y37.763 E20.06268
G1 X71.775 Y38.403 E20.09265
G1 X72.007 Y39.139 E20.12484
G1 X72.108 Y39.866 E20.15544
G1 X72.001 Y49.512 E20.55760
G1 X71.843 Y60.347 E21.00934
G1 X71.747 Y61.100 E21.04100
G1 X71.614 Y61.582 E21.06184
G1 X71.445 Y61.976 E21.07968
G1 X71.196 Y62.070 F2220.000
G1 X70.007 Y38.413 F2220.000
G1 X69.297 Y37.703 E21.12163 F1080.000
G1 X67.944 Y37.140 F2220.000
G1 X70.620 Y39.816 E21.27985 F1080.000
G1 X70.651 Y40.637 E21.31418
G1 X67.110 Y37.097 E21.52348
G1 X66.310 Y37.086 E21.55695
G1 X70.642 Y41.418 E21.81306
G1 X70.634 Y42.200 E21.84572
G1 X65.509 Y37.075 E22.14866
G1 X64.708 Y37.064 E22.18213
G1 X70.625 Y42.981 E22.53188
G1 X70.616 Y43.762 E22.56454
G1 X63.908 Y37.054 E22.96112
G1 X63.107 Y37.043 E22.99459
G1 X70.608 Y44.544 E23.43799
G1 X70.599 Y45.325 E23.47065
G1 X62.306 Y37.032 E23.96086
G1 X61.506 Y37.022 E23.99433
G1 X70.591 Y46.106 E24.53137
G1 X70.582 Y46.888 E24.56403
G1 X60.705 Y37.011 E25.14788
G1 X59.905 Y37.000 E25.18135
G1 X70.573 Y47.669 E25.81203
G1 X70.565 Y48.450 E25.84469
G1 X59.104 Y36.989 E26.52219
G1 X58.303 Y36.979 E26.55566
G1 X70.556 Y49.232 E27.27997
G1 X70.546 Y50.012 E27.31257
G1 X57.503 Y36.968 E28.08362
G1 X56.702 Y36.957 E28.11709
G1 X70.535 Y50.790 E28.93480
G1 X70.523 Y51.569 E28.96735
G1 X55.901 Y36.946 E29.83171
G1 X55.101 Y36.936 E29.86518
G1 X70.512 Y52.347 E30.77619
G1 X70.501 Y53.126 E30.80874
G1 X54.300 Y36.925 E31.76641
G1 X53.499 Y36.914 E31.79988
G1 X70.489 Y53.904 E32.80420
G1 X70.478 Y54.683 E32.83675
G1 X52.699 Y36.904 E33.88773
G1 X51.898 Y36.893 E33.92120
G1 X70.467 Y55.461 E35.01883
G1 X70.455 Y56.240 E35.05138
G1 X51.098 Y36.882 E36.19567
G1 X50.297 Y36.871 E36.22914
G1 X70.444 Y57.018 E37.42009
G1 X70.432 Y57.797 E37.45263
G1 X49.496 Y36.861 E38.69023
G1 X48.696 Y36.850 E38.72370
G1 X70.421 Y58.575 E40.00796
G1 X70.410 Y59.354 E40.04050
G1 X47.903 Y36.848 E41.37092
G1 X47.136 Y36.870 E41.40302
G1 X70.398 Y60.132 E42.77815
G1 X70.331 Y60.855 E42.80848
G1 X46.505 Y37.029 E44.21693
G1 X45.970 Y37.284 E44.24169
G1 X70.134 Y61.448 E45.67012
G1 X69.847 Y61.951 E45.69432
G1 X45.532 Y37.636 E47.13165
G1 X45.153 Y38.047 E47.15501
G1 X69.469 Y62.363 E48.59241
G1 X69.035 Y62.719 E48.61588
G1 X44.868 Y38.552 E50.04449
G1 X44.670 Y39.144 E50.07058
G1 X68.499 Y62.972 E51.47918
G1 X67.864 Y63.128 E51.50648
G1 X44.603 Y39.866 E52.88153
G1 X44.592 Y40.646 E52.91412
G1 X67.102 Y63.155 E54.24471
G1 X66.306 Y63.149 E54.27796
G1 X44.582 Y41.425 E55.56214
G1 X44.572 Y42.205 E55.59472
G1 X65.506 Y63.139 E56.83221
G1 X64.706 Y63.129 E56.86567
G1 X44.561 Y42.984 E58.05646
G1 X44.551 Y43.764 E58.08904
G1 X63.905 Y63.118 E59.23314
G1 X63.105 Y63.108 E59.26660
G1 X44.541 Y44.543 E60.36400
G1 X44.530 Y45.323 E60.39658
G1 X62.305 Y63.097 E61.44729
G1 X61.504 Y63.087 E61.48075
G1 X44.520 Y46.103 E62.48476
G1 X44.509 Y46.882 E62.51734
G1 X60.704 Y63.077 E63.47466
G1 X59.904 Y63.066 E63.50811
G1 X44.499 Y47.662 E64.41874
G1 X44.489 Y48.441 E64.45132
G1 X59.103 Y63.056 E65.31525
G1 X58.303 Y63.045 E65.34870
G1 X44.478 Y49.221 E66.16594
G1 X44.468 Y50.000 E66.19852
G1 X57.503 Y63.035 E66.96906
G1 X56.702 Y63.025 E67.00251
G1 X44.457 Y50.780 E67.72635
G1 X44.447 Y51.559 E67.75894
G1 X55.902 Y63.014 E68.43609
G1 X55.102 Y63.004 E68.46954
G1 X44.437 Y52.339 E69.09999
G1 X44.426 Y53.118 E69.13258
